GerardoEmirSanchez/Integraci-n-de-xArm5-5-DOF-en-NVIDIA-Isaac-Sim-con-ROS-2-Humble-para-pHRI/mediciones/2026.04.28_VIC_pHRI_tanh_2026-04-28_14-26-04.csv
Index,Time_s,Fx,Fy,Fz,F_Amp,Psi_Imp,Psi_Int,Beta,K_Stiffness,Vel_Raw,Vel_Filt,Acc_Raw,Acc_Filt,Lyapunov_V_Nmm,Loop_Duration_s,q1,q2,q3,q4,q5,tau1,tau2,tau3,tau4,tau5,deltaXcmd,deltaYcmd,deltaZcmd,Tx_EE,Ty_EE,Tz_EE,Roll,Pitch,Yaw
0,0.0000,-0.0432,0.0157,-0.0254,0.0525,0.0000,0.0000,0.0000,20.0000,0.9933,0.1340,15.3566,4.8559,0.0000,0.000781,-10.5822,-27.3691,1.5069,25.8622,-10.5822,0.0000,-3.1901,-7.7220,-0.9907,0.0000,-0.008276,-0.003458,0.004267,-0.0035,0.0007,0.0021,-180.0000,0.0000,-0.0000
1,0.0100,-0.0555,0.0111,-0.0258,0.0622,0.0000,0.0000,0.0000,20.0000,1.1607,0.1859,19.6683,5.5521,0.0000,0.000892,-10.5822,-27.3691,1.5069,25.8622,-10.5822,0.0000,-3.1901,-7.7220,-0.9907,0.0000,-0.010074,-0.003002,0.004922,-0.0038,0.0002,0.0019,-180.0000,0.0000,-0.0000
2,0.0200,-0.0688,0.0158,-0.0225,0.0741,0.0000,0.0000,0.0000,20.0000,1.3703,0.2452,23.0845,6.4225,0.0000,0.000832,-10.5822,-27.3691,1.5069,25.8622,-10.5822,0.0000,-3.1901,-7.7220,-0.9907,0.0000,-0.012373,-0.003206,0.004940,-0.0027,0.0007,0.0016,-180.0000,0.0000,-0.0000
3,0.0300,-0.0740,0.0304,-0.0200,0.0825,0.0000,0.0000,0.0000,20.0000,1.5648,0.3125,23.7623,7.3577,0.0001,0.000826,-10.5822,-27.3691,1.5069,25.8622,-10.5822,0.0000,-3.1901,-7.7220,-0.9907,0.0000,-0.014143,-0.004773,0.004695,-0.0019,0.0015,0.0020,-180.0000,0.0000,-0.0000
4,0.0400,-0.0772,0.0463,-0.0249,0.0934,0.0000,0.0000,0.0000,20.0000,1.7747,0.3871,27.7750,8.3705,0.0001,0.000797,-10.5822,-27.3691,1.5069,25.8622,-10.5822,0.0000,-3.1901,-7.7220,-0.9907,0.0000,-0.015410,-0.007221,0.005034,-0.0024,0.0020,0.0022,-180.0000,0.0000,-0.0000
5,0.0500,-0.0806,0.0649,-0.0355,0.1095,0.0000,0.0000,0.0000,20.0000,2.0441,0.4709,35.8316,9.6595,0.0001,0.000820,-10.5822,-27.3691,1.5069,25.8622,-10.5822,0.0000,-3.1901,-7.7220,-0.9907,0.0000,-0.016423,-0.010426,0.006277,-0.0013,0.0019,0.0013,-180.0000,0.0000,-0.0000
6,0.0600,-0.0812,0.0863,-0.0493,0.1283,0.0000,0.0000,0.0000,20.0000,2.3736,0.5665,44.3251,11.3327,0.0002,0.000817,-10.5822,-27.3691,1.5069,25.8622,-10.5822,0.0000,-3.1901,-7.7220,-0.9907,0.0000,-0.017006,-0.014310,0.008330,-0.0016,0.0025,-0.0000,-180.0000,0.0000,-0.0000
7,0.0700,-0.0874,0.1081,-0.0649,0.1534,0.0000,0.0000,0.0000,20.0000,2.8082,0.6778,51.4616,13.3439,0.0003,0.000771,-10.5822,-27.3691,1.5069,25.8622,-10.5822,0.0000,-3.1901,-7.7220,-0.9907,0.0000,-0.017920,-0.018607,0.011011,-0.0019,0.0037,-0.0009,-180.0000,0.0000,-0.0000
8,0.0800,-0.0992,0.1267,-0.0779,0.1788,0.0000,0.0000,0.0000,20.0000,3.3053,0.8087,52.8507,15.4789,0.0004,0.000781,-10.5822,-27.3691,1.5069,25.8622,-10.5822,0.0000,-3.1901,-7.7220,-0.9907,0.0000,-0.019568,-0.022808,0.013763,-0.0018,0.0045,-0.0005,-180.0000,0.0000,-0.0000
9,0.0900,-0.1023,0.1347,-0.0799,0.1871,0.0000,0.0000,0.0000,20.0000,3.6601,0.9558,37.0719,17.1006,0.0005,0.000788,-10.5822,-27.3691,1.5069,25.8622,-10.5822,0.0000,-3.1901,-7.7220,-0.9907,0.0000,-0.020753,-0.025885,0.015456,-0.0000,0.0034,0.0015,-180.0000,0.0000,-0.0000
10,0.1000,-0.0922,0.1312,-0.0678,0.1741,0.0000,0.0000,0.0000,20.0000,3.7184,1.1062,13.8798,17.5613,0.0007,0.000758,-10.5822,-27.3691,1.5069,25.8622,-10.5822,0.0000,-3.1901,-7.7220,-0.9907,0.0000,-0.020355,-0.027180,0.015152,0.0015,0.0024,0.0034,-180.0000,0.0000,-0.0000
11,0.1100,-0.0771,0.1163,-0.0494,0.1480,0.0000,0.0000,0.0000,20.0000,3.4815,1.2433,28.1954,17.7526,0.0009,0.002057,-10.5822,-27.3691,1.5069,25.8622,-10.5822,0.0000,-3.1901,-7.7220,-0.9907,0.0000,-0.018581,-0.026357,0.013121,0.0015,0.0016,0.0049,-180.0000,0.0000,-0.0000
12,0.1200,-0.0644,0.0886,-0.0314,0.1139,0.0000,0.0000,0.0000,20.0000,3.0025,1.3533,49.7054,18.9186,0.0011,0.000793,-10.5822,-27.3691,1.5069,25.8622,-10.5822,0.0000,-3.1901,-7.7220,-0.9907,0.0000,-0.016292,-0.023081,0.010166,0.0014,0.0011,0.0048,-180.0000,0.0000,-0.0000
13,0.1300,-0.0627,0.0617,-0.0164,0.0895,0.0000,0.0000,0.0000,20.0000,2.4747,1.4295,57.2206,20.8188,0.0012,0.000726,-10.5822,-27.3691,1.5069,25.8622,-10.5822,0.0000,-3.1901,-7.7220,-0.9907,0.0000,-0.014821,-0.018534,0.007018,0.0022,0.0000,0.0030,-180.0000,0.0000,-0.0000
14,0.1400,-0.0659,0.0546,-0.0145,0.0868,0.0000,0.0000,0.0000,20.0000,2.1684,1.4786,37.1729,22.2698,0.0014,0.000805,-10.5962,-27.3989,1.5178,25.8811,-10.5962,0.0000,-3.1901,-7.7219,-0.9907,-0.0000,-0.014425,-0.015356,0.005131,0.0017,0.0016,0.0020,-180.0000,-0.0000,-0.0000
15,0.1500,-0.0614,0.0603,-0.0256,0.0898,0.0000,0.0000,0.0000,20.0000,2.0378,1.5129,14.0292,22.4531,0.0015,0.000781,-10.5962,-27.3989,1.5178,25.8811,-10.5962,0.0000,-3.1901,-7.7219,-0.9907,-0.0000,-0.013731,-0.014137,0.005180,0.0006,0.0012,0.0008,-180.0000,-0.0000,-0.0000
16,0.1600,-0.0511,0.0715,-0.0437,0.0982,0.0000,0.0000,0.0000,20.0000,2.0298,1.5416,23.6616,22.2546,0.0017,0.000732,-10.5962,-27.3989,1.5178,25.8811,-10.5962,0.0000,-3.1901,-7.7219,-0.9907,-0.0000,-0.012288,-0.014557,0.007007,0.0016,0.0013,-0.0012,-180.0000,-0.0000,-0.0000
17,0.1700,-0.0403,0.0918,-0.0671,0.1206,0.0000,0.0000,0.0000,20.0000,2.2285,1.5739,44.4408,22.9035,0.0019,0.000814,-10.5962,-27.3989,1.5178,25.8811,-10.5962,0.0000,-3.1901,-7.7219,-0.9907,-0.0000,-0.010384,-0.016782,0.010351,0.0014,0.0013,-0.0012,-180.0000,-0.0000,-0.0000
18,0.1800,-0.0330,0.1111,-0.0862,0.1444,0.0000,0.0000,0.0000,20.0000,2.5855,1.6197,51.9760,24.2955,0.0021,0.000783,-10.5962,-27.3989,1.5178,25.8811,-10.5962,0.0000,-3.1901,-7.7219,-0.9907,-0.0000,-0.008579,-0.019908,0.014090,-0.0010,0.0016,-0.0010,-180.0000,-0.0000,-0.0000
19,0.1900,-0.0385,0.1106,-0.0918,0.1488,0.0000,0.0000,0.0000,20.0000,2.8435,1.6799,31.0489,25.2426,0.0023,0.000749,-10.5962,-27.3989,1.5178,25.8811,-10.5962,0.0000,-3.1901,-7.7219,-0.9907,-0.0000,-0.008112,-0.021551,0.016683,-0.0030,0.0014,-0.0024,-180.0000,-0.0000,-0.0000
20,0.2000,-0.0493,0.0957,-0.0845,0.1369,0.0000,0.0000,0.0000,20.0000,2.8616,1.7444,12.2075,25.0437,0.0026,0.000811,-10.5962,-27.3989,1.5178,25.8811,-10.5962,0.0000,-3.1901,-7.7219,-0.9907,-0.0000,-0.008919,-0.020930,0.017357,-0.0029,0.0011,-0.0025,-180.0000,-0.0000,-0.0000
21,0.2100,-0.0522,0.0910,-0.0665,0.1242,0.0000,0.0000,0.0000,20.0000,2.7353,1.8024,18.4866,24.5103,0.0029,0.000835,-10.5962,-27.3989,1.5178,25.8811,-10.5962,0.0000,-3.1901,-7.7219,-0.9907,-0.0000,-0.009644,-0.020066,0.015892,-0.0026,0.0002,-0.0018,-180.0000,-0.0000,-0.0000
22,0.2200,-0.0482,0.0929,-0.0464,0.1145,0.0000,0.0000,0.0000,20.0000,2.5545,1.8488,28.7114,24.4602,0.0031,0.000777,-10.5962,-27.3989,1.5178,25.8811,-10.5962,0.0000,-3.1901,-7.7219,-0.9907,-0.0000,-0.009624,-0.019746,0.013039,-0.0024,-0.0000,-0.0016,-180.0000,-0.0000,-0.0000
23,0.2300,-0.0378,0.0913,-0.0320,0.1039,0.0000,0.0000,0.0000,20.0000,2.3415,1.8817,32.5021,24.7983,0.0034,0.001298,-10.5962,-27.3989,1.5178,25.8811,-10.5962,0.0000,-3.1901,-7.7219,-0.9907,-0.0000,-0.008555,-0.019371,0.009993,-0.0013,-0.0009,-0.0013,-180.0000,-0.0000,-0.0000
24,0.2400,-0.0251,0.0915,-0.0280,0.0990,0.0000,0.0000,0.0000,20.0000,2.1756,1.9025,28.2276,25.1045,0.0036,0.000758,-10.5962,-27.3989,1.5178,25.8811,-10.5962,0.0000,-3.1901,-7.7219,-0.9907,-0.0000,-0.006678,-0.019141,0.007897,0.0004,-0.0015,-0.0002,-180.0000,-0.0000,-0.0000
25,0.2500,-0.0225,0.0955,-0.0402,0.1060,0.0000,0.0000,0.0000,20.0000,2.1614,1.9171,13.4113,24.8688,0.0039,0.000756,-10.5962,-27.3989,1.5178,25.8811,-10.5962,0.0000,-3.1901,-7.7219,-0.9907,-0.0000,-0.005359,-0.019376,0.007938,0.0009,-0.0007,0.0005,-180.0000,-0.0000,-0.0000
26,0.2600,-0.0314,0.0892,-0.0646,0.1145,0.0000,0.0000,0.0000,20.0000,2.2205,1.9322,25.0985,24.5600,0.0041,0.000810,-10.5962,-27.3989,1.5178,25.8811,-10.5962,0.0000,-3.1901,-7.7219,-0.9907,-0.0000,-0.005515,-0.018836,0.010384,-0.0005,0.0002,0.0008,-180.0000,-0.0000,-0.0000
27,0.2700,-0.0359,0.0730,-0.0897,0.1211,0.0000,0.0000,0.0000,20.0000,2.2887,1.9499,43.4761,25.0951,0.0044,0.000754,-10.5962,-27.3989,1.5178,25.8811,-10.5962,0.0000,-3.1901,-7.7219,-0.9907,-0.0000,-0.006043,-0.016876,0.014229,-0.0016,-0.0000,0.0003,-180.0000,-0.0000,-0.0000
28,0.2800,-0.0331,0.0637,-0.1139,0.1346,0.0000,0.0000,0.0000,20.0000,2.4655,1.9734,49.5332,26.2728,0.0047,0.001293,-10.5962,-27.3989,1.5178,25.8811,-10.5962,0.0000,-3.1901,-7.7219,-0.9907,-0.0000,-0.006039,-0.014836,0.018743,-0.0014,0.0009,0.0005,-180.0000,-0.0000,-0.0000
29,0.2900,-0.0266,0.0637,-0.1346,0.1513,0.0000,0.0000,0.0000,20.0000,2.7526,2.0084,47.2666,27.4899,0.0050,0.000837,-10.5962,-27.3989,1.5178,25.8811,-10.5962,0.0000,-3.1901,-7.7219,-0.9907,-0.0000,-0.005378,-0.013673,0.023276,-0.0013,0.0009,0.0010,-180.0000,-0.0000,-0.0000
30,0.3000,-0.0131,0.0695,-0.1424,0.1589,0.0000,0.0000,0.0000,20.0000,3.0007,2.0561,36.6792,28.2866,0.0054,0.000806,-10.5962,-27.3989,1.5178,25.8811,-10.5962,0.0000,-3.1901,-7.7219,-0.9907,-0.0000,-0.003646,-0.013580,0.026508,-0.0009,-0.0002,0.0010,-180.0000,-0.0000,-0.0000
31,0.3100,0.0070,0.0764,-0.1375,0.1574,0.0000,0.0000,0.0000,20.0000,3.1178,2.1113,32.7622,28.6406,0.0057,0.000740,-10.5962,-27.3989,1.5178,25.8811,-10.5962,0.0000,-3.1901,-7.7219,-0.9907,-0.0000,-0.000677,-0.014195,0.027750,-0.0002,-0.0012,0.0008,-180.0000,-0.0000,-0.0000
32,0.3200,0.0235,0.0760,-0.1245,0.1478,0.0000,0.0000,0.0000,20.0000,3.0822,2.1657,33.7109,28.8934,0.0061,0.000852,-10.5962,-27.3989,1.5178,25.8811,-10.5962,0.0000,-3.1901,-7.7219,-0.9907,-0.0000,0.002616,-0.014470,0.027088,-0.0008,-0.0014,0.0005,-180.0000,-0.0000,-0.0000
33,0.3300,0.0265,0.0664,-0.1018,0.1244,0.0000,0.0000,0.0000,20.0000,2.8345,2.2093,35.2880,29.2017,0.0064,0.000806,-10.5962,-27.3989,1.5178,25.8811,-10.5962,0.0000,-3.1901,-7.7219,-0.9907,-0.0000,0.004738,-0.013634,0.024395,-0.0001,-0.0003,-0.0004,-180.0000,-0.0000,-0.0000
34,0.3400,0.0275,0.0566,-0.0731,0.0965,0.0000,0.0000,0.0000,20.0000,2.4590,2.2333,42.8398,29.7442,0.0067,0.000782,-10.6736,-27.5121,1.5460,25.9660,-10.6736,-0.0019,-3.8804,-7.7255,-0.9895,-0.0000,0.005609,-0.012675,0.020311,-0.0006,-0.0012,0.0004,-180.0000,0.0000,-0.0000
35,0.3500,0.0297,0.0433,-0.0514,0.0735,0.0000,0.0000,0.0000,20.0000,2.0176,2.2336,48.9950,30.6339,0.0069,0.000762,-10.6736,-27.5121,1.5460,25.9660,-10.6736,-0.0019,-3.8804,-7.7255,-0.9895,-0.0000,0.006300,-0.010791,0.015842,-0.0021,-0.0001,0.0005,-180.0000,0.0000,-0.0000
36,0.3600,0.0244,0.0265,-0.0367,0.0514,0.0000,0.0000,0.0000,20.0000,1.5597,2.2091,48.3439,31.6260,0.0071,0.000761,-10.6736,-27.5121,1.5460,25.9660,-10.6736,-0.0019,-3.8804,-7.7255,-0.9895,-0.0000,0.006145,-0.008046,0.011865,-0.0042,-0.0002,0.0005,-180.0000,0.0000,-0.0000
37,0.3700,0.0089,0.0142,-0.0253,0.0304,0.0000,0.0000,0.0000,20.0000,1.0978,2.1607,46.4988,32.4949,0.0072,0.000729,-10.6736,-27.5121,1.5460,25.9660,-10.6736,-0.0019,-3.8804,-7.7255,-0.9895,-0.0000,0.004493,-0.005282,0.008510,-0.0033,-0.0007,0.0012,-180.0000,0.0000,-0.0000
38,0.3800,-0.0118,-0.0010,-0.0213,0.0243,0.0000,0.0000,0.0000,20.0000,0.6782,2.0907,48.4896,33.3200,0.0073,0.000767,-10.6736,-27.5121,1.5460,25.9660,-10.6736,-0.0019,-3.8804,-7.7255,-0.9895,-0.0000,0.001503,-0.002221,0.006230,-0.0054,-0.0021,0.0014,-180.0000,0.0000,-0.0000
39,0.3900,-0.0365,-0.0232,-0.0234,0.0492,0.0000,0.0000,0.0000,20.0000,0.6036,2.0110,57.8538,34.4120,0.0073,0.000744,-10.6736,-27.5121,1.5460,25.9660,-10.6736,-0.0019,-3.8804,-7.7255,-0.9895,-0.0000,-0.002622,0.001693,0.005166,-0.0055,-0.0009,0.0001,-180.0000,0.0000,-0.0000
40,0.4000,-0.0619,-0.0421,-0.0223,0.0781,0.0000,0.0000,0.0000,20.0000,1.0401,1.9455,63.2969,35.8512,0.0073,0.000720,-10.6736,-27.5121,1.5460,25.9660,-10.6736,-0.0019,-3.8804,-7.7255,-0.9895,-0.0000,-0.007437,0.005741,0.004462,-0.0056,-0.0013,-0.0002,-180.0000,0.0000,-0.0000
41,0.4100,-0.0722,-0.0471,-0.0176,0.0879,0.0000,0.0000,0.0000,20.0000,1.4424,1.9068,46.5529,36.9004,0.0074,0.000750,-10.6736,-27.5121,1.5460,25.9660,-10.6736,-0.0019,-3.8804,-7.7255,-0.9895,-0.0000,-0.011110,0.008467,0.003595,-0.0035,-0.0006,-0.0003,-180.0000,0.0000,-0.0000
42,0.4200,-0.0600,-0.0385,-0.0177,0.0734,0.0000,0.0000,0.0000,20.0000,1.5303,1.8837,11.1702,36.4582,0.0074,0.000806,-10.6736,-27.5121,1.5460,25.9660,-10.6736,-0.0019,-3.8804,-7.7255,-0.9895,-0.0000,-0.011902,0.009098,0.003123,-0.0029,-0.0007,0.0003,-180.0000,0.0000,-0.0000
43,0.4300,-0.0316,-0.0241,-0.0230,0.0459,0.0000,0.0000,0.0000,20.0000,1.2844,1.8575,26.8202,35.4976,0.0074,0.000704,-10.6736,-27.5121,1.5460,25.9660,-10.6736,-0.0019,-3.8804,-7.7255,-0.9895,-0.0000,-0.009474,0.007988,0.003379,-0.0022,-0.0019,0.0004,-180.0000,0.0000,-0.0000
44,0.4400,0.0008,-0.0074,-0.0301,0.0310,0.0000,0.0000,0.0000,20.0000,0.8598,1.8143,52.1477,35.7168,0.0074,0.000786,-10.6736,-27.5121,1.5460,25.9660,-10.6736,-0.0019,-3.8804,-7.7255,-0.9895,-0.0000,-0.004871,0.005687,0.004225,-0.0023,-0.0024,0.0012,-180.0000,0.0000,-0.0000
45,0.4500,0.0250,0.0102,-0.0421,0.0500,0.0000,0.0000,0.0000,20.0000,0.6451,1.7559,60.5517,36.8518,0.0074,0.000773,-10.6736,-27.5121,1.5460,25.9660,-10.6736,-0.0019,-3.8804,-7.7255,-0.9895,-0.0000,0.000098,0.002648,0.005881,-0.0008,-0.0026,0.0012,-180.0000,0.0000,-0.0000
46,0.4600,0.0276,0.0253,-0.0592,0.0700,0.0000,0.0000,0.0000,20.0000,0.9064,1.7019,51.0798,37.8950,0.0075,0.001291,-10.6736,-27.5121,1.5460,25.9660,-10.6736,-0.0019,-3.8804,-7.7255,-0.9895,-0.0000,0.003106,-0.000546,0.008497,-0.0008,-0.0025,0.0005,-180.0000,0.0000,-0.0000
47,0.4700,0.0088,0.0347,-0.0734,0.0817,0.0000,0.0000,0.0000,20.0000,1.2155,1.6667,39.4041,38.2991,0.0077,0.000755,-10.6736,-27.5121,1.5460,25.9660,-10.6736,-0.0019,-3.8804,-7.7255,-0.9895,-0.0000,0.002882,-0.003254,0.011351,-0.0019,-0.0020,-0.0006,-180.0000,0.0000,-0.0000
48,0.4800,-0.0186,0.0396,-0.0804,0.0915,0.0000,0.0000,0.0000,20.0000,1.4573,1.6485,41.5095,38.4178,0.0079,0.000792,-10.6736,-27.5121,1.5460,25.9660,-10.6736,-0.0019,-3.8804,-7.7255,-0.9895,-0.0000,0.000009,-0.005231,0.013601,-0.0027,-0.0008,-0.0010,-180.0000,0.0000,-0.0000
49,0.4900,-0.0463,0.0439,-0.0827,0.1044,0.0000,0.0000,0.0000,20.0000,1.7053,1.6448,48.3421,38.7758,0.0081,0.000742,-10.6736,-27.5121,1.5460,25.9660,-10.6736,-0.0019,-3.8804,-7.7255,-0.9895,-0.0000,-0.004348,-0.006747,0.015046,-0.0025,-0.0002,-0.0021,-180.0000,0.0000,-0.0000
50,0.5000,-0.0679,0.0532,-0.0832,0.1199,0.0000,0.0000,0.0000,20.0000,2.0085,1.6565,49.5005,39.3339,0.0085,0.000787,-10.6736,-27.5121,1.5460,25.9660,-10.6736,-0.0019,-3.8804,-7.7255,-0.9895,-0.0000,-0.008904,-0.008501,0.015871,-0.0029,-0.0001,-0.0026,-180.0000,0.0000,-0.0000
51,0.5100,-0.0766,0.0603,-0.0837,0.1285,0.0000,0.0000,0.0000,20.0000,2.2825,1.6834,37.9153,39.5745,0.0089,0.000730,-10.6736,-27.5121,1.5460,25.9660,-10.6736,-0.0019,-3.8804,-7.7255,-0.9895,-0.0000,-0.012281,-0.010160,0.016339,-0.0043,-0.0006,-0.0016,-180.0000,0.0000,-0.0000
52,0.5200,-0.0763,0.0647,-0.0827,0.1298,0.0000,0.0000,0.0000,20.0000,2.4534,1.7210,22.4983,39.0592,0.0094,0.000812,-10.6736,-27.5121,1.5460,25.9660,-10.6736,-0.0019,-3.8804,-7.7255,-0.9895,-0.0000,-0.014085,-0.011497,0.016473,-0.0042,0.0006,-0.0017,-180.0000,0.0000,-0.0000
53,0.5300,-0.0725,0.0730,-0.0783,0.1293,0.0000,0.0000,0.0000,20.0000,2.5373,1.7636,17.0285,37.9978,0.0099,0.000782,-10.6736,-27.5121,1.5460,25.9660,-10.6736,-0.0019,-3.8804,-7.7255,-0.9895,-0.0000,-0.014676,-0.013042,0.016072,-0.0040,0.0005,-0.0015,-180.0000,0.0000,-0.0000
54,0.5400,-0.0665,0.0781,-0.0723,0.1255,0.0000,0.0000,0.0000,20.0000,2.6118,1.8082,18.1049,36.8739,0.0104,0.000834,-10.7384,-27.6531,1.5589,26.0942,-10.7384,0.0018,-4.4262,-7.7587,-1.4727,0.0000,-0.014595,-0.014829,0.015788,-0.0037,0.0011,-0.0004,-180.0000,0.0000,-0.0000
55,0.5500,-0.0547,0.0751,-0.0661,0.1140,0.0000,0.0000,0.0000,20.0000,2.5340,1.8503,16.3362,35.7928,0.0109,0.000764,-10.7384,-27.6531,1.5589,26.0942,-10.7384,0.0018,-4.4262,-7.7587,-1.4727,0.0000,-0.013344,-0.015489,0.014971,-0.0034,0.0009,0.0020,-180.0000,0.0000,-0.0000
56,0.5600,-0.0354,0.0709,-0.0565,0.0973,0.0000,0.0000,0.0000,20.0000,2.3125,1.8818,30.1136,35.1015,0.0114,0.000757,-10.7384,-27.6531,1.5589,26.0942,-10.7384,0.0018,-4.4262,-7.7587,-1.4727,0.0000,-0.010697,-0.015398,0.013537,-0.0024,0.0003,0.0026,-180.0000,0.0000,-0.0000
57,0.5700,-0.0134,0.0734,-0.0462,0.0878,0.0000,0.0000,0.0000,20.0000,2.0694,1.8988,41.2783,35.1342,0.0118,0.000776,-10.7384,-27.6531,1.5589,26.0942,-10.7384,0.0018,-4.4262,-7.7587,-1.4727,0.0000,-0.007011,-0.015572,0.011688,-0.0005,0.0000,0.0041,-180.0000,0.0000,-0.0000
58,0.5800,0.0052,0.0790,-0.0414,0.0894,0.0000,0.0000,0.0000,20.0000,1.9366,1.9046,42.4644,35.5048,0.0122,0.000766,-10.7384,-27.6531,1.5589,26.0942,-10.7384,0.0018,-4.4262,-7.7587,-1.4727,0.0000,-0.003099,-0.016195,0.010157,0.0008,0.0006,0.0050,-180.0000,0.0000,-0.0000
59,0.5900,0.0205,0.0924,-0.0397,0.1026,0.0000,0.0000,0.0000,20.0000,2.0048,1.9082,41.7855,35.8689,0.0126,0.000829,-10.7384,-27.6531,1.5589,26.0942,-10.7384,0.0018,-4.4262,-7.7587,-1.4727,0.0000,0.000600,-0.017841,0.009124,0.0008,0.0003,0.0064,-180.0000,0.0000,-0.0000
60,0.6000,0.0251,0.1162,-0.0376,0.1247,0.0000,0.0000,0.0000,20.0000,2.2895,1.9213,41.8932,36.1974,0.0130,0.000798,-10.7384,-27.6531,1.5589,26.0942,-10.7384,0.0018,-4.4262,-7.7587,-1.4727,0.0000,0.003102,-0.021104,0.008319,0.0008,0.0016,0.0054,-180.0000,0.0000,-0.0000
61,0.6100,0.0129,0.1405,-0.0356,0.1455,0.0000,0.0000,0.0000,20.0000,2.6629,1.9519,42.4351,36.5256,0.0135,0.000733,-10.7384,-27.6531,1.5589,26.0942,-10.7384,0.0018,-4.4262,-7.7587,-1.4727,0.0000,0.003263,-0.025293,0.007662,0.0004,0.0029,0.0041,-180.0000,0.0000,-0.0000
62,0.6200,-0.0043,0.1630,-0.0311,0.1660,0.0000,0.0000,0.0000,20.0000,3.0623,2.0020,48.7553,37.0245,0.0140,0.000816,-10.7384,-27.6531,1.5589,26.0942,-10.7384,0.0018,-4.4262,-7.7587,-1.4727,0.0000,0.001617,-0.029807,0.006834,-0.0009,0.0027,0.0028,-180.0000,0.0000,-0.0000
63,0.6300,-0.0216,0.1913,-0.0226,0.1938,0.0000,0.0000,0.0000,20.0000,3.5512,2.0737,60.3240,37.9880,0.0147,0.000770,-10.7384,-27.6531,1.5589,26.0942,-10.7384,0.0018,-4.4262,-7.7587,-1.4727,0.0000,-0.001025,-0.035067,0.005513,-0.0005,0.0029,0.0016,-180.0000,0.0000,-0.0000
64,0.6400,-0.0377,0.2143,-0.0142,0.2181,0.0000,0.0000,0.0000,20.0000,4.0611,2.1690,61.9376,39.2610,0.0154,0.001310,-10.7384,-27.6531,1.5589,26.0942,-10.7384,0.0018,-4.4262,-7.7587,-1.4727,0.0000,-0.004090,-0.040212,0.003934,-0.0010,0.0031,0.0001,-180.0000,0.0000,-0.0000
65,0.6500,-0.0449,0.2202,-0.0044,0.2247,0.0000,0.0000,0.0000,20.0000,4.4089,2.2827,45.2401,40.0491,0.0163,0.000761,-10.7384,-27.6531,1.5589,26.0942,-10.7384,0.0018,-4.4262,-7.7587,-1.4727,0.0000,-0.006499,-0.043558,0.002072,-0.0015,0.0024,-0.0006,-180.0000,0.0000,-0.0000
66,0.6600,-0.0484,0.2154,0.0051,0.2208,0.0000,0.0000,0.0000,20.0000,4.5584,2.4038,28.9571,39.8868,0.0172,0.000754,-10.7384,-27.6531,1.5589,26.0942,-10.7384,0.0018,-4.4262,-7.7587,-1.4727,0.0000,-0.008162,-0.044847,0.000082,-0.0015,0.0025,-0.0007,-180.0000,0.0000,-0.0000
67,0.6700,-0.0574,0.1985,0.0085,0.2068,0.0000,0.0000,0.0000,20.0000,4.4918,2.5204,25.4267,39.1885,0.0181,0.000820,-10.7384,-27.6531,1.5589,26.0942,-10.7384,0.0018,-4.4262,-7.7587,-1.4727,0.0000,-0.009966,-0.043777,-0.001355,-0.0024,0.0023,-0.0012,-180.0000,0.0000,-0.0000
68,0.6800,-0.0597,0.1691,0.0058,0.1794,0.0000,0.0000,0.0000,20.0000,4.1729,2.6201,38.5014,38.7911,0.0190,0.000751,-10.7384,-27.6531,1.5589,26.0942,-10.7384,0.0018,-4.4262,-7.7587,-1.4727,0.0000,-0.011178,-0.040160,-0.001879,-0.0039,0.0017,0.0006,-180.0000,0.0000,-0.0000
69,0.6900,-0.0597,0.1385,-0.0026,0.1509,0.0000,0.0000,0.0000,20.0000,3.6988,2.6925,52.0742,39.1485,0.0199,0.000764,-10.7384,-27.6531,1.5589,26.0942,-10.7384,0.0018,-4.4262,-7.7587,-1.4727,0.0000,-0.011822,-0.035023,-0.001325,-0.0030,0.0022,0.0004,-180.0000,0.0000,-0.0000
70,0.7000,-0.0706,0.1137,-0.0179,0.1350,0.0000,0.0000,0.0000,20.0000,3.2459,2.7354,58.7422,40.0429,0.0207,0.000776,-10.7384,-27.6531,1.5589,26.0942,-10.7384,0.0018,-4.4262,-7.7587,-1.4727,0.0000,-0.013248,-0.029628,0.000513,-0.0023,0.0022,0.0005,-180.0000,0.0000,-0.0000
71,0.7100,-0.0780,0.0964,-0.0361,0.1292,0.0000,0.0000,0.0000,20.0000,2.9096,2.7542,57.5507,41.0387,0.0215,0.002603,-10.7384,-27.6531,1.5589,26.0942,-10.7384,0.0018,-4.4262,-7.7587,-1.4727,0.0000,-0.014749,-0.024855,0.003356,-0.0021,0.0015,0.0019,-180.0000,0.0000,-0.0000
72,0.7200,-0.0754,0.0828,-0.0515,0.1232,0.0000,0.0000,0.0000,20.0000,2.6613,2.7559,51.2526,41.7738,0.0222,0.000737,-10.7384,-27.6531,1.5589,26.0942,-10.7384,0.0018,-4.4262,-7.7587,-1.4727,0.0000,-0.015283,-0.020809,0.006456,-0.0015,0.0012,0.0036,-180.0000,0.0000,-0.0000
73,0.7300,-0.0741,0.0674,-0.0603,0.1169,0.0000,0.0000,0.0000,20.0000,2.4661,2.7454,46.1204,42.1541,0.0229,0.001008,-10.7384,-27.6531,1.5589,26.0942,-10.7384,0.0018,-4.4262,-7.7587,-1.4727,0.0000,-0.015424,-0.016989,0.009037,-0.0019,0.0013,0.0024,-180.0000,0.0000,-0.0000
74,0.7400,-0.0714,0.0538,-0.0625,0.1091,0.0000,0.0000,0.0000,20.0000,2.3707,2.7274,35.0700,42.0683,0.0236,0.000778,-10.8334,-27.7630,1.5704,26.1927,-10.8334,-0.0075,-3.1269,-7.7661,-0.9908,0.0000,-0.015449,-0.014150,0.011096,-0.0017,0.0005,0.0014,-180.0000,-0.0000,0.0000
75,0.7500,-0.0575,0.0441,-0.0575,0.0924,0.0000,0.0000,0.0000,20.0000,2.1643,2.7021,29.9248,41.5418,0.0242,0.000760,-10.8334,-27.7630,1.5704,26.1927,-10.8334,-0.0075,-3.1269,-7.7661,-0.9908,0.0000,-0.014040,-0.011583,0.011710,-0.0011,0.0004,0.0014,-180.0000,-0.0000,0.0000
76,0.7600,-0.0470,0.0359,-0.0453,0.0745,0.0000,0.0000,0.0000,20.0000,1.8767,2.6646,30.6024,40.9214,0.0248,0.000787,-10.8334,-27.7630,1.5704,26.1927,-10.8334,-0.0075,-3.1269,-7.7661,-0.9908,0.0000,-0.012188,-0.009320,0.010808,-0.0013,0.0012,0.0004,-180.0000,-0.0000,0.0000
77,0.7700,-0.0509,0.0289,-0.0355,0.0685,0.0000,0.0000,0.0000,20.0000,1.6543,2.6151,25.5878,40.2159,0.0253,0.000744,-10.8334,-27.7630,1.5704,26.1927,-10.8334,-0.0075,-3.1269,-7.7661,-0.9908,0.0000,-0.011529,-0.007351,0.009312,-0.0014,0.0021,-0.0001,-180.0000,-0.0000,0.0000
78,0.7800,-0.0578,0.0248,-0.0387,0.0738,0.0000,0.0000,0.0000,20.0000,1.5850,2.5604,16.3187,39.1563,0.0257,0.000690,-10.8334,-27.7630,1.5704,26.1927,-10.8334,-0.0075,-3.1269,-7.7661,-0.9908,0.0000,-0.011833,-0.005838,0.008782,0.0007,0.0024,-0.0007,-180.0000,-0.0000,0.0000
79,0.7900,-0.0617,0.0261,-0.0489,0.0829,0.0000,0.0000,0.0000,20.0000,1.6408,2.5083,11.3769,37.7641,0.0261,0.000748,-10.8334,-27.7630,1.5704,26.1927,-10.8334,-0.0075,-3.1269,-7.7661,-0.9908,0.0000,-0.012364,-0.005124,0.009491,0.0005,0.0023,0.0004,-180.0000,-0.0000,0.0000
80,0.8000,-0.0655,0.0291,-0.0618,0.0947,0.0000,0.0000,0.0000,20.0000,1.7864,2.4645,17.9148,36.4924,0.0266,0.000767,-10.8334,-27.7630,1.5704,26.1927,-10.8334,-0.0075,-3.1269,-7.7661,-0.9908,0.0000,-0.013019,-0.005018,0.011155,-0.0002,0.0023,0.0014,-180.0000,-0.0000,0.0000
81,0.8100,-0.0638,0.0263,-0.0842,0.1089,0.0000,0.0000,0.0000,20.0000,2.0001,2.4331,31.6716,35.8489,0.0272,0.000775,-10.8334,-27.7630,1.5704,26.1927,-10.8334,-0.0075,-3.1269,-7.7661,-0.9908,0.0000,-0.013183,-0.004670,0.014299,-0.0009,0.0017,0.0024,-180.0000,-0.0000,0.0000
82,0.8200,-0.0572,0.0220,-0.1054,0.1219,0.0000,0.0000,0.0000,20.0000,2.2429,2.4160,39.2456,35.8274,0.0277,0.000784,-10.8334,-27.7630,1.5704,26.1927,-10.8334,-0.0075,-3.1269,-7.7661,-0.9908,0.0000,-0.012582,-0.004033,0.018125,-0.0016,0.0011,0.0034,-180.0000,-0.0000,0.0000
83,0.8300,-0.0541,0.0237,-0.1142,0.1286,0.0000,0.0000,0.0000,20.0000,2.4523,2.4122,30.3906,35.7719,0.0284,0.000738,-10.8334,-27.7630,1.5704,26.1927,-10.8334,-0.0075,-3.1269,-7.7661,-0.9908,0.0000,-0.011917,-0.003846,0.021084,-0.0016,-0.0004,0.0053,-180.0000,-0.0000,0.0000
84,0.8400,-0.0537,0.0250,-0.1155,0.1298,0.0000,0.0000,0.0000,20.0000,2.5829,2.4180,17.7977,35.1295,0.0291,0.000685,-10.8334,-27.7630,1.5704,26.1927,-10.8334,-0.0075,-3.1269,-7.7661,-0.9908,0.0000,-0.011485,-0.003864,0.022811,-0.0024,0.0001,0.0044,-180.0000,-0.0000,0.0000
85,0.8500,-0.0549,0.0260,-0.1140,0.1291,0.0000,0.0000,0.0000,20.0000,2.6449,2.4288,7.7280,33.8992,0.0298,0.000746,-10.8334,-27.7630,1.5704,26.1927,-10.8334,-0.0075,-3.1269,-7.7661,-0.9908,0.0000,-0.011340,-0.003967,0.023563,-0.0017,0.0000,0.0051,-180.0000,-0.0000,0.0000
86,0.8600,-0.0594,0.0319,-0.1083,0.1276,0.0000,0.0000,0.0000,20.0000,2.6527,2.4409,7.5704,32.4552,0.0305,0.000671,-10.8334,-27.7630,1.5704,26.1927,-10.8334,-0.0075,-3.1269,-7.7661,-0.9908,0.0000,-0.011694,-0.004605,0.023361,-0.0011,-0.0001,0.0043,-180.0000,-0.0000,0.0000
87,0.8700,-0.0573,0.0382,-0.1011,0.1223,0.0000,0.0000,0.0000,20.0000,2.5932,2.4509,13.1484,31.2398,0.0313,0.000670,-10.8334,-27.7630,1.5704,26.1927,-10.8334,-0.0075,-3.1269,-7.7661,-0.9908,0.0000,-0.011650,-0.005584,0.022485,-0.0005,-0.0008,0.0049,-180.0000,-0.0000,0.0000
88,0.8800,-0.0415,0.0418,-0.0974,0.1138,0.0000,0.0000,0.0000,20.0000,2.4664,2.4552,20.5964,30.4494,0.0320,0.000733,-10.8334,-27.7630,1.5704,26.1927,-10.8334,-0.0075,-3.1269,-7.7661,-0.9908,0.0000,-0.010026,-0.006474,0.021584,-0.0010,0.0001,0.0040,-180.0000,-0.0000,0.0000
89,0.8900,-0.0210,0.0384,-0.0951,0.1047,0.0000,0.0000,0.0000,20.0000,2.2954,2.4512,30.6405,30.1837,0.0327,0.000759,-10.8334,-27.7630,1.5704,26.1927,-10.8334,-0.0075,-3.1269,-7.7661,-0.9908,0.0000,-0.007063,-0.006608,0.020817,-0.0020,-0.0009,0.0048,-180.0000,-0.0000,0.0000
90,0.9000,-0.0028,0.0391,-0.0923,0.1003,0.0000,0.0000,0.0000,20.0000,2.1469,2.4385,35.5838,30.3448,0.0333,0.000756,-10.8334,-27.7630,1.5704,26.1927,-10.8334,-0.0075,-3.1269,-7.7661,-0.9908,0.0000,-0.003587,-0.006738,0.020066,-0.0016,-0.0010,0.0041,-180.0000,-0.0000,0.0000
91,0.9100,0.0120,0.0456,-0.0921,0.1035,0.0000,0.0000,0.0000,20.0000,2.0967,2.4211,35.1407,30.6208,0.0339,0.000724,-10.8334,-27.7630,1.5704,26.1927,-10.8334,-0.0075,-3.1269,-7.7661,-0.9908,0.0000,-0.000177,-0.007449,0.019598,-0.0021,-0.0004,0.0046,-180.0000,-0.0000,0.0000
92,0.9200,0.0228,0.0500,-0.0986,0.1129,0.0000,0.0000,0.0000,20.0000,2.1775,2.4055,30.9982,30.7555,0.0345,0.001444,-10.8334,-27.7630,1.5704,26.1927,-10.8334,-0.0075,-3.1269,-7.7661,-0.9908,0.0000,0.002792,-0.008267,0.019950,-0.0020,-0.0003,0.0033,-180.0000,-0.0000,0.0000
93,0.9300,0.0254,0.0441,-0.1096,0.1208,0.0000,0.0000,0.0000,20.0000,2.3778,2.3984,23.0418,30.5500,0.0352,0.000633,-10.9391,-27.9155,1.6020,26.3135,-10.9391,0.0059,-4.7776,-7.7663,-0.9899,-0.0000,0.004215,-0.008814,0.021678,-0.0027,0.0000,0.0032,-180.0000,0.0000,-0.0000
94,0.9400,0.0233,0.0345,-0.1213,0.1282,0.0000,0.0000,0.0000,20.0000,2.5564,2.4022,22.5891,30.1245,0.0358,0.000768,-10.9391,-27.9155,1.6020,26.3135,-10.9391,0.0059,-4.7776,-7.7663,-0.9899,-0.0000,0.004788,-0.008138,0.023756,-0.0026,0.0007,0.0023,-180.0000,0.0000,-0.0000
95,0.9500,0.0245,0.0306,-0.1298,0.1356,0.0000,0.0000,0.0000,20.0000,2.7252,2.4153,21.5193,29.6806,0.0365,0.000744,-10.9391,-27.9155,1.6020,26.3135,-10.9391,0.0059,-4.7776,-7.7663,-0.9899,-0.0000,0.005218,-0.007360,0.025716,-0.0040,0.0006,0.0014,-180.0000,0.0000,-0.0000
96,0.9600,0.0281,0.0298,-0.1266,0.1331,0.0000,0.0000,0.0000,20.0000,2.7904,2.4342,10.5762,28.9307,0.0372,0.001002,-10.9391,-27.9155,1.6020,26.3135,-10.9391,0.0059,-4.7776,-7.7663,-0.9899,-0.0000,0.005799,-0.006834,0.026426,-0.0035,0.0004,0.0010,-180.0000,0.0000,-0.0000
97,0.9700,0.0231,0.0307,-0.1073,0.1140,0.0000,0.0000,0.0000,20.0000,2.6307,2.4494,16.1643,28.0747,0.0379,0.001317,-10.9391,-27.9155,1.6020,26.3135,-10.9391,0.0059,-4.7776,-7.7663,-0.9899,-0.0000,0.005613,-0.006617,0.024835,-0.0041,0.0006,0.0010,-180.0000,0.0000,-0.0000
98,0.9800,0.0078,0.0321,-0.0798,0.0864,0.0000,0.0000,0.0000,20.0000,2.2520,2.4489,40.3184,28.0839,0.0386,0.001508,-10.9391,-27.9155,1.6020,26.3135,-10.9391,0.0059,-4.7776,-7.7663,-0.9899,-0.0000,0.003965,-0.006626,0.021155,-0.0043,0.0011,0.0013,-180.0000,0.0000,-0.0000
99,0.9900,-0.0139,0.0374,-0.0509,0.0647,0.0000,0.0000,0.0000,20.0000,1.7719,2.4249,58.7010,29.2625,0.0391,0.000663,-10.9391,-27.9155,1.6020,26.3135,-10.9391,0.0059,-4.7776,-7.7663,-0.9899,-0.0000,0.000881,-0.007151,0.016188,-0.0033,0.0009,0.0013,-180.0000,0.0000,-0.0000
100,1.0000,-0.0375,0.0463,-0.0248,0.0645,0.0000,0.0000,0.0000,20.0000,1.3999,2.3787,68.5068,31.1515,0.0397,0.000753,-10.9391,-27.9155,1.6020,26.3135,-10.9391,0.0059,-4.7776,-7.7663,-0.9899,-0.0000,-0.003186,-0.008317,0.010800,-0.0015,0.0004,0.0013,-180.0000,0.0000,-0.0000
101,1.0100,-0.0569,0.0525,-0.0104,0.0781,0.0000,0.0000,0.0000,20.0000,1.3648,2.3239,62.2492,33.0343,0.0402,0.001353,-10.9391,-27.9155,1.6020,26.3135,-10.9391,0.0059,-4.7776,-7.7663,-0.9899,-0.0000,-0.007369,-0.009566,0.006362,-0.0012,-0.0005,0.0023,-180.0000,0.0000,-0.0000
102,1.0200,-0.0701,0.0527,-0.0080,0.0881,0.0000,0.0000,0.0000,20.0000,1.5468,2.2762,45.7430,34.1873,0.0407,0.000679,-10.9391,-27.9155,1.6020,26.3135,-10.9391,0.0059,-4.7776,-7.7663,-0.9899,-0.0000,-0.010987,-0.010258,0.003650,-0.0006,-0.0008,0.0022,-180.0000,0.0000,-0.0000
103,1.0300,-0.0759,0.0521,-0.0083,0.0924,0.0000,0.0000,0.0000,20.0000,1.7307,2.2411,29.6307,34.3798,0.0413,0.000752,-10.9391,-27.9155,1.6020,26.3135,-10.9391,0.0059,-4.7776,-7.7663,-0.9899,-0.0000,-0.013543,-0.010553,0.002180,-0.0002,-0.0014,0.0012,-180.0000,0.0000,-0.0000
104,1.0400,-0.0782,0.0438,-0.0077,0.0900,0.0000,0.0000,0.0000,20.0000,1.8140,2.2153,19.6656,33.8445,0.0419,0.000950,-10.9391,-27.9155,1.6020,26.3135,-10.9391,0.0059,-4.7776,-7.7663,-0.9899,-0.0000,-0.015163,-0.009872,0.001297,-0.0017,-0.0004,0.0008,-180.0000,0.0000,-0.0000
105,1.0500,-0.0760,0.0250,-0.0071,0.0803,0.0000,0.0000,0.0000,20.0000,1.7548,2.1916,24.3428,33.1932,0.0423,0.000685,-10.9391,-27.9155,1.6020,26.3135,-10.9391,0.0059,-4.7776,-7.7663,-0.9899,-0.0000,-0.015804,-0.007589,0.000747,-0.0031,0.0011,0.0024,-180.0000,0.0000,-0.0000
106,1.0600,-0.0716,0.0017,-0.0022,0.0717,0.0000,0.0000,0.0000,20.0000,1.6189,2.1639,36.9305,33.0526,0.0427,0.000695,-10.9391,-27.9155,1.6020,26.3135,-10.9391,0.0059,-4.7776,-7.7663,-0.9899,-0.0000,-0.015691,-0.003984,-0.000044,-0.0038,0.0021,0.0019,-180.0000,0.0000,-0.0000
107,1.0700,-0.0722,-0.0146,0.0041,0.0737,0.0000,0.0000,0.0000,20.0000,1.5694,2.1325,37.8131,33.2902,0.0430,0.001073,-10.9391,-27.9155,1.6020,26.3135,-10.9391,0.0059,-4.7776,-7.7663,-0.9899,-0.0000,-0.015651,-0.000357,-0.001115,-0.0036,0.0019,0.0015,-180.0000,0.0000,-0.0000
108,1.0800,-0.0788,-0.0139,0.0046,0.0802,0.0000,0.0000,0.0000,20.0000,1.6437,2.1036,21.3473,33.0861,0.0432,0.000635,-10.9391,-27.9155,1.6020,26.3135,-10.9391,0.0059,-4.7776,-7.7663,-0.9899,-0.0000,-0.016266,0.001584,-0.001755,-0.0035,0.0012,0.0020,-180.0000,0.0000,-0.0000
109,1.0900,-0.0880,0.0028,-0.0028,0.0881,0.0000,0.0000,0.0000,20.0000,1.7572,2.0814,14.2084,32.2440,0.0434,0.000729,-10.9391,-27.9155,1.6020,26.3135,-10.9391,0.0059,-4.7776,-7.7663,-0.9899,-0.0000,-0.017492,0.000981,-0.001364,-0.0019,-0.0014,0.0026,-180.0000,0.0000,-0.0000
110,1.1000,-0.1079,0.0261,-0.0194,0.1127,0.0000,0.0000,0.0000,20.0000,2.0197,2.0708,41.8447,32.0120,0.0438,0.000835,-10.9391,-27.9155,1.6020,26.3135,-10.9391,0.0059,-4.7776,-7.7663,-0.9899,-0.0000,-0.020121,-0.001680,0.000512,-0.0037,-0.0044,0.0018,-180.0000,0.0000,-0.0000
111,1.1100,-0.1426,0.0558,-0.0455,0.1598,0.0000,0.0000,0.0000,20.0000,2.6082,2.0842,75.4696,33.4777,0.0446,0.000700,-10.9391,-27.9155,1.6020,26.3135,-10.9391,0.0059,-4.7776,-7.7663,-0.9899,-0.0000,-0.025009,-0.006124,0.004160,-0.0048,-0.0078,0.0041,-180.0000,0.0000,-0.0000
112,1.1200,-0.1847,0.0944,-0.0742,0.2203,0.0000,0.0000,0.0000,20.0000,3.5381,2.1386,105.1597,36.6042,0.0458,0.000675,-10.9391,-27.9155,1.6020,26.3135,-10.9391,0.0059,-4.7776,-7.7663,-0.9899,-0.0000,-0.031871,-0.012426,0.009037,-0.0064,-0.0094,0.0074,-180.0000,0.0000,-0.0000
113,1.1300,-0.2361,0.1298,-0.1060,0.2895,0.0000,0.0000,0.0000,20.0000,4.8171,2.2507,134.7281,41.1886,0.0475,0.000735,-10.9980,-28.0948,1.6251,26.4697,-10.9980,-0.0030,-4.3107,-7.7915,-1.3626,-0.0000,-0.041060,-0.019809,0.015561,-0.0073,-0.0099,0.0094,-180.0000,0.0000,-0.0000
114,1.1400,-0.2904,0.1582,-0.1402,0.3592,0.0000,0.0000,0.0000,20.0000,6.2225,2.4306,143.1731,46.5663,0.0500,0.000716,-10.9980,-28.0948,1.6251,26.4697,-10.9980,-0.0030,-4.3107,-7.7915,-1.3626,-0.0000,-0.051486,-0.026688,0.022558,-0.0090,-0.0105,0.0109,-180.0000,0.0000,-0.0000
115,1.1500,-0.3309,0.1782,-0.1642,0.4101,0.0000,0.0000,0.0000,20.0000,7.5004,2.6743,128.8655,51.4869,0.0530,0.000737,-10.9980,-28.0948,1.6251,26.4697,-10.9980,-0.0030,-4.3107,-7.7915,-1.3626,-0.0000,-0.061198,-0.032436,0.028781,-0.0079,-0.0095,0.0115,-180.0000,0.0000,-0.0000
116,1.1600,-0.3436,0.1824,-0.1742,0.4263,0.0000,0.0000,0.0000,20.0000,8.3541,2.9632,86.1382,54.5682,0.0566,0.000778,-10.9980,-28.0948,1.6251,26.4697,-10.9980,-0.0030,-4.3107,-7.7915,-1.3626,-0.0000,-0.067717,-0.035966,0.033165,-0.0072,-0.0074,0.0099,-180.0000,0.0000,-0.0000
117,1.1700,-0.3244,0.1708,-0.1748,0.4061,0.0000,0.0000,0.0000,20.0000,8.6074,3.2668,29.5445,54.7482,0.0604,0.000734,-10.9980,-28.0948,1.6251,26.4697,-10.9980,-0.0030,-4.3107,-7.7915,-1.3626,-0.0000,-0.069258,-0.036688,0.035581,-0.0076,-0.0059,0.0080,-180.0000,0.0000,-0.0000
118,1.1800,-0.2715,0.1600,-0.1699,0.3580,0.0000,0.0000,0.0000,20.0000,8.2446,3.5506,46.9790,53.8413,0.0643,0.000759,-10.9980,-28.0948,1.6251,26.4697,-10.9980,-0.0030,-4.3107,-7.7915,-1.3626,-0.0000,-0.064685,-0.035939,0.036354,-0.0079,-0.0060,0.0065,-180.0000,0.0000,-0.0000
119,1.1900,-0.2020,0.1552,-0.1646,0.3033,0.0000,0.0000,0.0000,20.0000,7.4604,3.7872,96.5691,54.8278,0.0680,0.000713,-10.9980,-28.0948,1.6251,26.4697,-10.9980,-0.0030,-4.3107,-7.7915,-1.3626,-0.0000,-0.055078,-0.034972,0.036180,-0.0078,-0.0043,0.0051,-180.0000,0.0000,-0.0000
120,1.2000,-0.1410,0.1474,-0.1671,0.2637,0.0000,0.0000,0.0000,20.0000,6.5878,3.9653,116.0834,57.6606,0.0714,0.000734,-10.9980,-28.0948,1.6251,26.4697,-10.9980,-0.0030,-4.3107,-7.7915,-1.3626,-0.0000,-0.043553,-0.033588,0.036261,-0.0079,-0.0028,0.0048,-180.0000,0.0000,-0.0000
121,1.2100,-0.0973,0.1416,-0.1792,0.2483,0.0000,0.0000,0.0000,20.0000,5.9233,4.0912,109.8518,60.7029,0.0746,0.000697,-10.9980,-28.0948,1.6251,26.4697,-10.9980,-0.0030,-4.3107,-7.7915,-1.3626,-0.0000,-0.032724,-0.032176,0.037448,-0.0081,-0.0021,0.0050,-180.0000,0.0000,-0.0000
122,1.2200,-0.0732,0.1276,-0.1961,0.2451,0.0000,0.0000,0.0000,20.0000,5.5333,4.1813,90.4472,62.8728,0.0776,0.000870,-10.9980,-28.0948,1.6251,26.4697,-10.9980,-0.0030,-4.3107,-7.7915,-1.3626,-0.0000,-0.024263,-0.029925,0.039718,-0.0081,0.0006,0.0042,-180.0000,0.0000,-0.0000
123,1.2300,-0.0631,0.0942,-0.2063,0.2354,0.0000,0.0000,0.0000,20.0000,5.2337,4.2474,76.9339,64.0179,0.0803,0.000795,-10.9980,-28.0948,1.6251,26.4697,-10.9980,-0.0030,-4.3107,-7.7915,-1.3626,-0.0000,-0.018529,-0.025287,0.041909,-0.0067,0.0016,0.0048,-180.0000,0.0000,-0.0000
124,1.2400,-0.0481,0.0581,-0.2052,0.2186,0.0000,0.0000,0.0000,20.0000,4.8962,4.2924,78.7010,64.7770,0.0829,0.000747,-10.9980,-28.0948,1.6251,26.4697,-10.9980,-0.0030,-4.3107,-7.7915,-1.3626,-0.0000,-0.013826,-0.019060,0.042928,-0.0047,0.0013,0.0044,-180.0000,0.0000,-0.0000
125,1.2500,-0.0253,0.0340,-0.1935,0.1981,0.0000,0.0000,0.0000,20.0000,4.5129,4.3151,76.9980,65.4961,0.0850,0.000847,-10.9980,-28.0948,1.6251,26.4697,-10.9980,-0.0030,-4.3107,-7.7915,-1.3626,-0.0000,-0.008921,-0.013165,0.042234,-0.0039,0.0022,0.0029,-180.0000,0.0000,-0.0000
126,1.2600,-0.0077,0.0244,-0.1733,0.1752,0.0000,0.0000,0.0000,20.0000,4.0978,4.3145,66.6266,65.8436,0.0869,0.000686,-10.9980,-28.0948,1.6251,26.4697,-10.9980,-0.0030,-4.3107,-7.7915,-1.3626,-0.0000,-0.004426,-0.008921,0.039749,-0.0019,0.0027,0.0020,-180.0000,0.0000,-0.0000
127,1.2700,0.0020,0.0252,-0.1545,0.1565,0.0000,0.0000,0.0000,20.0000,3.7026,4.2917,53.2371,65.5184,0.0885,0.000705,-10.9980,-28.0948,1.6251,26.4697,-10.9980,-0.0030,-4.3107,-7.7915,-1.3626,-0.0000,-0.000960,-0.006640,0.036413,-0.0003,0.0018,0.0021,-180.0000,0.0000,-0.0000
128,1.2800,0.0031,0.0296,-0.1431,0.1462,0.0000,0.0000,0.0000,20.0000,3.3882,4.2507,37.5603,64.4116,0.0899,0.000724,-10.9980,-28.0948,1.6251,26.4697,-10.9980,-0.0030,-4.3107,-7.7915,-1.3626,-0.0000,0.001066,-0.005804,0.033364,-0.0007,0.0017,0.0011,-180.0000,0.0000,-0.0000
129,1.2900,-0.0026,0.0348,-0.1384,0.1427,0.0000,0.0000,0.0000,20.0000,3.1719,4.1973,22.9746,62.5334,0.0912,0.000752,-10.9980,-28.0948,1.6251,26.4697,-10.9980,-0.0030,-4.3107,-7.7915,-1.3626,-0.0000,0.001614,-0.005850,0.031133,-0.0009,0.0008,0.0008,-180.0000,0.0000,-0.0000
130,1.3000,-0.0099,0.0329,-0.1398,0.1439,0.0000,0.0000,0.0000,20.0000,3.0534,4.1376,12.4475,60.0678,0.0925,0.000776,-10.9980,-28.0948,1.6251,26.4697,-10.9980,-0.0030,-4.3107,-7.7915,-1.3626,-0.0000,0.001181,-0.005673,0.029979,-0.0008,0.0006,0.0016,-180.0000,0.0000,-0.0000
131,1.3100,-0.0174,0.0232,-0.1432,0.1461,0.0000,0.0000,0.0000,20.0000,2.9982,4.0765,15.0151,57.5190,0.0938,0.000726,-10.9980,-28.0948,1.6251,26.4697,-10.9980,-0.0030,-4.3107,-7.7915,-1.3626,-0.0000,0.000192,-0.004599,0.029627,-0.0006,0.0003,0.0012,-180.0000,0.0000,-0.0000
132,1.3200,-0.0290,0.0152,-0.1401,0.1439,0.0000,0.0000,0.0000,20.0000,2.9277,4.0152,22.8510,55.3964,0.0950,0.000711,-10.9980,-28.0948,1.6251,26.4697,-10.9980,-0.0030,-4.3107,-7.7915,-1.3626,-0.0000,-0.001516,-0.003189,0.029063,-0.0018,-0.0007,-0.0003,-180.0000,0.0000,-0.0000
133,1.3300,-0.0449,0.0191,-0.1302,0.1390,0.0000,0.0000,0.0000,20.0000,2.9129,3.9550,36.0804,53.9700,0.0965,0.000773,-11.1073,-28.4059,1.7129,26.6931,-11.1073,0.8568,-4.6772,-7.8344,-1.2121,-0.1233,-0.005068,-0.003426,0.028479,-0.0012,0.0003,-0.0005,-180.0000,0.0000,-0.0000
134,1.3400,-0.0642,0.0321,-0.1183,0.1384,0.0000,0.0000,0.0000,20.0000,2.8777,3.8967,44.1803,53.2087,0.0980,0.000865,-11.1073,-28.4059,1.7129,26.6931,-11.1073,0.8568,-4.6772,-7.8344,-1.2121,-0.1233,-0.008948,-0.004849,0.026917,-0.0014,0.0013,-0.0013,-180.0000,0.0000,-0.0000
135,1.3500,-0.0833,0.0454,-0.1070,0.1430,0.0000,0.0000,0.0000,20.0000,2.8899,3.8410,49.9260,52.8701,0.0996,0.000772,-11.1073,-28.4059,1.7129,26.6931,-11.1073,0.8568,-4.6772,-7.8344,-1.2121,-0.1233,-0.012984,-0.006952,0.024864,-0.0008,0.0005,-0.0020,-180.0000,0.0000,-0.0000
136,1.3600,-0.0941,0.0596,-0.0987,0.1488,0.0000,0.0000,0.0000,20.0000,2.9622,3.7906,46.2528,52.6072,0.1014,0.000723,-11.1073,-28.4059,1.7129,26.6931,-11.1073,0.8568,-4.6772,-7.8344,-1.2121,-0.1233,-0.016268,-0.009515,0.022853,-0.0013,0.0001,-0.0020,-180.0000,0.0000,-0.0000
137,1.3700,-0.0882,0.0755,-0.0957,0.1505,0.0000,0.0000,0.0000,20.0000,3.0318,3.7470,35.3568,51.9579,0.1033,0.000783,-11.1073,-28.4059,1.7129,26.6931,-11.1073,0.8568,-4.6772,-7.8344,-1.2121,-0.1233,-0.017465,-0.012506,0.021395,-0.0009,-0.0007,0.0000,-180.0000,0.0000,-0.0000
138,1.3800,-0.0725,0.0834,-0.0969,0.1469,0.0000,0.0000,0.0000,20.0000,3.0375,3.7078,26.9457,50.8134,0.1053,0.000707,-11.1073,-28.4059,1.7129,26.6931,-11.1073,0.8568,-4.6772,-7.8344,-1.2121,-0.1233,-0.016522,-0.014922,0.020664,-0.0021,-0.0021,0.0002,-180.0000,0.0000,-0.0000
139,1.3900,-0.0618,0.0760,-0.0993,0.1395,0.0000,0.0000,0.0000,20.0000,2.9678,3.6690,17.3406,49.2363,0.1072,0.000667,-11.1073,-28.4059,1.7129,26.6931,-11.1073,0.8568,-4.6772,-7.8344,-1.2121,-0.1233,-0.014897,-0.015494,0.020465,-0.0026,-0.0028,0.0001,-180.0000,0.0000,-0.0000
140,1.4000,-0.0569,0.0635,-0.0996,0.1311,0.0000,0.0000,0.0000,20.0000,2.8394,3.6269,17.2043,47.4780,0.1091,0.000810,-11.1073,-28.4059,1.7129,26.6931,-11.1073,0.8568,-4.6772,-7.8344,-1.2121,-0.1233,-0.013481,-0.014525,0.020335,-0.0037,-0.0036,-0.0012,-180.0000,0.0000,-0.0000
141,1.4100,-0.0531,0.0554,-0.0955,0.1225,0.0000,0.0000,0.0000,20.0000,2.6773,3.5791,18.8988,45.8593,0.1108,0.000699,-11.1073,-28.4059,1.7129,26.6931,-11.1073,0.8568,-4.6772,-7.8344,-1.2121,-0.1233,-0.012291,-0.013151,0.019818,-0.0037,-0.0038,-0.0018,-180.0000,0.0000,-0.0000
142,1.4200,-0.0560,0.0517,-0.0894,0.1175,0.0000,0.0000,0.0000,20.0000,2.5338,3.5256,15.3712,44.2793,0.1125,0.000708,-11.1073,-28.4059,1.7129,26.6931,-11.1073,0.8568,-4.6772,-7.8344,-1.2121,-0.1233,-0.011896,-0.011996,0.018884,-0.0034,-0.0026,-0.0028,-180.0000,0.0000,-0.0000
143,1.4300,-0.0583,0.0508,-0.0815,0.1124,0.0000,0.0000,0.0000,20.0000,2.3986,3.4673,15.4157,42.6903,0.1141,0.000690,-11.1073,-28.4059,1.7129,26.6931,-11.1073,0.8568,-4.6772,-7.8344,-1.2121,-0.1233,-0.011887,-0.011242,0.017539,-0.0032,-0.0018,-0.0026,-180.0000,0.0000,-0.0000
144,1.4400,-0.0510,0.0548,-0.0724,0.1041,0.0000,0.0000,0.0000,20.0000,2.2368,3.4041,18.5836,41.2771,0.1156,0.000666,-11.1073,-28.4059,1.7129,26.6931,-11.1073,0.8568,-4.6772,-7.8344,-1.2121,-0.1233,-0.011120,-0.011204,0.015847,-0.0033,-0.0007,-0.0014,-180.0000,0.0000,-0.0000
145,1.4500,-0.0371,0.0594,-0.0663,0.0965,0.0000,0.0000,0.0000,20.0000,2.0619,3.3350,24.4777,40.1909,0.1170,0.000773,-11.1073,-28.4059,1.7129,26.6931,-11.1073,0.8568,-4.6772,-7.8344,-1.2121,-0.1233,-0.009292,-0.011623,0.014273,-0.0037,0.0001,-0.0000,-180.0000,0.0000,-0.0000
146,1.4600,-0.0223,0.0571,-0.0632,0.0880,0.0000,0.0000,0.0000,20.0000,1.8736,3.2598,27.9280,39.4215,0.1183,0.000752,-11.1073,-28.4059,1.7129,26.6931,-11.1073,0.8568,-4.6772,-7.8344,-1.2121,-0.1233,-0.006777,-0.011599,0.013060,-0.0035,0.0001,0.0005,-180.0000,0.0000,-0.0000
147,1.4700,-0.0067,0.0511,-0.0646,0.0826,0.0000,0.0000,0.0000,20.0000,1.7064,3.1790,30.7594,38.8671,0.1194,0.000708,-11.1073,-28.4059,1.7129,26.6931,-11.1073,0.8568,-4.6772,-7.8344,-1.2121,-0.1233,-0.003819,-0.010966,0.012503,-0.0022,-0.0005,0.0013,-180.0000,0.0000,-0.0000
148,1.4800,0.0058,0.0450,-0.0728,0.0858,0.0000,0.0000,0.0000,20.0000,1.6409,3.0962,31.0367,38.4287,0.1204,0.000741,-11.1073,-28.4059,1.7129,26.6931,-11.1073,0.8568,-4.6772,-7.8344,-1.2121,-0.1233,-0.000918,-0.009978,0.012995,-0.0011,-0.0004,0.0011,-180.0000,0.0000,-0.0000
149,1.4900,0.0095,0.0347,-0.0795,0.0873,0.0000,0.0000,0.0000,20.0000,1.6277,3.0158,26.9980,37.9110,0.1214,0.000728,-11.1073,-28.4059,1.7129,26.6931,-11.1073,0.8568,-4.6772,-7.8344,-1.2121,-0.1233,0.001057,-0.008382,0.013913,-0.0008,-0.0001,0.0018,-180.0000,0.0000,-0.0000
150,1.5000,0.0071,0.0209,-0.0796,0.0826,0.0000,0.0000,0.0000,20.0000,1.5759,2.9380,24.7691,37.2494,0.1222,0.000703,-11.1073,-28.4059,1.7129,26.6931,-11.1073,0.8568,-4.6772,-7.8344,-1.2121,-0.1233,0.001898,-0.006105,0.014404,-0.0008,0.0002,0.0030,-180.0000,0.0000,-0.0000
151,1.5100,-0.0030,0.0082,-0.0811,0.0815,0.0000,0.0000,0.0000,20.0000,1.5273,2.8617,26.2616,36.6040,0.1230,0.000760,-11.1073,-28.4059,1.7129,26.6931,-11.1073,0.8568,-4.6772,-7.8344,-1.2121,-0.1233,0.001358,-0.003564,0.014789,-0.0002,0.0011,0.0032,-180.0000,0.0000,-0.0000
152,1.5200,-0.0155,-0.0018,-0.0820,0.0835,0.0000,0.0000,0.0000,20.0000,1.5110,2.7879,28.8097,36.1051,0.1237,0.001485,-11.1073,-28.4059,1.7129,26.6931,-11.1073,0.8568,-4.6772,-7.8344,-1.2121,-0.1233,-0.000196,-0.001153,0.015065,-0.0020,0.0018,0.0041,-180.0000,0.0000,-0.0000
153,1.5300,-0.0284,-0.0053,-0.0757,0.0811,0.0000,0.0000,0.0000,20.0000,1.5981,2.7200,30.1183,35.7398,0.1246,0.000747,-11.1956,-28.7195,1.7542,26.9653,-11.1956,-0.0017,-4.0053,-7.8623,-1.3247,-0.0000,-0.002911,-0.000022,0.015714,-0.0030,0.0014,0.0043,-180.0000,0.0000,-0.0000
154,1.5400,-0.0449,0.0067,-0.0701,0.0835,0.0000,0.0000,0.0000,20.0000,1.6630,2.6601,31.9875,35.4820,0.1255,0.000815,-11.1956,-28.7195,1.7542,26.9653,-11.1956,-0.0017,-4.0053,-7.8623,-1.3247,-0.0000,-0.006049,-0.000596,0.015480,-0.0025,0.0011,0.0024,-180.0000,0.0000,-0.0000
155,1.5500,-0.0682,0.0243,-0.0693,0.1003,0.0000,0.0000,0.0000,20.0000,1.8479,2.6103,45.6434,35.6654,0.1267,0.000840,-11.1956,-28.7195,1.7542,26.9653,-11.1956,-0.0017,-4.0053,-7.8623,-1.3247,-0.0000,-0.010108,-0.002669,0.015238,-0.0016,0.0004,0.0019,-180.0000,0.0000,-0.0000
156,1.5600,-0.1020,0.0325,-0.0726,0.1293,0.0000,0.0000,0.0000,20.0000,2.2479,2.5794,59.3427,36.5910,0.1282,0.000738,-11.1956,-28.7195,1.7542,26.9653,-11.1956,-0.0017,-4.0053,-7.8623,-1.3247,-0.0000,-0.015705,-0.004634,0.015401,-0.0020,0.0003,0.0012,-180.0000,0.0000,-0.0000
157,1.5700,-0.1410,0.0323,-0.0799,0.1652,0.0000,0.0000,0.0000,20.0000,2.8429,2.5775,70.8545,38.1592,0.1300,0.000802,-11.1956,-28.7195,1.7542,26.9653,-11.1956,-0.0017,-4.0053,-7.8623,-1.3247,-0.0000,-0.022668,-0.005683,0.016188,0.0003,-0.0005,0.0002,-180.0000,0.0000,-0.0000
158,1.5800,-0.1698,0.0265,-0.0914,0.1947,0.0000,0.0000,0.0000,20.0000,3.4766,2.6096,68.6435,39.8969,0.1321,0.000824,-11.1956,-28.7195,1.7542,26.9653,-11.1956,-0.0017,-4.0053,-7.8623,-1.3247,-0.0000,-0.029354,-0.005675,0.017743,0.0029,-0.0018,0.0006,-180.0000,0.0000,-0.0000
159,1.5900,-0.1858,0.0108,-0.1114,0.2170,0.0000,0.0000,0.0000,20.0000,4.0456,2.6729,61.6045,41.2846,0.1345,0.000737,-11.1956,-28.7195,1.7542,26.9653,-11.1956,-0.0017,-4.0053,-7.8623,-1.3247,-0.0000,-0.034594,-0.004094,0.020571,0.0043,-0.0035,0.0008,-180.0000,0.0000,-0.0000
160,1.6000,-0.2003,-0.0085,-0.1457,0.2479,0.0000,0.0000,0.0000,20.0000,4.6519,2.7651,71.2539,42.6677,0.1372,0.000775,-11.1956,-28.7195,1.7542,26.9653,-11.1956,-0.0017,-4.0053,-7.8623,-1.3247,-0.0000,-0.038871,-0.001275,0.025523,0.0076,-0.0038,0.0002,-180.0000,0.0000,-0.0000
161,1.6100,-0.2160,-0.0253,-0.1977,0.2939,0.0000,0.0000,0.0000,20.0000,5.4272,2.8902,93.5337,44.8530,0.1404,0.000775,-11.1956,-28.7195,1.7542,26.9653,-11.1956,-0.0017,-4.0053,-7.8623,-1.3247,-0.0000,-0.042727,0.001963,0.033406,0.0126,-0.0040,0.0017,-180.0000,0.0000,-0.0000
162,1.6200,-0.2379,-0.0465,-0.2641,0.3585,0.0000,0.0000,0.0000,20.0000,6.4850,3.0588,123.5540,48.3565,0.1442,0.000722,-11.1956,-28.7195,1.7542,26.9653,-11.1956,-0.0017,-4.0053,-7.8623,-1.3247,-0.0000,-0.046959,0.005866,0.044338,0.0172,-0.0033,0.0028,-180.0000,0.0000,-0.0000
163,1.6300,-0.2745,-0.0864,-0.3466,0.4504,0.0000,0.0000,0.0000,20.0000,7.9783,3.2884,165.5831,53.6489,0.1488,0.000810,-11.1956,-28.7195,1.7542,26.9653,-11.1956,-0.0017,-4.0053,-7.8623,-1.3247,-0.0000,-0.052861,0.012001,0.058540,0.0225,-0.0022,0.0052,-180.0000,0.0000,-0.0000
164,1.6400,-0.3125,-0.1470,-0.4479,0.5656,0.0000,0.0000,0.0000,20.0000,9.9379,3.6003,213.6851,61.1292,0.1544,0.000766,-11.1956,-28.7195,1.7542,26.9653,-11.1956,-0.0017,-4.0053,-7.8623,-1.3247,-0.0000,-0.059826,0.021436,0.076404,0.0279,-0.0001,0.0086,-180.0000,0.0000,-0.0000
165,1.6500,-0.3361,-0.2146,-0.5625,0.6895,0.0000,0.0000,0.0000,20.0000,12.2400,4.0122,250.6460,70.5376,0.1612,0.000722,-11.1956,-28.7195,1.7542,26.9653,-11.1956,-0.0017,-4.0053,-7.8623,-1.3247,-0.0000,-0.065913,0.033363,0.097591,0.0316,0.0025,0.0119,-180.0000,0.0000,-0.0000
166,1.6600,-0.3414,-0.2758,-0.6809,0.8101,0.0000,0.0000,0.0000,20.0000,14.6970,4.5324,268.2702,80.9297,0.1692,0.000685,-11.1956,-28.7195,1.7542,26.9653,-11.1956,-0.0017,-4.0053,-7.8623,-1.3247,-0.0000,-0.069677,0.046014,0.120947,0.0351,0.0050,0.0135,-180.0000,0.0000,-0.0000
167,1.6700,-0.3371,-0.3326,-0.8038,0.9329,0.0000,0.0000,0.0000,20.0000,17.2595,5.1620,279.9063,91.5550,0.1789,0.000721,-11.1956,-28.7195,1.7542,26.9653,-11.1956,-0.0017,-4.0053,-7.8623,-1.3247,-0.0000,-0.071185,0.058589,0.145908,0.0370,0.0104,0.0152,-180.0000,0.0000,-0.0000
168,1.6800,-0.3118,-0.3936,-0.9330,1.0596,0.0000,0.0000,0.0000,20.0000,19.9060,5.9002,294.8079,102.3257,0.1902,0.000721,-11.1956,-28.7195,1.7542,26.9653,-11.1956,-0.0017,-4.0053,-7.8623,-1.3247,-0.0000,-0.069350,0.071527,0.172335,0.0412,0.0234,0.0155,-180.0000,0.0000,-0.0000
169,1.6900,-0.2469,-0.4615,-1.0627,1.1846,0.0000,0.0000,0.0000,20.0000,22.5636,6.7438,314.6505,113.4595,0.2034,0.001266,-11.1956,-28.7195,1.7542,26.9653,-11.1956,-0.0017,-4.0053,-7.8623,-1.3247,-0.0000,-0.061702,0.085322,0.199561,0.0506,0.0403,0.0144,-180.0000,0.0000,-0.0000
170,1.7000,-0.1369,-0.5475,-1.1828,1.3105,0.0000,0.0000,0.0000,20.0000,25.2199,7.6870,347.0220,125.4169,0.2182,0.000725,-11.1956,-28.7195,1.7542,26.9653,-11.1956,-0.0017,-4.0053,-7.8623,-1.3247,-0.0000,-0.046357,0.101378,0.226225,0.0626,0.0610,0.0142,-180.0000,0.0000,-0.0000
171,1.7100,0.0230,-0.6703,-1.2900,1.4540,0.0000,0.0000,0.0000,20.0000,28.0284,8.7287,408.4240,139.2958,0.2344,0.000708,-11.1956,-28.7195,1.7542,26.9653,-11.1956,-0.0017,-4.0053,-7.8623,-1.3247,-0.0000,-0.021792,0.122338,0.251232,0.0768,0.0860,0.0133,-180.0000,0.0000,-0.0000
172,1.7200,0.2413,-0.8260,-1.3862,1.6316,0.0000,0.0000,0.0000,20.0000,31.2467,9.8789,500.7693,156.6399,0.2516,0.000699,-11.1956,-28.7195,1.7542,26.9653,-11.1956,-0.0017,-4.0053,-7.8623,-1.3247,-0.0000,0.013662,0.149250,0.274177,0.0934,0.1130,0.0115,-180.0000,0.0000,-0.0000
173,1.7300,0.5102,-0.9888,-1.4722,1.8454,0.0000,0.0000,0.0000,20.0000,35.1632,11.1620,593.6354,178.1239,0.2698,0.000831,-11.2033,-29.0918,1.8300,27.2618,-11.2033,0.0099,-3.8002,-7.9085,-1.0429,0.0000,0.059349,0.180201,0.296057,0.1086,0.1375,0.0093,-180.0000,0.0000,-0.0000
174,1.7400,0.8003,-1.1505,-1.5494,2.0892,0.0000,0.0000,0.0000,20.0000,39.7120,12.6074,662.1752,202.8655,0.2892,0.000807,-11.2033,-29.0918,1.8300,27.2618,-11.2033,0.0099,-3.8002,-7.9085,-1.0429,0.0000,0.113494,0.213114,0.315287,0.1221,0.1630,0.0058,-180.0000,0.0000,-0.0000
175,1.7500,1.1040,-1.3152,-1.6193,2.3602,0.0000,0.0000,0.0000,20.0000,44.9125,14.2414,712.0195,229.5021,0.3104,0.000807,-11.2033,-29.0918,1.8300,27.2618,-11.2033,0.0099,-3.8002,-7.9085,-1.0429,0.0000,0.173569,0.247353,0.332270,0.1349,0.1899,0.0026,-180.0000,0.0000,-0.0000
176,1.7600,1.4302,-1.4843,-1.6879,2.6641,0.0000,0.0000,0.0000,20.0000,50.8002,16.0905,760.2622,257.3713,0.3345,0.000815,-11.2033,-29.0918,1.8300,27.2618,-11.2033,0.0099,-3.8002,-7.9085,-1.0429,0.0000,0.239051,0.282699,0.347853,0.1461,0.2168,-0.0002,-180.0000,0.0000,-0.0000
177,1.7700,1.8008,-1.6777,-1.7643,3.0282,0.0000,0.0000,0.0000,20.0000,57.6495,18.1882,836.9764,287.1443,0.3633,0.000782,-11.2033,-29.0918,1.8300,27.2618,-11.2033,0.0099,-3.8002,-7.9085,-1.0429,0.0000,0.311823,0.321006,0.363412,0.1661,0.2578,-0.0041,-180.0000,0.0000,-0.0000
178,1.7800,2.2031,-1.8981,-1.8465,3.4447,0.0000,0.0000,0.0000,20.0000,65.5450,20.5760,919.0201,319.6460,0.3989,0.000798,-11.2033,-29.0918,1.8300,27.2618,-11.2033,0.0099,-3.8002,-7.9085,-1.0429,0.0000,0.391660,0.363586,0.379503,0.1799,0.2833,-0.0076,-180.0000,0.0000,-0.0000
179,1.7900,2.6023,-2.1244,-1.9386,3.8786,0.0000,0.0000,0.0000,20.0000,74.1857,23.2873,964.3089,353.8620,0.4449,0.000796,-11.2033,-29.0918,1.8300,27.2618,-11.2033,0.0099,-3.8002,-7.9085,-1.0429,0.0000,0.474924,0.409027,0.396858,0.1941,0.3086,-0.0108,-180.0000,0.0000,-0.0000
180,1.8000,2.9827,-2.3574,-2.0551,4.3217,0.0000,0.0000,0.0000,20.0000,83.3107,26.3381,979.4634,387.8583,0.5055,0.000738,-11.2033,-29.0918,1.8300,27.2618,-11.2033,0.0099,-3.8002,-7.9085,-1.0429,0.0000,0.558051,0.456622,0.417305,0.2110,0.3314,-0.0153,-180.0000,0.0000,-0.0000
181,1.8100,3.3378,-2.5965,-2.1958,4.7649,0.0000,0.0000,0.0000,20.0000,92.6682,29.7294,974.0938,420.2536,0.5860,0.000800,-11.2033,-29.0918,1.8300,27.2618,-11.2033,0.0099,-3.8002,-7.9085,-1.0429,0.0000,0.638391,0.505937,0.441843,0.2258,0.3542,-0.0198,-180.0000,0.0000,-0.0000
182,1.8200,3.6749,-2.8271,-2.3618,5.2034,0.0000,0.0000,0.0000,20.0000,102.0692,33.4501,958.8183,450.2991,0.6923,0.000786,-11.2033,-29.0918,1.8300,27.2618,-11.2033,0.0099,-3.8002,-7.9085,-1.0429,0.0000,0.715236,0.555239,0.471124,0.2413,0.3764,-0.0249,-180.0000,0.0000,-0.0000
183,1.8300,3.9922,-3.0362,-2.5534,5.6281,0.0000,0.0000,0.0000,20.0000,111.3228,37.4792,932.4138,477.5455,0.8307,0.000833,-11.2033,-29.0918,1.8300,27.2618,-11.2033,0.0099,-3.8002,-7.9085,-1.0429,0.0000,0.788010,0.602299,0.505522,0.2553,0.4017,-0.0288,-180.0000,0.0000,-0.0000
184,1.8400,4.2975,-3.2325,-2.7640,6.0462,0.0000,0.0000,0.0000,20.0000,120.4005,41.7909,910.3468,501.9600,1.0080,0.000749,-11.2033,-29.0918,1.8300,27.2618,-11.2033,0.0099,-3.8002,-7.9085,-1.0429,0.0000,0.857196,0.646733,0.544590,0.2657,0.4256,-0.0320,-180.0000,0.0000,-0.0000
185,1.8500,4.6070,-3.4203,-2.9820,6.4665,0.0000,0.0000,0.0000,20.0000,129.3798,46.3620,900.7181,524.1597,1.2308,0.000807,-11.2033,-29.0918,1.8300,27.2618,-11.2033,0.0099,-3.8002,-7.9085,-1.0429,0.0000,0.924681,0.688785,0.586902,0.2728,0.4494,-0.0359,-180.0000,0.0000,-0.0000
186,1.8600,4.9189,-3.5928,-3.2003,6.8808,0.0000,0.0000,0.0000,20.0000,138.2262,51.1720,889.4186,544.5627,1.5063,0.000710,-11.2033,-29.0918,1.8300,27.2618,-11.2033,0.0099,-3.8002,-7.9085,-1.0429,0.0000,0.991325,0.727897,0.630941,0.2795,0.4711,-0.0397,-180.0000,0.0000,-0.0000
187,1.8700,5.2161,-3.7574,-3.4143,7.2790,0.0000,0.0000,0.0000,20.0000,146.8208,56.1970,865.4973,562.8746,1.8413,0.000707,-11.2033,-29.0918,1.8300,27.2618,-11.2033,0.0099,-3.8002,-7.9085,-1.0429,0.0000,1.055901,0.764531,0.675425,0.2841,0.4922,-0.0435,-180.0000,0.0000,-0.0000
188,1.8800,5.4876,-3.9267,-3.6182,7.6566,0.0000,0.0000,0.0000,20.0000,155.0547,61.4085,828.4170,578.5014,2.2425,0.000786,-11.2033,-29.0918,1.8300,27.2618,-11.2033,0.0099,-3.8002,-7.9085,-1.0429,0.0000,1.116634,0.800179,0.719054,0.2877,0.5079,-0.0464,-180.0000,0.0000,-0.0000
189,1.8900,5.7309,-4.0934,-3.8088,8.0066,0.0000,0.0000,0.0000,20.0000,162.7958,66.7727,777.8418,590.8577,2.7161,0.000796,-11.2033,-29.0918,1.8300,27.2618,-11.2033,0.0099,-3.8002,-7.9085,-1.0429,0.0000,1.172300,0.834957,0.760793,0.2944,0.5227,-0.0498,-180.0000,0.0000,-0.0000
190,1.9000,5.9472,-4.2498,-3.9845,8.3251,0.0000,0.0000,0.0000,20.0000,169.9331,72.2511,716.8488,599.4658,3.2679,0.000763,-11.2033,-29.0918,1.8300,27.2618,-11.2033,0.0099,-3.8002,-7.9085,-1.0429,0.0000,1.222365,0.868153,0.799912,0.3029,0.5385,-0.0525,-180.0000,0.0000,-0.0000
191,1.9100,6.1432,-4.4010,-4.1463,8.6197,0.0000,0.0000,0.0000,20.0000,176.4837,77.8045,657.7871,604.2984,3.9027,0.000717,-11.2033,-29.0918,1.8300,27.2618,-11.2033,0.0099,-3.8002,-7.9085,-1.0429,0.0000,1.267191,0.899879,0.836118,0.3127,0.5557,-0.0547,-180.0000,0.0000,-0.0000
192,1.9200,6.3309,-4.5423,-4.2980,8.8986,0.0000,0.0000,0.0000,20.0000,183.7650,83.4330,733.0397,609.3104,4.6310,0.000730,-10.0940,-29.8619,1.2547,28.6073,-10.0940,-1.1429,-1.5767,-6.7322,0.0348,0.0066,1.314770,0.936850,0.877866,0.3207,0.5711,-0.0551,-180.0000,-0.0000,0.0000
193,1.9300,6.5215,-4.6659,-4.4393,9.1656,0.0000,0.0000,0.0000,20.0000,190.0937,89.1261,635.5855,613.4362,5.4561,0.000760,-10.0940,-29.8619,1.2547,28.6073,-10.0940,-1.1429,-1.5767,-6.7322,0.0348,0.0066,1.357506,0.967773,0.913322,0.3265,0.5858,-0.0562,-180.0000,-0.0000,0.0000
194,1.9400,6.7076,-4.7653,-4.5692,9.4116,0.0000,0.0000,0.0000,20.0000,195.6719,94.8335,560.1290,612.5792,6.3813,0.000880,-10.0940,-29.8619,1.2547,28.6073,-10.0940,-1.1429,-1.5767,-6.7322,0.0348,0.0066,1.397019,0.992873,0.944081,0.3277,0.5969,-0.0572,-180.0000,-0.0000,0.0000
195,1.9500,6.8756,-4.8311,-4.6945,9.6256,0.0000,0.0000,0.0000,20.0000,200.5038,100.5133,488.9394,607.7360,7.4093,0.000831,-10.0940,-29.8619,1.2547,28.6073,-10.0940,-1.1429,-1.5767,-6.7322,0.0348,0.0066,1.432865,1.011344,0.971731,0.3253,0.6032,-0.0559,-180.0000,-0.0000,0.0000
196,1.9600,7.0166,-4.8523,-4.8190,9.7979,0.0000,0.0000,0.0000,20.0000,204.4958,106.1234,416.5789,599.2110,8.5411,0.000795,-10.0940,-29.8619,1.2547,28.6073,-10.0940,-1.1429,-1.5767,-6.7322,0.0348,0.0066,1.463919,1.021642,0.997518,0.3164,0.6031,-0.0540,-180.0000,-0.0000,0.0000
197,1.9700,7.1246,-4.8206,-4.9468,9.9232,0.0000,0.0000,0.0000,20.0000,207.5420,111.6185,354.1588,587.4480,9.7761,0.000781,-10.0940,-29.8619,1.2547,28.6073,-10.0940,-1.1429,-1.5767,-6.7322,0.0348,0.0066,1.488955,1.022128,1.022563,0.3062,0.6013,-0.0519,-180.0000,-0.0000,0.0000
198,1.9800,7.1982,-4.7440,-5.0841,10.0084,0.0000,0.0000,0.0000,20.0000,209.6578,116.9532,327.5381,573.8831,11.1124,0.000833,-10.0940,-29.8619,1.2547,28.6073,-10.0940,-1.1429,-1.5767,-6.7322,0.0348,0.0066,1.507181,1.012696,1.048090,0.2930,0.5971,-0.0490,-180.0000,-0.0000,0.0000
199,1.9900,7.2420,-4.6379,-5.2238,10.0620,0.0000,0.0000,0.0000,20.0000,210.9390,122.0880,335.3226,560.5462,12.5469,0.004230,-10.0940,-29.8619,1.2547,28.6073,-10.0940,-1.1429,-1.5767,-6.7322,0.0348,0.0066,1.518614,0.994842,1.074070,0.2793,0.5913,-0.0459,-180.0000,-0.0000,0.0000
200,2.0000,7.2577,-4.5140,-5.3581,10.0876,0.0000,0.0000,0.0000,20.0000,211.4800,126.9904,356.3301,548.7349,14.0758,0.000838,-10.0940,-29.8619,1.2547,28.6073,-10.0940,-1.1429,-1.5767,-6.7322,0.0348,0.0066,1.523469,0.970587,1.099719,0.2643,0.5823,-0.0433,-180.0000,-0.0000,0.0000
201,2.0100,7.2471,-4.3788,-5.4923,10.0926,0.0000,0.0000,0.0000,20.0000,211.4093,131.6360,384.7329,538.9323,15.6946,0.000814,-10.0940,-29.8619,1.2547,28.6073,-10.0940,-1.1429,-1.5767,-6.7322,0.0348,0.0066,1.522053,0.941726,1.125120,0.2509,0.5726,-0.0416,-180.0000,-0.0000,0.0000
202,2.0200,7.2056,-4.2388,-5.6269,10.0772,0.0000,0.0000,0.0000,20.0000,210.8001,136.0074,414.1109,531.2581,17.3987,0.000748,-10.0940,-29.8619,1.2547,28.6073,-10.0940,-1.1429,-1.5767,-6.7322,0.0348,0.0066,1.514074,0.909888,1.150370,0.2356,0.5611,-0.0402,-180.0000,-0.0000,0.0000
203,2.0300,7.1339,-4.0863,-5.7554,10.0357,0.0000,0.0000,0.0000,20.0000,209.6360,140.0896,448.9654,525.7727,19.1820,0.000774,-10.0940,-29.8619,1.2547,28.6073,-10.0940,-1.1429,-1.5767,-6.7322,0.0348,0.0066,1.499467,0.875217,1.174870,0.2207,0.5450,-0.0380,-180.0000,-0.0000,0.0000
204,2.0400,7.0330,-3.9122,-5.8796,9.9668,0.0000,0.0000,0.0000,20.0000,207.8969,143.8674,497.4832,522.8821,21.0370,0.000786,-10.0940,-29.8619,1.2547,28.6073,-10.0940,-1.1429,-1.5767,-6.7322,0.0348,0.0066,1.478298,0.836888,1.198485,0.2036,0.5246,-0.0345,-180.0000,-0.0000,0.0000
205,2.0500,6.9079,-3.7201,-6.0028,9.8789,0.0000,0.0000,0.0000,20.0000,205.6574,147.3279,550.9451,522.9554,22.9561,0.000808,-10.0940,-29.8619,1.2547,28.6073,-10.0940,-1.1429,-1.5767,-6.7322,0.0348,0.0066,1.451132,0.794823,1.221462,0.1861,0.5050,-0.0301,-180.0000,-0.0000,0.0000
206,2.0600,6.7658,-3.5226,-6.1163,9.7772,0.0000,0.0000,0.0000,20.0000,203.0183,150.4639,590.5751,525.5850,24.9312,0.000824,-10.0940,-29.8619,1.2547,28.6073,-10.0940,-1.1429,-1.5767,-6.7322,0.0348,0.0066,1.419005,0.750228,1.243071,0.1693,0.4881,-0.0254,-180.0000,-0.0000,0.0000
207,2.0700,6.6217,-3.3331,-6.2144,9.6735,0.0000,0.0000,0.0000,20.0000,200.1540,153.2761,602.6126,529.4911,26.9555,0.000769,-10.0940,-29.8619,1.2547,28.6073,-10.0940,-1.1429,-1.5767,-6.7322,0.0348,0.0066,1.383992,0.705129,1.262347,0.1561,0.4724,-0.0217,-180.0000,-0.0000,0.0000
208,2.0800,6.4917,-3.1583,-6.3010,9.5823,0.0000,0.0000,0.0000,20.0000,197.3061,155.7764,586.0997,533.0592,29.0247,0.000869,-10.0940,-29.8619,1.2547,28.6073,-10.0940,-1.1429,-1.5767,-6.7322,0.0348,0.0066,1.348877,0.661307,1.279130,0.1458,0.4636,-0.0199,-180.0000,-0.0000,0.0000
209,2.0900,6.3881,-3.0060,-6.3794,9.5153,0.0000,0.0000,0.0000,20.0000,194.7210,157.9898,541.2607,534.7436,31.1373,0.000818,-10.0940,-29.8619,1.2547,28.6073,-10.0940,-1.1429,-1.5767,-6.7322,0.0348,0.0066,1.316403,0.620529,1.293698,0.1382,0.4608,-0.0205,-180.0000,-0.0000,0.0000
210,2.1000,6.3191,-2.8795,-6.4428,9.4727,0.0000,0.0000,0.0000,20.0000,192.5303,159.9500,471.4189,533.1811,33.2945,0.000711,-10.0940,-29.8619,1.2547,28.6073,-10.0940,-1.1429,-1.5767,-6.7322,0.0348,0.0066,1.288918,0.584090,1.305496,0.1335,0.4612,-0.0236,-180.0000,-0.0000,0.0000
211,2.1100,6.2778,-2.7746,-6.4803,9.4395,0.0000,0.0000,0.0000,20.0000,190.6503,161.6905,393.5918,527.6432,35.4977,0.000682,-10.0940,-29.8619,1.2547,28.6073,-10.0940,-1.1429,-1.5767,-6.7322,0.0348,0.0066,1.267019,0.552297,1.313159,0.1309,0.4616,-0.0270,-180.0000,-0.0000,0.0000
212,2.1200,6.2559,-2.6874,-6.4858,9.4034,0.0000,0.0000,0.0000,20.0000,193.7306,163.3682,336.9353,518.7110,37.8081,0.000739,-6.2792,-29.3155,-2.1948,31.5103,-6.2792,-0.3054,-4.3367,-7.4744,-0.0011,-1.1631,1.285356,0.549509,1.341288,0.1281,0.4613,-0.0294,-180.0000,0.0000,-0.0000
213,2.1300,6.2437,-2.6293,-6.4548,9.3574,0.0000,0.0000,0.0000,20.0000,194.5920,165.0621,143.9353,503.4036,40.2019,0.000734,-6.2792,-29.3155,-2.1948,31.5103,-6.2792,-0.3054,-4.3367,-7.4744,-0.0011,-1.1631,1.291705,0.541059,1.351058,0.1259,0.4580,-0.0307,-180.0000,0.0000,-0.0000
214,2.1400,6.2329,-2.6083,-6.3931,9.3018,0.0000,0.0000,0.0000,20.0000,194.1233,166.6736,85.8944,482.0336,42.6641,0.000693,-6.2792,-29.3155,-2.1948,31.5103,-6.2792,-0.3054,-4.3367,-7.4744,-0.0011,-1.1631,1.291549,0.533205,1.347583,0.1264,0.4541,-0.0324,-180.0000,0.0000,-0.0000
215,2.1500,6.2162,-2.6226,-6.3114,9.2387,0.0000,0.0000,0.0000,20.0000,192.8391,168.1482,140.7163,461.7506,45.1849,0.000780,-6.2792,-29.3155,-2.1948,31.5103,-6.2792,-0.3054,-4.3367,-7.4744,-0.0011,-1.1631,1.287214,0.529223,1.334802,0.1292,0.4487,-0.0333,-180.0000,0.0000,-0.0000
216,2.1600,6.2009,-2.6704,-6.2197,9.1797,0.0000,0.0000,0.0000,20.0000,191.1415,169.4597,200.4804,445.7349,47.7587,0.000769,-6.2792,-29.3155,-2.1948,31.5103,-6.2792,-0.3054,-4.3367,-7.4744,-0.0011,-1.1631,1.280716,0.530743,1.315897,0.1348,0.4440,-0.0352,-180.0000,0.0000,-0.0000
217,2.1700,6.1936,-2.7643,-6.1256,9.1392,0.0000,0.0000,0.0000,20.0000,189.3951,170.6044,252.4551,433.6734,50.3844,0.000691,-6.2792,-29.3155,-2.1948,31.5103,-6.2792,-0.3054,-4.3367,-7.4744,-0.0011,-1.1631,1.273832,0.539912,1.293406,0.1429,0.4411,-0.0396,-180.0000,0.0000,-0.0000
218,2.1800,6.2055,-2.8987,-6.0387,9.1311,0.0000,0.0000,0.0000,20.0000,187.9438,171.5981,298.7950,424.9795,53.0656,0.000705,-6.2792,-29.3155,-2.1948,31.5103,-6.2792,-0.3054,-4.3367,-7.4744,-0.0011,-1.1631,1.268669,0.557348,1.269697,0.1560,0.4423,-0.0456,-180.0000,0.0000,-0.0000
219,2.1900,6.2473,-3.0622,-5.9523,9.1561,0.0000,0.0000,0.0000,20.0000,186.9875,172.4709,347.8420,419.3873,55.8086,0.000776,-6.2792,-29.3155,-2.1948,31.5103,-6.2792,-0.3054,-4.3367,-7.4744,-0.0011,-1.1631,1.267449,0.582214,1.245404,0.1729,0.4460,-0.0519,-180.0000,0.0000,-0.0000
220,2.2000,6.3091,-3.2573,-5.8534,9.2021,0.0000,0.0000,0.0000,20.0000,186.5153,173.2565,412.9025,417.2412,58.6196,0.000775,-6.2792,-29.3155,-2.1948,31.5103,-6.2792,-0.3054,-4.3367,-7.4744,-0.0011,-1.1631,1.270426,0.614313,1.219603,0.1906,0.4537,-0.0591,-180.0000,0.0000,-0.0000
221,2.2100,6.3786,-3.4998,-5.7204,9.2552,0.0000,0.0000,0.0000,20.0000,186.3777,173.9820,509.7509,419.6663,61.5027,0.000852,-6.2792,-29.3155,-2.1948,31.5103,-6.2792,-0.3054,-4.3367,-7.4744,-0.0011,-1.1631,1.276479,0.655075,1.189598,0.2189,0.4660,-0.0691,-180.0000,0.0000,-0.0000
222,2.2200,6.4407,-3.7804,-5.5458,9.3022,0.0000,0.0000,0.0000,20.0000,186.3668,174.6636,616.7913,427.5657,64.4580,0.000731,-6.2792,-29.3155,-2.1948,31.5103,-6.2792,-0.3054,-4.3367,-7.4744,-0.0011,-1.1631,1.283481,0.704357,1.153176,0.2379,0.4723,-0.0748,-180.0000,0.0000,-0.0000
223,2.2300,6.4824,-4.0685,-5.3406,9.3325,0.0000,0.0000,0.0000,20.0000,186.2810,175.3050,697.2298,440.1870,67.4806,0.000710,-6.2792,-29.3155,-2.1948,31.5103,-6.2792,-0.3054,-4.3367,-7.4744,-0.0011,-1.1631,1.288952,0.759000,1.110217,0.2528,0.4770,-0.0791,-180.0000,0.0000,-0.0000
224,2.2400,6.5187,-4.3526,-5.1111,9.3575,0.0000,0.0000,0.0000,20.0000,186.1263,175.9045,753.0319,455.8612,70.5644,0.001019,-6.2792,-29.3155,-2.1948,31.5103,-6.2792,-0.3054,-4.3367,-7.4744,-0.0011,-1.1631,1.293035,0.816099,1.061293,0.2692,0.4814,-0.0807,-180.0000,0.0000,-0.0000
225,2.2500,6.5791,-4.6213,-4.8742,9.4020,0.0000,0.0000,0.0000,20.0000,186.1618,176.4678,778.0028,472.8948,73.7068,0.000734,-6.2792,-29.3155,-2.1948,31.5103,-6.2792,-0.3054,-4.3367,-7.4744,-0.0011,-1.1631,1.298740,0.872900,1.008435,0.2849,0.4854,-0.0826,-180.0000,0.0000,-0.0000
226,2.2600,6.6865,-4.8735,-4.6392,9.4860,0.0000,0.0000,0.0000,20.0000,186.7226,177.0164,783.2102,489.8214,76.9113,0.000699,-6.2792,-29.3155,-2.1948,31.5103,-6.2792,-0.3054,-4.3367,-7.4744,-0.0011,-1.1631,1.310044,0.927774,0.953705,0.2998,0.4941,-0.0852,-180.0000,0.0000,-0.0000
227,2.2700,6.8338,-5.1028,-4.4088,9.6009,0.0000,0.0000,0.0000,20.0000,187.9028,177.5828,776.3117,505.7704,80.1839,0.000692,-6.2792,-29.3155,-2.1948,31.5103,-6.2792,-0.3054,-4.3367,-7.4744,-0.0011,-1.1631,1.328403,0.979176,0.898502,0.3160,0.5088,-0.0879,-180.0000,0.0000,-0.0000
228,2.2800,6.9948,-5.3050,-4.1878,9.7267,0.0000,0.0000,0.0000,20.0000,189.5454,178.1957,754.8146,520.0610,83.5298,0.000765,-6.2792,-29.3155,-2.1948,31.5103,-6.2792,-0.3054,-4.3367,-7.4744,-0.0011,-1.1631,1.351990,1.025862,0.844082,0.3320,0.5217,-0.0906,-180.0000,0.0000,-0.0000
229,2.2900,7.1427,-5.4966,-3.9770,9.8512,0.0000,0.0000,0.0000,20.0000,191.4356,178.8720,725.6121,532.1712,86.9518,0.000706,-6.2792,-29.3155,-2.1948,31.5103,-6.2792,-0.3054,-4.3367,-7.4744,-0.0011,-1.1631,1.377110,1.068772,0.791235,0.3428,0.5299,-0.0932,-180.0000,0.0000,-0.0000
230,2.3000,7.2435,-5.6761,-3.7705,9.9450,0.0000,0.0000,0.0000,20.0000,193.1566,179.6104,682.6191,541.6295,90.4463,0.000770,-6.2792,-29.3155,-2.1948,31.5103,-6.2792,-0.3054,-4.3367,-7.4744,-0.0011,-1.1631,1.398330,1.108303,0.739789,0.3505,0.5321,-0.0952,-180.0000,0.0000,-0.0000
231,2.3100,7.2716,-5.8222,-3.5690,9.9756,0.0000,0.0000,0.0000,20.0000,194.1505,180.3829,617.8405,547.6034,94.0002,0.000708,-6.2792,-29.3155,-2.1948,31.5103,-6.2792,-0.3054,-4.3367,-7.4744,-0.0011,-1.1631,1.410071,1.142552,0.689724,0.3535,0.5244,-0.0951,-180.0000,0.0000,-0.0000
232,2.3200,7.2298,-5.9327,-3.3832,9.9455,0.0000,0.0000,0.0000,20.0000,200.3678,181.3112,706.0321,553.8926,97.7267,0.000734,-2.7747,-28.4650,-7.2735,35.7385,-2.7747,-2.2148,-4.7178,-8.8888,-0.4973,-1.1514,1.455629,1.195974,0.682289,0.3510,0.5108,-0.0913,-180.0000,-0.0000,-0.0000
233,2.3300,7.1409,-6.0118,-3.2245,9.8758,0.0000,0.0000,0.0000,20.0000,202.7375,182.4247,431.6405,554.7146,101.5567,0.000735,-2.7747,-28.4650,-7.2735,35.7385,-2.7747,-2.2148,-4.7178,-8.8888,-0.4973,-1.1514,1.469013,1.231020,0.660940,0.3465,0.4996,-0.0879,-180.0000,-0.0000,-0.0000
234,2.3400,7.0311,-6.0524,-3.1026,9.7823,0.0000,0.0000,0.0000,20.0000,202.7411,183.5422,335.1607,545.2910,105.4480,0.000657,-2.7747,-28.4650,-7.2735,35.7385,-2.7747,-2.2148,-4.7178,-8.8888,-0.4973,-1.1514,1.462492,1.251996,0.635625,0.3414,0.4928,-0.0844,-180.0000,-0.0000,-0.0000
235,2.3500,6.9216,-6.0553,-3.0188,9.6793,0.0000,0.0000,0.0000,20.0000,201.3369,184.5596,308.6324,533.0025,109.3764,0.000809,-2.7747,-28.4650,-7.2735,35.7385,-2.7747,-2.2148,-4.7178,-8.8888,-0.4973,-1.1514,1.445013,1.261376,0.611981,0.3372,0.4902,-0.0800,-180.0000,-0.0000,-0.0000
236,2.3600,6.8156,-6.0302,-2.9675,9.5720,0.0000,0.0000,0.0000,20.0000,199.1048,185.4211,302.2299,520.4843,113.3283,0.000789,-2.7747,-28.4650,-7.2735,35.7385,-2.7747,-2.2148,-4.7178,-8.8888,-0.4973,-1.1514,1.421861,1.261532,0.592555,0.3346,0.4901,-0.0731,-180.0000,-0.0000,-0.0000
237,2.3700,6.7162,-5.9776,-2.9429,9.4604,0.0000,0.0000,0.0000,20.0000,196.3655,186.0985,303.4756,508.5128,117.2962,0.000787,-2.7747,-28.4650,-7.2735,35.7385,-2.7747,-2.2148,-4.7178,-8.8888,-0.4973,-1.1514,1.396274,1.253826,0.578171,0.3311,0.4898,-0.0670,-180.0000,-0.0000,-0.0000
238,2.3800,6.6163,-5.8901,-2.9349,9.3318,0.0000,0.0000,0.0000,20.0000,193.1698,186.5754,326.1481,497.8577,121.2726,0.000751,-2.7747,-28.4650,-7.2735,35.7385,-2.7747,-2.2148,-4.7178,-8.8888,-0.4973,-1.1514,1.369350,1.238309,0.568270,0.3271,0.4867,-0.0592,-180.0000,-0.0000,-0.0000
239,2.3900,6.5047,-5.7646,-2.9333,9.1731,0.0000,0.0000,0.0000,20.0000,189.4177,186.8349,378.3424,489.8478,125.2468,0.000759,-2.7747,-28.4650,-7.2735,35.7385,-2.7747,-2.2148,-4.7178,-8.8888,-0.4973,-1.1514,1.340568,1.214705,0.561496,0.3254,0.4818,-0.0501,-180.0000,-0.0000,-0.0000
240,2.4000,6.3904,-5.6133,-2.9382,8.9989,0.0000,0.0000,0.0000,20.0000,185.2034,186.8611,430.8794,485.1591,129.2082,0.000741,-2.7747,-28.4650,-7.2735,35.7385,-2.7747,-2.2148,-4.7178,-8.8888,-0.4973,-1.1514,1.310550,1.184105,0.557122,0.3253,0.4770,-0.0423,-180.0000,-0.0000,-0.0000
241,2.4100,6.2804,-5.4627,-2.9530,8.8321,0.0000,0.0000,0.0000,20.0000,180.8124,186.6491,457.8746,482.9158,133.1510,0.000782,-2.7747,-28.4650,-7.2735,35.7385,-2.7747,-2.2148,-4.7178,-8.8888,-0.4973,-1.1514,1.280336,1.149763,0.555064,0.3263,0.4743,-0.0362,-180.0000,-0.0000,-0.0000
242,2.4200,6.1721,-5.3441,-2.9691,8.6874,0.0000,0.0000,0.0000,20.0000,176.5597,186.2111,447.7525,481.2599,137.0736,0.000746,-2.7747,-28.4650,-7.2735,35.7385,-2.7747,-2.2148,-4.7178,-8.8888,-0.4973,-1.1514,1.250243,1.116614,0.554433,0.3316,0.4707,-0.0295,-180.0000,-0.0000,-0.0000
243,2.4300,6.0636,-5.2766,-2.9763,8.5714,0.0000,0.0000,0.0000,20.0000,172.6902,185.5738,405.6354,478.2583,140.9782,0.000733,-2.7747,-28.4650,-7.2735,35.7385,-2.7747,-2.2148,-4.7178,-8.8888,-0.4973,-1.1514,1.220257,1.089307,0.553692,0.3404,0.4661,-0.0231,-180.0000,-0.0000,-0.0000
244,2.4400,5.9504,-5.2698,-2.9724,8.4861,0.0000,0.0000,0.0000,20.0000,169.3568,184.7734,353.0292,472.8166,144.8692,0.000782,-2.7747,-28.4650,-7.2735,35.7385,-2.7747,-2.2148,-4.7178,-8.8888,-0.4973,-1.1514,1.189920,1.071353,0.551784,0.3500,0.4613,-0.0181,-180.0000,-0.0000,-0.0000
245,2.4500,5.8357,-5.3233,-2.9606,8.4355,0.0000,0.0000,0.0000,20.0000,166.6798,183.8517,315.2445,465.1881,148.7539,0.000785,-2.7747,-28.4650,-7.2735,35.7385,-2.7747,-2.2148,-4.7178,-8.8888,-0.4973,-1.1514,1.159302,1.064633,0.548445,0.3590,0.4585,-0.0135,-180.0000,-0.0000,-0.0000
246,2.4600,5.7415,-5.4189,-2.9389,8.4241,0.0000,0.0000,0.0000,20.0000,164.7702,182.8546,293.5778,456.3441,152.6427,0.000774,-2.7747,-28.4650,-7.2735,35.7385,-2.7747,-2.2148,-4.7178,-8.8888,-0.4973,-1.1514,1.130632,1.068352,0.543337,0.3707,0.4607,-0.0114,-180.0000,-0.0000,-0.0000
247,2.4700,5.6863,-5.5354,-2.9007,8.4492,0.0000,0.0000,0.0000,20.0000,163.6630,181.8294,274.2060,446.8578,156.5485,0.000756,-2.7747,-28.4650,-7.2735,35.7385,-2.7747,-2.2148,-4.7178,-8.8888,-0.4973,-1.1514,1.107003,1.079920,0.535609,0.3835,0.4682,-0.0128,-180.0000,-0.0000,-0.0000
248,2.4800,5.6741,-5.6629,-2.8406,8.5048,0.0000,0.0000,0.0000,20.0000,163.3168,180.8205,262.5950,437.0413,160.4841,0.000878,-2.7747,-28.4650,-7.2735,35.7385,-2.7747,-2.2148,-4.7178,-8.8888,-0.4973,-1.1514,1.090507,1.096902,0.524248,0.3968,0.4802,-0.0167,-180.0000,-0.0000,-0.0000
249,2.4900,5.7090,-5.7963,-2.7458,8.5866,0.0000,0.0000,0.0000,20.0000,163.6589,179.8671,276.6320,427.8314,164.4617,0.000691,-2.7747,-28.4650,-7.2735,35.7385,-2.7747,-2.2148,-4.7178,-8.8888,-0.4973,-1.1514,1.082700,1.117444,0.507445,0.4083,0.4903,-0.0217,-180.0000,-0.0000,-0.0000
250,2.5000,5.7799,-5.9237,-2.6037,8.6762,0.0000,0.0000,0.0000,20.0000,164.4626,178.9976,328.4651,420.9398,168.4876,0.000810,-2.7747,-28.4650,-7.2735,35.7385,-2.7747,-2.2148,-4.7178,-8.8888,-0.4973,-1.1514,1.083310,1.139302,0.482935,0.4203,0.4961,-0.0253,-180.0000,-0.0000,-0.0000
251,2.5100,5.8567,-6.0277,-2.4162,8.7448,0.0000,0.0000,0.0000,20.0000,165.3149,178.2215,393.5801,417.6439,172.5577,0.001022,-2.7747,-28.4650,-7.2735,35.7385,-2.7747,-2.2148,-4.7178,-8.8888,-0.4973,-1.1514,1.089155,1.159502,0.449665,0.4290,0.4964,-0.0287,-180.0000,-0.0000,-0.0000
252,2.5200,5.9238,-6.0956,-2.1964,8.7791,0.0000,0.0000,0.0000,20.0000,172.5944,177.7118,783.0506,427.0322,176.8462,0.000674,1.2399,-25.4857,-12.9194,38.4051,1.2399,-2.4113,-4.2284,-9.6125,-0.7304,-1.3440,1.147351,1.211304,0.441828,0.4359,0.4930,-0.0287,-180.0000,0.0000,-0.0000
253,2.5300,5.9818,-6.1428,-1.9650,8.7964,0.0000,0.0000,0.0000,20.0000,176.4554,177.5365,550.7718,440.2275,181.2619,0.000712,1.2399,-25.4857,-12.9194,38.4051,1.2399,-2.4113,-4.2284,-9.6125,-0.7304,-1.3440,1.183026,1.242233,0.413470,0.4440,0.4895,-0.0283,-180.0000,0.0000,-0.0000
254,2.5400,6.0210,-6.1902,-1.7424,8.8094,0.0000,0.0000,0.0000,20.0000,178.3912,177.5303,482.6519,444.4347,185.7512,0.000818,1.2399,-25.4857,-12.9194,38.4051,1.2399,-2.4113,-4.2284,-9.6125,-0.7304,-1.3440,1.204299,1.261587,0.374709,0.4553,0.4892,-0.0280,-180.0000,0.0000,-0.0000
255,2.5500,6.0361,-6.2524,-1.5347,8.8251,0.0000,0.0000,0.0000,20.0000,179.2996,177.6026,465.7945,446.0733,190.2834,0.000749,1.2399,-25.4857,-12.9194,38.4051,1.2399,-2.4113,-4.2284,-9.6125,-0.7304,-1.3440,1.215166,1.275985,0.331765,0.4712,0.4906,-0.0287,-180.0000,0.0000,-0.0000
256,2.5600,6.0334,-6.3594,-1.3341,8.8670,0.0000,0.0000,0.0000,20.0000,179.9084,177.7127,474.0564,447.3854,194.8453,0.001722,1.2399,-25.4857,-12.9194,38.4051,1.2399,-2.4113,-4.2284,-9.6125,-0.7304,-1.3440,1.218474,1.292086,0.287300,0.4912,0.4909,-0.0288,-180.0000,0.0000,-0.0000
257,2.5700,6.0008,-6.5271,-1.1363,8.9388,0.0000,0.0000,0.0000,20.0000,180.6564,177.8540,506.6683,449.7495,199.4329,0.000832,1.2399,-25.4857,-12.9194,38.4051,1.2399,-2.4113,-4.2284,-9.6125,-0.7304,-1.3440,1.214598,1.315174,0.242366,0.5125,0.4916,-0.0310,-180.0000,0.0000,-0.0000
258,2.5800,5.9335,-6.7300,-0.9448,9.0217,0.0000,0.0000,0.0000,20.0000,181.5962,178.0340,550.5335,454.0869,204.0438,0.000713,1.2399,-25.4857,-12.9194,38.4051,1.2399,-2.4113,-4.2284,-9.6125,-0.7304,-1.3440,1.203300,1.345595,0.197894,0.5334,0.4875,-0.0310,-180.0000,0.0000,-0.0000
259,2.5900,5.8467,-6.9341,-0.7664,9.1023,0.0000,0.0000,0.0000,20.0000,182.6289,178.2584,576.7336,460.1129,208.6757,0.000801,1.2399,-25.4857,-12.9194,38.4051,1.2399,-2.4113,-4.2284,-9.6125,-0.7304,-1.3440,1.185969,1.380131,0.155078,0.5535,0.4819,-0.0296,-180.0000,0.0000,-0.0000
260,2.6000,5.7420,-7.1278,-0.6157,9.1736,0.0000,0.0000,0.0000,20.0000,183.6269,178.5263,574.6286,466.4700,213.3266,0.000828,1.2399,-25.4857,-12.9194,38.4051,1.2399,-2.4113,-4.2284,-9.6125,-0.7304,-1.3440,1.163548,1.415830,0.116030,0.5669,0.4750,-0.0282,-180.0000,0.0000,-0.0000
261,2.6100,5.6058,-7.3062,-0.5057,9.2229,0.0000,0.0000,0.0000,20.0000,184.3852,178.8277,555.6978,471.8990,217.9931,0.000680,1.2399,-25.4857,-12.9194,38.4051,1.2399,-2.4113,-4.2284,-9.6125,-0.7304,-1.3440,1.135205,1.450577,0.083207,0.5783,0.4655,-0.0244,-180.0000,0.0000,-0.0000
262,2.6200,5.4313,-7.4733,-0.4323,9.2486,0.0000,0.0000,0.0000,20.0000,184.7691,179.1440,547.7007,476.2886,222.6693,0.000758,1.2399,-25.4857,-12.9194,38.4051,1.2399,-2.4113,-4.2284,-9.6125,-0.7304,-1.3440,1.099820,1.483592,0.057562,0.5880,0.4532,-0.0210,-180.0000,0.0000,-0.0000
263,2.6300,5.2217,-7.6377,-0.3809,9.2598,0.0000,0.0000,0.0000,20.0000,184.7990,179.4542,566.5201,480.7345,227.3473,0.000820,1.2399,-25.4857,-12.9194,38.4051,1.2399,-2.4113,-4.2284,-9.6125,-0.7304,-1.3440,1.057093,1.515312,0.038127,0.5938,0.4410,-0.0201,-180.0000,0.0000,-0.0000
264,2.6400,4.9871,-7.7963,-0.3389,9.2611,0.0000,0.0000,0.0000,20.0000,184.5410,179.7411,597.2997,486.2999,232.0177,0.000733,1.2399,-25.4857,-12.9194,38.4051,1.2399,-2.4113,-4.2284,-9.6125,-0.7304,-1.3440,1.007903,1.545683,0.023108,0.5977,0.4280,-0.0210,-180.0000,0.0000,-0.0000
265,2.6500,4.7483,-7.9335,-0.2929,9.2506,0.0000,0.0000,0.0000,20.0000,184.0224,179.9909,611.3498,492.7922,236.6702,0.000805,1.2399,-25.4857,-12.9194,38.4051,1.2399,-2.4113,-4.2284,-9.6125,-0.7304,-1.3440,0.954817,1.573100,0.010156,0.6002,0.4159,-0.0202,-180.0000,0.0000,-0.0000
266,2.6600,4.5293,-8.0391,-0.2426,9.2304,0.0000,0.0000,0.0000,20.0000,183.2801,180.1922,590.2861,498.7345,241.2968,0.000803,1.2399,-25.4857,-12.9194,38.4051,1.2399,-2.4113,-4.2284,-9.6125,-0.7304,-1.3440,0.901659,1.595671,-0.002056,0.5967,0.4064,-0.0210,-180.0000,0.0000,-0.0000
267,2.6700,4.3450,-8.1134,-0.1993,9.2058,0.0000,0.0000,0.0000,20.0000,182.3715,180.3371,535.0782,502.2521,245.8960,0.000728,1.2399,-25.4857,-12.9194,38.4051,1.2399,-2.4113,-4.2284,-9.6125,-0.7304,-1.3440,0.852049,1.612382,-0.013130,0.5893,0.3980,-0.0225,-180.0000,0.0000,-0.0000
268,2.6800,4.1858,-8.1509,-0.1655,9.1644,0.0000,0.0000,0.0000,20.0000,181.1939,180.4166,470.5921,502.2842,250.4670,0.000724,1.2399,-25.4857,-12.9194,38.4051,1.2399,-2.4113,-4.2284,-9.6125,-0.7304,-1.3440,0.807000,1.622147,-0.022605,0.5823,0.3904,-0.0238,-180.0000,0.0000,-0.0000
269,2.6900,4.0300,-8.1613,-0.1369,9.1031,0.0000,0.0000,0.0000,20.0000,179.6596,180.4172,429.7866,499.4186,255.0050,0.000924,1.2399,-25.4857,-12.9194,38.4051,1.2399,-2.4113,-4.2284,-9.6125,-0.7304,-1.3440,0.764903,1.625343,-0.030656,0.5739,0.3825,-0.0239,-180.0000,0.0000,-0.0000
270,2.7000,3.8701,-8.1731,-0.1013,9.0436,0.0000,0.0000,0.0000,20.0000,177.9484,180.3284,415.6305,495.1989,259.5053,0.000740,1.2399,-25.4857,-12.9194,38.4051,1.2399,-2.4113,-4.2284,-9.6125,-0.7304,-1.3440,0.724108,1.625035,-0.038605,0.5671,0.3739,-0.0278,-180.0000,0.0000,-0.0000
271,2.7100,3.7167,-8.1993,-0.0465,9.0025,0.0000,0.0000,0.0000,20.0000,176.3347,180.1531,405.4264,490.5414,263.9655,0.000764,1.2399,-25.4857,-12.9194,38.4051,1.2399,-2.4113,-4.2284,-9.6125,-0.7304,-1.3440,0.684774,1.624233,-0.048397,0.5640,0.3674,-0.0338,-180.0000,0.0000,-0.0000
272,2.7200,3.5864,-8.2423,0.0293,8.9888,0.0000,0.0000,0.0000,20.0000,181.0002,180.0714,480.7499,487.9310,268.6123,0.000760,5.4797,-21.3148,-18.2745,39.5893,5.4797,-2.6635,-5.6129,-11.5557,-1.3716,-1.1911,0.696099,1.670301,-0.040604,0.5650,0.3635,-0.0409,-180.0000,-0.0000,-0.0000
273,2.7300,3.4903,-8.3189,0.1219,9.0222,0.0000,0.0000,0.0000,20.0000,183.5843,180.1936,305.4767,482.7153,273.3645,0.000751,5.4797,-21.3148,-18.2745,39.5893,5.4797,-2.6635,-5.6129,-11.5557,-1.3716,-1.1911,0.691354,1.700083,-0.045473,0.5688,0.3632,-0.0479,-180.0000,-0.0000,-0.0000
274,2.7400,3.4327,-8.4429,0.2308,9.1170,0.0000,0.0000,0.0000,20.0000,185.6225,180.4361,304.3181,472.9339,278.1927,0.000707,5.4797,-21.3148,-18.2745,39.5893,5.4797,-2.6635,-5.6129,-11.5557,-1.3716,-1.1911,0.681587,1.725553,-0.058962,0.5759,0.3653,-0.0557,-180.0000,-0.0000,-0.0000
275,2.7500,3.4001,-8.6289,0.3630,9.2817,0.0000,0.0000,0.0000,20.0000,188.0575,180.7884,371.0809,465.4949,283.0959,0.000746,5.4797,-21.3148,-18.2745,39.5893,5.4797,-2.6635,-5.6129,-11.5557,-1.3716,-1.1911,0.671569,1.754774,-0.079524,0.5907,0.3697,-0.0634,-180.0000,-0.0000,-0.0000
276,2.7600,3.3658,-8.8521,0.5095,9.4841,0.0000,0.0000,0.0000,20.0000,191.0903,181.2717,446.9532,462.3882,288.0802,0.000736,5.4797,-21.3148,-18.2745,39.5893,5.4797,-2.6635,-5.6129,-11.5557,-1.3716,-1.1911,0.661260,1.789743,-0.105381,0.6002,0.3716,-0.0672,-180.0000,-0.0000,-0.0000
277,2.7700,3.3276,-9.0612,0.6624,9.6755,0.0000,0.0000,0.0000,20.0000,194.3430,181.9012,482.0609,462.5047,293.1465,0.000843,5.4797,-21.3148,-18.2745,39.5893,5.4797,-2.6635,-5.6129,-11.5557,-1.3716,-1.1911,0.650412,1.826397,-0.134752,0.6094,0.3721,-0.0682,-180.0000,-0.0000,-0.0000
278,2.7800,3.2955,-9.2451,0.8245,9.8494,0.0000,0.0000,0.0000,20.0000,197.5385,182.6735,486.8980,463.7135,298.2916,0.000779,5.4797,-21.3148,-18.2745,39.5893,5.4797,-2.6635,-5.6129,-11.5557,-1.3716,-1.1911,0.639910,1.861397,-0.166929,0.6168,0.3730,-0.0678,-180.0000,-0.0000,-0.0000
279,2.7900,3.2819,-9.4035,0.9790,10.0077,0.0000,0.0000,0.0000,20.0000,200.5394,183.5738,463.0412,464.3327,303.5158,0.000805,5.4797,-21.3148,-18.2745,39.5893,5.4797,-2.6635,-5.6129,-11.5557,-1.3716,-1.1911,0.631466,1.892861,-0.199834,0.6225,0.3752,-0.0690,-180.0000,-0.0000,-0.0000
280,2.8000,3.2973,-9.5412,1.1149,10.1563,0.0000,0.0000,0.0000,20.0000,203.3228,184.5836,418.7154,463.0425,308.8252,0.000719,5.4797,-21.3148,-18.2745,39.5893,5.4797,-2.6635,-5.6129,-11.5557,-1.3716,-1.1911,0.627075,1.920244,-0.231205,0.6278,0.3800,-0.0704,-180.0000,-0.0000,-0.0000
281,2.8100,3.3421,-9.6637,1.2345,10.2996,0.0000,0.0000,0.0000,20.0000,205.9168,185.6857,372.4143,459.3307,314.2307,0.001024,5.4797,-21.3148,-18.2745,39.5893,5.4797,-2.6635,-5.6129,-11.5557,-1.3716,-1.1911,0.627871,1.943792,-0.260046,0.6320,0.3849,-0.0702,-180.0000,-0.0000,-0.0000
282,2.8200,3.4009,-9.7730,1.3356,10.4337,0.0000,0.0000,0.0000,20.0000,208.2992,186.8641,328.6253,453.3452,319.7423,0.000711,5.4797,-21.3148,-18.2745,39.5893,5.4797,-2.6635,-5.6129,-11.5557,-1.3716,-1.1911,0.632938,1.963845,-0.285583,0.6364,0.3876,-0.0704,-180.0000,-0.0000,-0.0000
283,2.8300,3.4500,-9.8665,1.4170,10.5479,0.0000,0.0000,0.0000,20.0000,210.3576,188.0998,280.0274,445.1480,325.3636,0.000710,5.4797,-21.3148,-18.2745,39.5893,5.4797,-2.6635,-5.6129,-11.5557,-1.3716,-1.1911,0.639376,1.980359,-0.307263,0.6404,0.3849,-0.0683,-180.0000,-0.0000,-0.0000
284,2.8400,3.4745,-9.9363,1.4872,10.6308,0.0000,0.0000,0.0000,20.0000,211.9193,189.3671,225.4007,434.5626,331.0874,0.000726,5.4797,-21.3148,-18.2745,39.5893,5.4797,-2.6635,-5.6129,-11.5557,-1.3716,-1.1911,0.644110,1.992499,-0.325655,0.6440,0.3762,-0.0631,-180.0000,-0.0000,-0.0000
285,2.8500,3.4652,-9.9838,1.5580,10.6823,0.0000,0.0000,0.0000,20.0000,212.8956,190.6345,182.1183,421.8666,336.8966,0.000718,5.4797,-21.3148,-18.2745,39.5893,5.4797,-2.6635,-5.6129,-11.5557,-1.3716,-1.1911,0.644512,1.999980,-0.342254,0.6483,0.3656,-0.0568,-180.0000,-0.0000,-0.0000
286,2.8600,3.4217,-10.0323,1.6315,10.7246,0.0000,0.0000,0.0000,20.0000,213.4609,191.8746,174.6923,408.4743,342.7734,0.000721,5.4797,-21.3148,-18.2745,39.5893,5.4797,-2.6635,-5.6129,-11.5557,-1.3716,-1.1911,0.639092,2.004965,-0.358095,0.6568,0.3562,-0.0507,-180.0000,-0.0000,-0.0000
287,2.8700,3.3587,-10.1127,1.7066,10.7916,0.0000,0.0000,0.0000,20.0000,214.0506,193.0783,199.8869,396.3073,348.7109,0.000803,5.4797,-21.3148,-18.2745,39.5893,5.4797,-2.6635,-5.6129,-11.5557,-1.3716,-1.1911,0.628517,2.011747,-0.373643,0.6688,0.3473,-0.0450,-180.0000,-0.0000,-0.0000
288,2.8800,3.2958,-10.2413,1.7851,10.9056,0.0000,0.0000,0.0000,20.0000,215.1256,194.2615,241.7049,386.6528,354.7172,0.000712,5.4797,-21.3148,-18.2745,39.5893,5.4797,-2.6635,-5.6129,-11.5557,-1.3716,-1.1911,0.615127,2.024335,-0.389342,0.6839,0.3422,-0.0432,-180.0000,-0.0000,-0.0000
289,2.8900,3.2470,-10.4224,1.8734,11.0760,0.0000,0.0000,0.0000,20.0000,217.0324,195.4616,300.7099,380.3024,360.8135,0.000698,5.4797,-21.3148,-18.2745,39.5893,5.4797,-2.6635,-5.6129,-11.5557,-1.3716,-1.1911,0.601614,2.045355,-0.406070,0.6994,0.3418,-0.0434,-180.0000,-0.0000,-0.0000
290,2.9000,3.2151,-10.6441,1.9691,11.2921,0.0000,0.0000,0.0000,20.0000,219.8521,196.7257,366.9845,377.7470,367.0273,0.000814,5.4797,-21.3148,-18.2745,39.5893,5.4797,-2.6635,-5.6129,-11.5557,-1.3716,-1.1911,0.589754,2.075053,-0.424075,0.7124,0.3418,-0.0440,-180.0000,-0.0000,-0.0000
291,2.9100,3.1907,-10.8759,2.0633,11.5205,0.0000,0.0000,0.0000,20.0000,229.5704,198.2652,973.3444,393.8323,373.6278,0.000648,10.2826,-16.8877,-22.5510,39.4387,10.2826,-3.8892,-8.2769,-12.4779,-0.9788,-1.1041,0.615087,2.168071,-0.437486,0.7208,0.3379,-0.0435,180.0000,0.0000,-0.0000
292,2.9200,3.1557,-11.0803,2.1492,11.7197,0.0000,0.0000,0.0000,20.0000,236.4866,200.1774,698.2047,418.1426,380.5176,0.000735,10.2826,-16.8877,-22.5510,39.4387,10.2826,-3.8892,-8.2769,-12.4779,-0.9788,-1.1041,0.624364,2.235598,-0.452618,0.7259,0.3314,-0.0404,180.0000,0.0000,-0.0000
293,2.9300,3.0977,-11.2406,2.2195,11.8690,0.0000,0.0000,0.0000,20.0000,241.3399,202.3082,510.2730,428.3794,387.6285,0.000767,10.2826,-16.8877,-22.5510,39.4387,10.2826,-3.8892,-8.2769,-12.4779,-0.9788,-1.1041,0.622435,2.284488,-0.467103,0.7262,0.3217,-0.0353,180.0000,0.0000,-0.0000
294,2.9400,3.0148,-11.3661,2.2639,11.9751,0.0000,0.0000,0.0000,20.0000,244.6112,204.5452,383.4273,429.3955,394.9110,0.000729,10.2826,-16.8877,-22.5510,39.4387,10.2826,-3.8892,-8.2769,-12.4779,-0.9788,-1.1041,0.611840,2.319491,-0.478622,0.7288,0.3075,-0.0298,180.0000,0.0000,-0.0000
295,2.9500,2.9177,-11.4697,2.2776,12.0522,0.0000,0.0000,0.0000,20.0000,246.7115,206.8070,309.2116,424.8256,402.3325,0.000779,10.2826,-16.8877,-22.5510,39.4387,10.2826,-3.8892,-8.2769,-12.4779,-0.9788,-1.1041,0.595052,2.344560,-0.485392,0.7371,0.2939,-0.0254,180.0000,0.0000,-0.0000
296,2.9600,2.8204,-11.5630,2.2683,12.1162,0.0000,0.0000,0.0000,20.0000,248.0298,209.0383,274.5484,417.5125,409.8749,0.001151,10.2826,-16.8877,-22.5510,39.4387,10.2826,-3.8892,-8.2769,-12.4779,-0.9788,-1.1041,0.574846,2.363055,-0.487237,0.7479,0.2835,-0.0203,180.0000,0.0000,-0.0000
297,2.9700,2.7329,-11.6587,2.2524,12.1847,0.0000,0.0000,0.0000,20.0000,248.9590,211.2087,259.5133,409.2348,417.5325,0.001139,10.2826,-16.8877,-22.5510,39.4387,10.2826,-3.8892,-8.2769,-12.4779,-0.9788,-1.1041,0.553776,2.378127,-0.485699,0.7584,0.2747,-0.0170,180.0000,0.0000,-0.0000
298,2.9800,2.6526,-11.7521,2.2480,12.2557,0.0000,0.0000,0.0000,20.0000,249.6975,213.3056,245.7712,400.6210,425.3019,0.000856,10.2826,-16.8877,-22.5510,39.4387,10.2826,-3.8892,-8.2769,-12.4779,-0.9788,-1.1041,0.532991,2.391045,-0.483433,0.7696,0.2665,-0.0148,180.0000,0.0000,-0.0000
299,2.9900,2.5603,-11.8240,2.2591,12.3071,0.0000,0.0000,0.0000,20.0000,250.1359,215.3195,238.0276,391.8900,433.1700,0.000854,10.2826,-16.8877,-22.5510,39.4387,10.2826,-3.8892,-8.2769,-12.4779,-0.9788,-1.1041,0.511213,2.400588,-0.482327,0.7757,0.2585,-0.0126,180.0000,0.0000,-0.0000
300,3.0000,2.4503,-11.8614,2.2778,12.3242,0.0000,0.0000,0.0000,20.0000,250.0666,217.2327,244.3339,383.5998,441.1136,0.000744,10.2826,-16.8877,-22.5510,39.4387,10.2826,-3.8892,-8.2769,-12.4779,-0.9788,-1.1041,0.487148,2.404808,-0.482613,0.7775,0.2455,-0.0075,180.0000,0.0000,-0.0000
301,3.0100,2.3182,-11.8662,2.2971,12.3068,0.0000,0.0000,0.0000,20.0000,249.3745,219.0198,275.8724,376.8065,449.1032,0.000787,10.2826,-16.8877,-22.5510,39.4387,10.2826,-3.8892,-8.2769,-12.4779,-0.9788,-1.1041,0.459657,2.402806,-0.483740,0.7818,0.2291,-0.0037,180.0000,0.0000,-0.0000
302,3.0200,2.1624,-11.8502,2.3102,12.2654,0.0000,0.0000,0.0000,20.0000,248.1033,220.6546,325.8351,372.6285,457.1097,0.000735,10.2826,-16.8877,-22.5510,39.4387,10.2826,-3.8892,-8.2769,-12.4779,-0.9788,-1.1041,0.427966,2.395294,-0.484704,0.7879,0.2127,0.0001,180.0000,0.0000,-0.0000
303,3.0300,1.9916,-11.8320,2.3076,12.2183,0.0000,0.0000,0.0000,20.0000,246.4616,222.1194,370.6017,371.2858,465.1132,0.000723,10.2826,-16.8877,-22.5510,39.4387,10.2826,-3.8892,-8.2769,-12.4779,-0.9788,-1.1041,0.392509,2.384533,-0.484013,0.7999,0.1976,0.0057,180.0000,0.0000,-0.0000
304,3.0400,1.8222,-11.8335,2.2900,12.1900,0.0000,0.0000,0.0000,20.0000,244.8083,223.4129,389.2140,371.7600,473.1098,0.000749,10.2826,-16.8877,-22.5510,39.4387,10.2826,-3.8892,-8.2769,-12.4779,-0.9788,-1.1041,0.355180,2.373962,-0.480896,0.8180,0.1869,0.0111,180.0000,0.0000,-0.0000
305,3.0500,1.6726,-11.8620,2.2661,12.1918,0.0000,0.0000,0.0000,20.0000,243.4562,224.5526,374.6460,372.3195,481.1116,0.000732,10.2826,-16.8877,-22.5510,39.4387,10.2826,-3.8892,-8.2769,-12.4779,-0.9788,-1.1041,0.318877,2.366222,-0.475821,0.8356,0.1832,0.0139,180.0000,0.0000,-0.0000
306,3.0600,1.5638,-11.9065,2.2429,12.2164,0.0000,0.0000,0.0000,20.0000,242.4999,225.5662,324.8525,371.0779,489.1409,0.000672,10.2826,-16.8877,-22.5510,39.4387,10.2826,-3.8892,-8.2769,-12.4779,-0.9788,-1.1041,0.287294,2.361657,-0.469744,0.8513,0.1837,0.0170,180.0000,0.0000,-0.0000
307,3.0700,1.4979,-11.9392,2.2261,12.2370,0.0000,0.0000,0.0000,20.0000,241.7179,226.4762,256.4282,366.6532,497.2165,0.000779,10.2826,-16.8877,-22.5510,39.4387,10.2826,-3.8892,-8.2769,-12.4779,-0.9788,-1.1041,0.262674,2.357684,-0.463773,0.8638,0.1861,0.0190,180.0000,0.0000,-0.0000
308,3.0800,1.4543,-11.9511,2.2109,12.2406,0.0000,0.0000,0.0000,20.0000,240.8554,227.2909,201.9690,359.0921,505.3474,0.000748,10.2826,-16.8877,-22.5510,39.4387,10.2826,-3.8892,-8.2769,-12.4779,-0.9788,-1.1041,0.244179,2.351962,-0.458020,0.8690,0.1879,0.0232,180.0000,0.0000,-0.0000
309,3.0900,1.4138,-11.9489,2.1884,12.2296,0.0000,0.0000,0.0000,20.0000,239.7996,228.0080,179.9374,349.8431,513.5344,0.000682,10.2826,-16.8877,-22.5510,39.4387,10.2826,-3.8892,-8.2769,-12.4779,-0.9788,-1.1041,0.229411,2.343874,-0.451674,0.8713,0.1870,0.0290,180.0000,0.0000,-0.0000
310,3.1000,1.3555,-11.9374,2.1616,12.2070,0.0000,0.0000,0.0000,20.0000,238.5246,228.6215,191.1482,340.8053,521.7701,0.000771,10.2826,-16.8877,-22.5510,39.4387,10.2826,-3.8892,-8.2769,-12.4779,-0.9788,-1.1041,0.214957,2.333567,-0.444586,0.8756,0.1834,0.0360,180.0000,0.0000,-0.0000
311,3.1100,1.2661,-11.9246,2.1295,12.1792,0.0000,0.0000,0.0000,20.0000,243.9926,229.3167,557.5350,342.6501,530.3360,0.000679,15.4649,-12.2388,-26.0870,38.3258,15.4649,-3.9910,-8.7206,-12.4650,-0.2528,-1.5192,0.221630,2.388917,-0.444062,0.8798,0.1778,0.0448,180.0000,0.0000,0.0000
312,3.1200,1.1526,-11.9245,2.0792,12.1591,0.0000,0.0000,0.0000,20.0000,246.3372,230.1885,277.5621,346.7701,539.1002,0.000764,15.4649,-12.2388,-26.0870,38.3258,15.4649,-3.9910,-8.7206,-12.4650,-0.2528,-1.5192,0.213516,2.414725,-0.437855,0.8853,0.1725,0.0537,180.0000,0.0000,0.0000
313,3.1300,1.0461,-11.9338,2.0116,12.1473,0.0000,0.0000,0.0000,20.0000,247.0305,231.0958,217.2599,341.3045,547.9952,0.000783,15.4649,-12.2388,-26.0870,38.3258,15.4649,-3.9910,-8.7206,-12.4650,-0.2528,-1.5192,0.197958,2.425092,-0.426787,0.8922,0.1705,0.0627,180.0000,0.0000,0.0000
314,3.1400,0.9747,-11.9359,1.9315,12.1304,0.0000,0.0000,0.0000,20.0000,246.7592,231.9649,220.4737,334.5695,556.9903,0.000733,15.4649,-12.2388,-26.0870,38.3258,15.4649,-3.9910,-8.7206,-12.4650,-0.2528,-1.5192,0.181822,2.426184,-0.411803,0.8975,0.1741,0.0713,180.0000,0.0000,0.0000
315,3.1500,0.9503,-11.9265,1.8327,12.1039,0.0000,0.0000,0.0000,20.0000,245.8553,232.7539,229.1217,328.5311,566.0778,0.000675,15.4649,-12.2388,-26.0870,38.3258,15.4649,-3.9910,-8.7206,-12.4650,-0.2528,-1.5192,0.170101,2.421001,-0.392810,0.9011,0.1796,0.0779,180.0000,0.0000,0.0000
316,3.1600,0.9599,-11.9118,1.7200,12.0736,0.0000,0.0000,0.0000,20.0000,244.5598,233.4389,250.4635,323.6498,575.2607,0.000696,15.4649,-12.2388,-26.0870,38.3258,15.4649,-3.9910,-8.7206,-12.4650,-0.2528,-1.5192,0.164237,2.411822,-0.370257,0.9038,0.1835,0.0825,180.0000,0.0000,0.0000
317,3.1700,0.9751,-11.8872,1.6129,12.0357,0.0000,0.0000,0.0000,20.0000,242.9752,234.0071,269.9717,320.1605,584.5365,0.000737,15.4649,-12.2388,-26.0870,38.3258,15.4649,-3.9910,-8.7206,-12.4650,-0.2528,-1.5192,0.162192,2.399466,-0.346340,0.9030,0.1813,0.0907,180.0000,0.0000,0.0000
318,3.1800,0.9441,-11.8473,1.5151,11.9811,0.0000,0.0000,0.0000,20.0000,241.0739,234.4481,287.4332,317.8800,593.8832,0.000707,15.4649,-12.2388,-26.0870,38.3258,15.4649,-3.9910,-8.7206,-12.4650,-0.2528,-1.5192,0.157634,2.383844,-0.322647,0.8994,0.1709,0.0984,180.0000,0.0000,0.0000
319,3.1900,0.8098,-11.7927,1.4150,11.9049,0.0000,0.0000,0.0000,20.0000,238.7980,234.7500,344.1597,317.7654,603.2539,0.000739,15.4649,-12.2388,-26.0870,38.3258,15.4649,-3.9910,-8.7206,-12.4650,-0.2528,-1.5192,0.141372,2.364979,-0.298896,0.8910,0.1512,0.1073,180.0000,0.0000,0.0000
320,3.2000,0.5573,-11.7215,1.3124,11.8079,0.0000,0.0000,0.0000,20.0000,236.1199,234.8990,475.7416,322.8363,612.5828,0.000707,15.4649,-12.2388,-26.0870,38.3258,15.4649,-3.9910,-8.7206,-12.4650,-0.2528,-1.5192,0.106847,2.342705,-0.274912,0.8766,0.1299,0.1191,180.0000,0.0000,0.0000
321,3.2100,0.2174,-11.6384,1.2041,11.7025,0.0000,0.0000,0.0000,20.0000,233.1482,234.8844,639.3911,335.7483,621.8042,0.000697,15.4649,-12.2388,-26.0870,38.3258,15.4649,-3.9910,-8.7206,-12.4650,-0.2528,-1.5192,0.053554,2.317392,-0.250269,0.8606,0.1131,0.1313,180.0000,0.0000,0.0000
322,3.2200,-0.1555,-11.5524,1.0863,11.6044,0.0000,0.0000,0.0000,20.0000,230.1173,234.7055,766.8569,355.9570,630.8713,0.000779,15.4649,-12.2388,-26.0870,38.3258,15.4649,-3.9910,-8.7206,-12.4650,-0.2528,-1.5192,-0.013297,2.290170,-0.224372,0.8479,0.1027,0.1417,180.0000,0.0000,0.0000
323,3.2300,-0.4957,-11.4718,0.9706,11.5234,0.0000,0.0000,0.0000,20.0000,227.2686,234.3748,805.8616,379.6325,639.7674,0.000763,15.4649,-12.2388,-26.0870,38.3258,15.4649,-3.9910,-8.7206,-12.4650,-0.2528,-1.5192,-0.084241,2.262474,-0.198030,0.8400,0.1019,0.1482,180.0000,0.0000,0.0000
324,3.2400,-0.7577,-11.4035,0.8710,11.4618,0.0000,0.0000,0.0000,20.0000,224.7483,233.9146,747.5810,401.4756,648.5070,0.000714,15.4649,-12.2388,-26.0870,38.3258,15.4649,-3.9910,-8.7206,-12.4650,-0.2528,-1.5192,-0.149491,2.235813,-0.173122,0.8344,0.1064,0.1535,180.0000,0.0000,0.0000
325,3.2500,-0.9352,-11.3516,0.7854,11.4171,0.0000,0.0000,0.0000,20.0000,222.5807,233.3507,630.4381,417.2923,657.1253,0.000770,15.4649,-12.2388,-26.0870,38.3258,15.4649,-3.9910,-8.7206,-12.4650,-0.2528,-1.5192,-0.203016,2.211418,-0.150439,0.8346,0.1101,0.1576,180.0000,0.0000,0.0000
326,3.2600,-1.0445,-11.3063,0.7112,11.3767,0.0000,0.0000,0.0000,20.0000,220.6278,232.7046,502.2596,425.4916,665.6612,0.000835,15.4649,-12.2388,-26.0870,38.3258,15.4649,-3.9910,-8.7206,-12.4650,-0.2528,-1.5192,-0.243123,2.188974,-0.130183,0.8353,0.1108,0.1612,180.0000,0.0000,0.0000
327,3.2700,-1.1295,-11.2728,0.6442,11.3475,0.0000,0.0000,0.0000,20.0000,218.8858,231.9924,405.7782,427.0608,674.1463,0.000704,15.4649,-12.2388,-26.0870,38.3258,15.4649,-3.9910,-8.7206,-12.4650,-0.2528,-1.5192,-0.273309,2.168837,-0.112021,0.8346,0.1119,0.1638,180.0000,0.0000,0.0000
328,3.2800,-1.2374,-11.2596,0.5787,11.3421,0.0000,0.0000,0.0000,20.0000,217.4976,231.2332,359.0930,424.6061,682.6002,0.000779,15.4649,-12.2388,-26.0870,38.3258,15.4649,-3.9910,-8.7206,-12.4650,-0.2528,-1.5192,-0.300238,2.152048,-0.095214,0.8351,0.1067,0.1697,180.0000,0.0000,0.0000
329,3.2900,-1.3975,-11.2753,0.5219,11.3735,0.0000,0.0000,0.0000,20.0000,216.6887,230.4554,359.4746,421.0128,691.0316,0.001017,15.4649,-12.2388,-26.0870,38.3258,15.4649,-3.9910,-8.7206,-12.4650,-0.2528,-1.5192,-0.330533,2.140033,-0.080045,0.8398,0.0983,0.1787,180.0000,0.0000,0.0000
330,3.3000,-1.6389,-11.3350,0.4814,11.4630,0.0000,0.0000,0.0000,20.0000,216.8092,229.7014,424.4621,419.4151,699.4419,0.000814,15.4649,-12.2388,-26.0870,38.3258,15.4649,-3.9910,-8.7206,-12.4650,-0.2528,-1.5192,-0.370766,2.135089,-0.067455,0.8451,0.0874,0.1893,180.0000,0.0000,0.0000
331,3.3100,-1.9739,-11.4375,0.4590,11.6157,0.0000,0.0000,0.0000,20.0000,225.2161,229.2235,880.9779,432.2488,708.1874,0.000825,20.9152,-7.6956,-29.4750,37.1706,20.9152,-4.7826,-9.4372,-14.0754,-0.5508,-1.4700,-0.411560,2.213144,-0.069588,0.8523,0.0735,0.2010,180.0000,0.0000,-0.0000
332,3.3200,-2.3737,-11.5552,0.4489,11.8050,0.0000,0.0000,0.0000,20.0000,231.3622,229.1721,797.2549,454.6297,717.1016,0.000768,20.9152,-7.6956,-29.4750,37.1706,20.9152,-4.7826,-9.4372,-14.0754,-0.5508,-1.4700,-0.473263,2.263630,-0.069619,0.8608,0.0576,0.2133,180.0000,0.0000,-0.0000
333,3.3300,-2.7996,-11.6716,0.4384,12.0107,0.0000,0.0000,0.0000,20.0000,236.4297,229.4319,834.6300,474.5048,726.0867,0.000699,20.9152,-7.6956,-29.4750,37.1706,20.9152,-4.7826,-9.4372,-14.0754,-0.5508,-1.4700,-0.549014,2.298652,-0.068450,0.8645,0.0464,0.2233,180.0000,0.0000,-0.0000
334,3.3400,-3.2089,-11.7688,0.4145,12.2055,0.0000,0.0000,0.0000,20.0000,240.8117,229.9374,853.5676,494.8355,735.0877,0.000757,20.9152,-7.6956,-29.4750,37.1706,20.9152,-4.7826,-9.4372,-14.0754,-0.5508,-1.4700,-0.630722,2.323135,-0.065275,0.8651,0.0413,0.2294,180.0000,0.0000,-0.0000
335,3.3500,-3.5564,-11.8351,0.3723,12.3635,0.0000,0.0000,0.0000,20.0000,244.4585,230.6359,804.0096,513.2056,744.0800,0.000749,20.9152,-7.6956,-29.4750,37.1706,20.9152,-4.7826,-9.4372,-14.0754,-0.5508,-1.4700,-0.709375,2.338650,-0.059170,0.8627,0.0410,0.2323,180.0000,0.0000,-0.0000
336,3.3600,-3.8216,-11.8815,0.3128,12.4849,0.0000,0.0000,0.0000,20.0000,247.3259,231.4751,697.5783,526.2748,753.0658,0.000719,20.9152,-7.6956,-29.4750,37.1706,20.9152,-4.7826,-9.4372,-14.0754,-0.5508,-1.4700,-0.777961,2.347193,-0.049724,0.8554,0.0475,0.2299,180.0000,0.0000,-0.0000
337,3.3700,-4.0054,-11.9186,0.2381,12.5759,0.0000,0.0000,0.0000,20.0000,249.4318,232.4049,563.2951,532.0046,762.0652,0.000797,20.9152,-7.6956,-29.4750,37.1706,20.9152,-4.7826,-9.4372,-14.0754,-0.5508,-1.4700,-0.832692,2.350932,-0.036937,0.8433,0.0577,0.2203,180.0000,0.0000,-0.0000
338,3.3800,-4.1068,-11.9457,0.1394,12.6327,0.0000,0.0000,0.0000,20.0000,250.7390,233.3775,423.0322,529.8680,771.1091,0.000837,20.9152,-7.6956,-29.4750,37.1706,20.9152,-4.7826,-9.4372,-14.0754,-0.5508,-1.4700,-0.871422,2.351006,-0.019922,0.8186,0.0704,0.2001,180.0000,0.0000,-0.0000
339,3.3900,-4.1500,-11.9526,0.0193,12.6526,0.0000,0.0000,0.0000,20.0000,251.2041,234.3453,324.2797,521.2751,780.2215,0.000658,20.9152,-7.6956,-29.4750,37.1706,20.9152,-4.7826,-9.4372,-14.0754,-0.5508,-1.4700,-0.895417,2.347036,0.001528,0.7988,0.0758,0.1823,180.0000,0.0000,-0.0000
340,3.4000,-4.1811,-11.9283,-0.1101,12.6404,0.0000,0.0000,0.0000,20.0000,250.8728,235.2636,302.4165,509.8374,789.4041,0.000682,20.9152,-7.6956,-29.4750,37.1706,20.9152,-4.7826,-9.4372,-14.0754,-0.5508,-1.4700,-0.909997,2.337719,0.026330,0.7793,0.0771,0.1632,180.0000,0.0000,-0.0000
341,3.4100,-4.2303,-11.8709,-0.2476,12.6045,0.0000,0.0000,0.0000,20.0000,249.8754,236.0948,334.3493,499.3059,798.6365,0.000715,20.9152,-7.6956,-29.4750,37.1706,20.9152,-4.7826,-9.4372,-14.0754,-0.5508,-1.4700,-0.921154,2.322146,0.053733,0.7600,0.0724,0.1438,180.0000,0.0000,-0.0000
342,3.4200,-4.3133,-11.7978,-0.3779,12.5673,0.0000,0.0000,0.0000,20.0000,248.5147,236.8154,370.1718,491.2172,807.8894,0.000650,20.9152,-7.6956,-29.4750,37.1706,20.9152,-4.7826,-9.4372,-14.0754,-0.5508,-1.4700,-0.933781,2.301589,0.081808,0.7420,0.0633,0.1225,180.0000,0.0000,-0.0000
343,3.4300,-4.4150,-11.7096,-0.4872,12.5237,0.0000,0.0000,0.0000,20.0000,246.9049,237.4147,392.3051,485.1675,817.1310,0.000715,20.9152,-7.6956,-29.4750,37.1706,20.9152,-4.7826,-9.4372,-14.0754,-0.5508,-1.4700,-0.949060,2.276797,0.108094,0.7273,0.0539,0.0971,180.0000,0.0000,-0.0000
344,3.4400,-4.5140,-11.6031,-0.5750,12.4635,0.0000,0.0000,0.0000,20.0000,244.9987,237.8843,404.8832,480.4053,826.3317,0.001278,20.9152,-7.6956,-29.4750,37.1706,20.9152,-4.7826,-9.4372,-14.0754,-0.5508,-1.4700,-0.965512,2.247891,0.131182,0.7132,0.0442,0.0704,180.0000,0.0000,-0.0000
345,3.4500,-4.5920,-11.4954,-0.6474,12.3955,0.0000,0.0000,0.0000,20.0000,242.8501,238.2165,398.7421,476.0821,835.4767,0.000730,20.9152,-7.6956,-29.4750,37.1706,20.9152,-4.7826,-9.4372,-14.0754,-0.5508,-1.4700,-0.980475,2.216644,0.150922,0.7022,0.0378,0.0432,180.0000,0.0000,-0.0000
346,3.4600,-4.6299,-11.4034,-0.7159,12.3282,0.0000,0.0000,0.0000,20.0000,240.5624,238.4085,369.0986,471.0124,844.5738,0.000730,20.9152,-7.6956,-29.4750,37.1706,20.9152,-4.7826,-9.4372,-14.0754,-0.5508,-1.4700,-0.990573,2.185735,0.168387,0.6951,0.0345,0.0166,180.0000,0.0000,-0.0000
347,3.4700,-4.6233,-11.3315,-0.7821,12.2633,0.0000,0.0000,0.0000,20.0000,238.2035,238.4621,329.0915,464.3060,853.6470,0.000773,20.9152,-7.6956,-29.4750,37.1706,20.9152,-4.7826,-9.4372,-14.0754,-0.5508,-1.4700,-0.993511,2.157093,0.184325,0.6920,0.0311,-0.0067,180.0000,0.0000,-0.0000
348,3.4800,-4.5870,-11.2827,-0.8379,12.2083,0.0000,0.0000,0.0000,20.0000,235.8860,238.3841,289.5657,455.7810,862.7261,0.000683,20.9152,-7.6956,-29.4750,37.1706,20.9152,-4.7826,-9.4372,-14.0754,-0.5508,-1.4700,-0.989525,2.132070,0.198340,0.6894,0.0304,-0.0265,180.0000,0.0000,-0.0000
349,3.4900,-4.5372,-11.2570,-0.8721,12.1683,0.0000,0.0000,0.0000,20.0000,233.7270,238.1873,250.5122,445.5637,871.8397,0.000719,20.9152,-7.6956,-29.4750,37.1706,20.9152,-4.7826,-9.4372,-14.0754,-0.5508,-1.4700,-0.980359,2.111397,0.209119,0.6859,0.0293,-0.0457,180.0000,0.0000,-0.0000
350,3.5000,-4.4764,-11.2327,-0.8746,12.1234,0.0000,0.0000,0.0000,20.0000,231.5971,237.8834,230.6933,434.2892,881.0021,0.000850,20.9152,-7.6956,-29.4750,37.1706,20.9152,-4.7826,-9.4372,-14.0754,-0.5508,-1.4700,-0.967251,2.093315,0.214900,0.6783,0.0260,-0.0636,180.0000,0.0000,-0.0000
351,3.5100,-4.4157,-11.1833,-0.8434,12.0531,0.0000,0.0000,0.0000,20.0000,237.4696,237.6991,724.3336,436.6669,890.6736,0.000741,27.4160,-3.9237,-32.7447,36.6684,27.4160,-4.3631,-11.7686,-12.5771,-0.4734,-1.5027,-0.955221,2.164263,0.206641,0.6676,0.0174,-0.0771,-180.0000,0.0000,-0.0000
352,3.5200,-4.3789,-11.1093,-0.7909,11.9673,0.0000,0.0000,0.0000,20.0000,239.4063,237.7398,317.7811,441.3090,900.6242,0.000739,27.4160,-3.9237,-32.7447,36.6684,27.4160,-4.3631,-11.7686,-12.5771,-0.4734,-1.5027,-0.942976,2.191747,0.196417,0.6573,0.0102,-0.0901,-180.0000,0.0000,-0.0000
353,3.5300,-4.3731,-11.0171,-0.7334,11.8759,0.0000,0.0000,0.0000,20.0000,239.0956,237.8229,150.6545,429.9174,910.7059,0.000812,27.4160,-3.9237,-32.7447,36.6684,27.4160,-4.3631,-11.7686,-12.5771,-0.4734,-1.5027,-0.933742,2.193334,0.184619,0.6450,0.0002,-0.1026,-180.0000,0.0000,-0.0000
354,3.5400,-4.3776,-10.8996,-0.6888,11.7660,0.0000,0.0000,0.0000,20.0000,237.3561,237.8451,201.0203,415.9409,920.8197,0.000744,27.4160,-3.9237,-32.7447,36.6684,27.4160,-4.3631,-11.7686,-12.5771,-0.4734,-1.5027,-0.927222,2.178080,0.173266,0.6308,-0.0082,-0.1119,-180.0000,0.0000,-0.0000
355,3.5500,-4.3811,-10.7569,-0.6699,11.6342,0.0000,0.0000,0.0000,20.0000,234.6129,237.7427,288.2414,406.5175,930.8970,0.000744,27.4160,-3.9237,-32.7447,36.6684,27.4160,-4.3631,-11.7686,-12.5771,-0.4734,-1.5027,-0.922115,2.151019,0.164754,0.6186,-0.0132,-0.1229,-180.0000,0.0000,-0.0000
356,3.5600,-4.3691,-10.6021,-0.6815,11.4873,0.0000,0.0000,0.0000,20.0000,231.1717,237.4759,354.4268,401.8317,940.8978,0.003812,27.4160,-3.9237,-32.7447,36.6684,27.4160,-4.3631,-11.7686,-12.5771,-0.4734,-1.5027,-0.916249,2.116280,0.160885,0.6030,-0.0130,-0.1351,-180.0000,0.0000,-0.0000
357,3.5700,-4.3209,-10.4491,-0.7303,11.3308,0.0000,0.0000,0.0000,20.0000,227.2512,237.0213,400.5796,400.4935,950.8105,0.000746,27.4160,-3.9237,-32.7447,36.6684,27.4160,-4.3631,-11.7686,-12.5771,-0.4734,-1.5027,-0.906352,2.077539,0.163301,0.5865,-0.0102,-0.1475,-180.0000,0.0000,-0.0000
358,3.5800,-4.2411,-10.2999,-0.8153,11.1687,0.0000,0.0000,0.0000,20.0000,223.0135,236.3673,442.9720,401.6642,960.6392,0.000736,27.4160,-3.9237,-32.7447,36.6684,27.4160,-4.3631,-11.7686,-12.5771,-0.4734,-1.5027,-0.891091,2.037055,0.172810,0.5715,-0.0047,-0.1583,-180.0000,0.0000,-0.0000
