GerardoEmirSanchez/Integraci-n-de-xArm5-5-DOF-en-NVIDIA-Isaac-Sim-con-ROS-2-Humble-para-pHRI/mediciones/2026.04.28_VIC_pHRI_tanh_2026-04-28_13-53-38.csv
Index,Time_s,Fx,Fy,Fz,F_Amp,Psi_Imp,Psi_Int,Beta,K_Stiffness,Vel_Raw,Vel_Filt,Acc_Raw,Acc_Filt,Lyapunov_V_Nmm,Loop_Duration_s,q1,q2,q3,q4,q5,tau1,tau2,tau3,tau4,tau5,deltaXcmd,deltaYcmd,deltaZcmd,Tx_EE,Ty_EE,Tz_EE,Roll,Pitch,Yaw
0,0.0000,-0.0250,0.0102,-0.0963,0.1000,0.0000,0.0000,0.0000,20.0000,1.7662,0.2158,39.5878,8.3177,0.0000,0.000677,41.7489,-29.1971,-41.7376,70.9346,41.7489,-0.0000,-6.3332,-11.3336,-1.0003,0.0000,-0.003602,-0.003131,0.017005,-0.0007,0.0025,0.0022,180.0000,0.0000,0.0000
1,0.0100,-0.0269,0.0022,-0.1031,0.1066,0.0000,0.0000,0.0000,20.0000,2.0259,0.3082,30.7335,9.7943,0.0000,0.000679,41.7489,-29.1971,-41.7376,70.9346,41.7489,-0.0000,-6.3332,-11.3336,-1.0003,0.0000,-0.004669,-0.001918,0.019620,-0.0009,0.0013,0.0025,180.0000,0.0000,0.0000
2,0.0200,-0.0261,-0.0085,-0.1009,0.1045,0.0000,0.0000,0.0000,20.0000,2.1432,0.4060,21.6218,10.6955,0.0001,0.000702,41.7489,-29.1971,-41.7376,70.9346,41.7489,-0.0000,-6.3332,-11.3336,-1.0003,0.0000,-0.005162,-0.000175,0.020801,-0.0013,0.0008,0.0018,180.0000,0.0000,0.0000
3,0.0300,-0.0311,-0.0219,-0.0992,0.1063,0.0000,0.0000,0.0000,20.0000,2.2158,0.5035,24.6860,11.3808,0.0001,0.000646,41.7489,-29.1971,-41.7376,70.9346,41.7489,-0.0000,-6.3332,-11.3336,-1.0003,0.0000,-0.005931,0.002129,0.021243,-0.0004,0.0003,-0.0002,180.0000,0.0000,0.0000
4,0.0400,-0.0405,-0.0285,-0.0994,0.1110,0.0000,0.0000,0.0000,20.0000,2.3025,0.6001,23.6585,12.0844,0.0002,0.000700,41.7489,-29.1971,-41.7376,70.9346,41.7489,-0.0000,-6.3332,-11.3336,-1.0003,0.0000,-0.007283,0.004058,0.021463,-0.0003,0.0010,-0.0016,180.0000,0.0000,0.0000
5,0.0500,-0.0552,-0.0303,-0.0958,0.1146,0.0000,0.0000,0.0000,20.0000,2.3805,0.6959,25.4292,12.7698,0.0002,0.000822,41.7489,-29.1971,-41.7376,70.9346,41.7489,-0.0000,-6.3332,-11.3336,-1.0003,0.0000,-0.009488,0.005292,0.021181,0.0001,0.0008,-0.0026,180.0000,0.0000,0.0000
6,0.0600,-0.0729,-0.0310,-0.0903,0.1201,0.0000,0.0000,0.0000,20.0000,2.4680,0.7910,31.5370,13.6342,0.0003,0.000756,41.7489,-29.1971,-41.7376,70.9346,41.7489,-0.0000,-6.3332,-11.3336,-1.0003,0.0000,-0.012459,0.006041,0.020431,-0.0001,0.0007,-0.0025,180.0000,0.0000,0.0000
7,0.0700,-0.0832,-0.0245,-0.0867,0.1226,0.0000,0.0000,0.0000,20.0000,2.5427,0.8853,27.8153,14.5166,0.0004,0.000598,41.7489,-29.1971,-41.7376,70.9346,41.7489,-0.0000,-6.3332,-11.3336,-1.0003,0.0000,-0.015107,0.005791,0.019616,0.0005,0.0002,-0.0029,180.0000,0.0000,0.0000
8,0.0800,-0.0833,-0.0069,-0.0882,0.1215,0.0000,0.0000,0.0000,20.0000,2.5699,0.9772,24.1385,15.1470,0.0005,0.000608,41.7489,-29.1971,-41.7376,70.9346,41.7489,-0.0000,-6.3332,-11.3336,-1.0003,0.0000,-0.016546,0.003883,0.019277,0.0013,-0.0004,-0.0019,180.0000,0.0000,0.0000
9,0.0900,-0.0808,0.0088,-0.0945,0.1247,0.0000,0.0000,0.0000,20.0000,2.6078,1.0658,27.2065,15.7260,0.0006,0.000587,41.7489,-29.1971,-41.7376,70.9346,41.7489,-0.0000,-6.3332,-11.3336,-1.0003,0.0000,-0.017059,0.001242,0.019685,0.0010,-0.0024,-0.0014,180.0000,0.0000,0.0000
10,0.1000,-0.0738,0.0146,-0.1001,0.1252,0.0000,0.0000,0.0000,20.0000,2.6341,1.1514,22.1649,16.2189,0.0008,0.000603,41.7489,-29.1971,-41.7376,70.9346,41.7489,-0.0000,-6.3332,-11.3336,-1.0003,0.0000,-0.016605,-0.000794,0.020433,0.0002,-0.0031,-0.0003,180.0000,0.0000,0.0000
11,0.1100,-0.0555,0.0201,-0.0998,0.1159,0.0000,0.0000,0.0000,20.0000,2.5449,1.2305,27.1806,16.6839,0.0009,0.000552,41.7489,-29.1971,-41.7376,70.9346,41.7489,-0.0000,-6.3332,-11.3336,-1.0003,0.0000,-0.014495,-0.002474,0.020770,-0.0001,-0.0024,-0.0007,180.0000,0.0000,0.0000
12,0.1200,-0.0321,0.0271,-0.0928,0.1019,0.0000,0.0000,0.0000,20.0000,2.3360,1.2970,39.3036,17.5947,0.0011,0.000623,41.7489,-29.1971,-41.7376,70.9346,41.7489,-0.0000,-6.3332,-11.3336,-1.0003,0.0000,-0.010956,-0.004092,0.020221,0.0004,-0.0019,-0.0003,180.0000,0.0000,0.0000
13,0.1300,-0.0082,0.0301,-0.0795,0.0854,0.0000,0.0000,0.0000,20.0000,2.0374,1.3460,48.2284,19.0343,0.0012,0.000612,41.7489,-29.1971,-41.7376,70.9346,41.7489,-0.0000,-6.3332,-11.3336,-1.0003,0.0000,-0.006593,-0.005278,0.018542,0.0005,-0.0016,0.0005,180.0000,0.0000,0.0000
14,0.1400,0.0140,0.0276,-0.0628,0.0700,0.0000,0.0000,0.0000,20.0000,1.7191,1.3753,51.9929,20.7438,0.0013,0.000555,41.7533,-29.2056,-41.7471,70.9527,41.7533,-0.0000,-6.3332,-11.3336,-1.0003,0.0000,-0.002019,-0.005675,0.016102,0.0013,-0.0007,0.0003,-180.0000,0.0000,0.0000
15,0.1500,0.0206,0.0199,-0.0536,0.0608,0.0000,0.0000,0.0000,20.0000,1.4766,1.3875,39.7408,22.1258,0.0014,0.000740,41.7533,-29.2056,-41.7471,70.9527,41.7533,-0.0000,-6.3332,-11.3336,-1.0003,0.0000,0.001174,-0.005113,0.013803,0.0008,-0.0001,-0.0018,-180.0000,0.0000,0.0000
16,0.1600,0.0036,0.0048,-0.0514,0.0518,0.0000,0.0000,0.0000,20.0000,1.2777,1.3869,23.7419,22.6547,0.0015,0.000562,41.7533,-29.2056,-41.7471,70.9527,41.7533,-0.0000,-6.3332,-11.3336,-1.0003,0.0000,0.001235,-0.003289,0.012285,0.0015,0.0001,-0.0021,-180.0000,0.0000,0.0000
17,0.1700,-0.0280,-0.0205,-0.0511,0.0618,0.0000,0.0000,0.0000,20.0000,1.1550,1.3776,48.1614,23.3861,0.0016,0.000607,41.7533,-29.2056,-41.7471,70.9527,41.7533,-0.0000,-6.3332,-11.3336,-1.0003,0.0000,-0.001892,0.000263,0.011391,0.0012,0.0012,-0.0021,-180.0000,0.0000,0.0000
18,0.1800,-0.0634,-0.0515,-0.0553,0.0987,0.0000,0.0000,0.0000,20.0000,1.4391,1.3731,73.0910,25.4346,0.0017,0.000606,41.7533,-29.2056,-41.7471,70.9527,41.7533,-0.0000,-6.3332,-11.3336,-1.0003,0.0000,-0.007161,0.005328,0.011289,0.0008,0.0004,-0.0035,-180.0000,0.0000,0.0000
19,0.1900,-0.0911,-0.0679,-0.0614,0.1291,0.0000,0.0000,0.0000,20.0000,1.9985,1.3921,72.0605,28.0278,0.0018,0.000568,41.7533,-29.2056,-41.7471,70.9527,41.7533,-0.0000,-6.3332,-11.3336,-1.0003,0.0000,-0.012824,0.009751,0.011826,0.0024,0.0008,-0.0029,-180.0000,0.0000,0.0000
20,0.2000,-0.1000,-0.0674,-0.0673,0.1381,0.0000,0.0000,0.0000,20.0000,2.4312,1.4374,47.2977,29.7689,0.0020,0.000615,41.7533,-29.2056,-41.7471,70.9527,41.7533,-0.0000,-6.3332,-11.3336,-1.0003,0.0000,-0.016820,0.012130,0.012690,0.0030,0.0006,-0.0012,-180.0000,0.0000,0.0000
21,0.2100,-0.0942,-0.0639,-0.0759,0.1368,0.0000,0.0000,0.0000,20.0000,2.6565,1.4983,22.6326,30.0547,0.0021,0.000528,41.7533,-29.2056,-41.7471,70.9527,41.7533,-0.0000,-6.3332,-11.3336,-1.0003,0.0000,-0.018413,0.013068,0.013996,0.0023,0.0001,-0.0014,-180.0000,0.0000,0.0000
22,0.2200,-0.0869,-0.0590,-0.0886,0.1374,0.0000,0.0000,0.0000,20.0000,2.7730,1.5652,19.7473,29.5671,0.0024,0.000536,41.7533,-29.2056,-41.7471,70.9527,41.7533,-0.0000,-6.3332,-11.3336,-1.0003,0.0000,-0.018526,0.013068,0.015967,0.0019,0.0002,-0.0021,-180.0000,0.0000,0.0000
23,0.2300,-0.0751,-0.0450,-0.0999,0.1329,0.0000,0.0000,0.0000,20.0000,2.7701,1.6315,28.4946,29.2675,0.0026,0.000619,41.7533,-29.2056,-41.7471,70.9527,41.7533,-0.0000,-6.3332,-11.3336,-1.0003,0.0000,-0.017381,0.011647,0.018155,0.0022,0.0012,-0.0013,-180.0000,0.0000,0.0000
24,0.2400,-0.0588,-0.0377,-0.1066,0.1274,0.0000,0.0000,0.0000,20.0000,2.7000,1.6922,33.2556,29.3559,0.0029,0.000568,41.7533,-29.2056,-41.7471,70.9527,41.7533,-0.0000,-6.3332,-11.3336,-1.0003,0.0000,-0.015074,0.010108,0.019990,0.0006,0.0006,-0.0007,-180.0000,0.0000,0.0000
25,0.2500,-0.0457,-0.0444,-0.1115,0.1285,0.0000,0.0000,0.0000,20.0000,2.6724,1.7469,30.0278,29.4816,0.0032,0.000679,41.7533,-29.2056,-41.7471,70.9527,41.7533,-0.0000,-6.3332,-11.3336,-1.0003,0.0000,-0.012465,0.009907,0.021463,0.0004,0.0011,-0.0016,-180.0000,0.0000,0.0000
26,0.2600,-0.0301,-0.0418,-0.1063,0.1181,0.0000,0.0000,0.0000,20.0000,2.5504,1.7945,30.6864,29.5298,0.0035,0.000654,41.7533,-29.2056,-41.7471,70.9527,41.7533,-0.0000,-6.3332,-11.3336,-1.0003,0.0000,-0.009431,0.009509,0.021705,0.0012,0.0013,-0.0012,-180.0000,0.0000,0.0000
27,0.2700,-0.0087,-0.0234,-0.0874,0.0909,0.0000,0.0000,0.0000,20.0000,2.1980,1.8264,47.0944,30.0447,0.0037,0.000584,41.7533,-29.2056,-41.7471,70.9527,41.7533,-0.0000,-6.3332,-11.3336,-1.0003,0.0000,-0.005603,0.007434,0.019911,0.0005,0.0002,-0.0012,-180.0000,0.0000,0.0000
28,0.2800,0.0020,-0.0086,-0.0631,0.0637,0.0000,0.0000,0.0000,20.0000,1.7303,1.8339,54.0292,31.1733,0.0039,0.000605,41.7533,-29.2056,-41.7471,70.9527,41.7533,-0.0000,-6.3332,-11.3336,-1.0003,0.0000,-0.002404,0.004789,0.016452,0.0000,-0.0005,-0.0019,-180.0000,0.0000,0.0000
29,0.2900,-0.0018,-0.0039,-0.0382,0.0384,0.0000,0.0000,0.0000,20.0000,1.2385,1.8147,50.4384,32.3318,0.0041,0.000515,41.7533,-29.2056,-41.7471,70.9527,41.7533,-0.0000,-6.3332,-11.3336,-1.0003,0.0000,-0.001011,0.002847,0.012010,0.0004,0.0005,-0.0035,-180.0000,0.0000,0.0000
30,0.3000,-0.0103,-0.0038,-0.0163,0.0197,0.0000,0.0000,0.0000,20.0000,0.7632,1.7699,47.9106,33.2583,0.0041,0.000508,41.7533,-29.2056,-41.7471,70.9527,41.7533,-0.0000,-6.3332,-11.3336,-1.0003,0.0000,-0.001092,0.001766,0.007344,-0.0002,0.0001,-0.0031,-180.0000,0.0000,0.0000
31,0.3100,-0.0234,-0.0094,-0.0097,0.0270,0.0000,0.0000,0.0000,20.0000,0.5065,1.7075,35.2108,33.7150,0.0042,0.000624,41.7533,-29.2056,-41.7471,70.9527,41.7533,-0.0000,-6.3332,-11.3336,-1.0003,0.0000,-0.002440,0.001723,0.004091,-0.0010,0.0005,-0.0033,-180.0000,0.0000,0.0000
32,0.3200,-0.0401,-0.0217,-0.0177,0.0489,0.0000,0.0000,0.0000,20.0000,0.6448,1.6452,28.7722,33.6202,0.0043,0.000550,41.7533,-29.2056,-41.7471,70.9527,41.7533,-0.0000,-6.3332,-11.3336,-1.0003,0.0000,-0.004848,0.002929,0.003080,-0.0002,0.0015,-0.0030,-180.0000,0.0000,0.0000
33,0.3300,-0.0526,-0.0304,-0.0328,0.0691,0.0000,0.0000,0.0000,20.0000,0.9549,1.5987,31.4025,33.4259,0.0044,0.000535,41.7533,-29.2056,-41.7471,70.9527,41.7533,-0.0000,-6.3332,-11.3336,-1.0003,0.0000,-0.007422,0.004458,0.004029,-0.0000,0.0014,-0.0027,-180.0000,0.0000,0.0000
34,0.3400,-0.0577,-0.0239,-0.0544,0.0828,0.0000,0.0000,0.0000,20.0000,1.2949,1.5727,39.1717,33.5282,0.0045,0.000563,41.7754,-29.2300,-41.7740,71.0040,41.7754,0.0021,-13.5711,-16.9677,-1.0013,-0.0000,-0.009633,0.004721,0.007251,0.0011,0.0005,-0.0018,-180.0000,0.0000,0.0000
35,0.3500,-0.0627,-0.0070,-0.0756,0.0985,0.0000,0.0000,0.0000,20.0000,1.6207,1.5664,45.2024,34.0045,0.0047,0.000613,41.7754,-29.2300,-41.7740,71.0040,41.7754,0.0021,-13.5711,-16.9677,-1.0013,-0.0000,-0.011336,0.003169,0.011141,0.0022,0.0001,-0.0021,-180.0000,0.0000,0.0000
36,0.3600,-0.0700,0.0104,-0.0860,0.1114,0.0000,0.0000,0.0000,20.0000,1.9326,1.5779,44.1479,34.5915,0.0050,0.000604,41.7754,-29.2300,-41.7740,71.0040,41.7754,0.0021,-13.5711,-16.9677,-1.0013,-0.0000,-0.012982,0.000567,0.014304,0.0015,-0.0002,-0.0031,-180.0000,0.0000,0.0000
37,0.3700,-0.0725,0.0312,-0.0832,0.1147,0.0000,0.0000,0.0000,20.0000,2.1352,1.6030,39.6561,34.9936,0.0053,0.000536,41.7754,-29.2300,-41.7740,71.0040,41.7754,0.0021,-13.5711,-16.9677,-1.0013,-0.0000,-0.014116,-0.002949,0.015746,0.0013,-0.0005,-0.0040,-180.0000,0.0000,0.0000
38,0.3800,-0.0651,0.0610,-0.0725,0.1150,0.0000,0.0000,0.0000,20.0000,2.2265,1.6348,49.2988,35.5153,0.0056,0.000624,41.7754,-29.2300,-41.7740,71.0040,41.7754,0.0021,-13.5711,-16.9677,-1.0013,-0.0000,-0.013975,-0.007868,0.015444,0.0011,-0.0004,-0.0043,-180.0000,0.0000,0.0000
39,0.3900,-0.0533,0.0880,-0.0577,0.1179,0.0000,0.0000,0.0000,20.0000,2.2947,1.6692,58.0671,36.5147,0.0058,0.000638,41.7754,-29.2300,-41.7740,71.0040,41.7754,0.0021,-13.5711,-16.9677,-1.0013,-0.0000,-0.012688,-0.013274,0.013761,-0.0003,-0.0004,-0.0059,-180.0000,0.0000,0.0000
40,0.4000,-0.0448,0.1091,-0.0462,0.1267,0.0000,0.0000,0.0000,20.0000,2.4410,1.7076,57.1764,37.6758,0.0060,0.000528,41.7754,-29.2300,-41.7740,71.0040,41.7754,0.0021,-13.5711,-16.9677,-1.0013,-0.0000,-0.011107,-0.018348,0.011654,0.0002,0.0005,-0.0068,-180.0000,0.0000,0.0000
41,0.4100,-0.0391,0.1273,-0.0465,0.1411,0.0000,0.0000,0.0000,20.0000,2.7003,1.7551,49.5595,38.5390,0.0062,0.000617,41.7754,-29.2300,-41.7740,71.0040,41.7754,0.0021,-13.5711,-16.9677,-1.0013,-0.0000,-0.009637,-0.022938,0.010496,0.0020,0.0010,-0.0064,-180.0000,0.0000,0.0000
42,0.4200,-0.0366,0.1324,-0.0595,0.1497,0.0000,0.0000,0.0000,20.0000,2.9493,1.8140,32.4933,38.6758,0.0064,0.000556,41.7754,-29.2300,-41.7740,71.0040,41.7754,0.0021,-13.5711,-16.9677,-1.0013,-0.0000,-0.008556,-0.025935,0.011136,0.0024,0.0014,-0.0049,-180.0000,0.0000,0.0000
43,0.4300,-0.0437,0.1170,-0.0800,0.1484,0.0000,0.0000,0.0000,20.0000,3.0560,1.8793,23.8528,38.0980,0.0067,0.000552,41.7754,-29.2300,-41.7740,71.0040,41.7754,0.0021,-13.5711,-16.9677,-1.0013,-0.0000,-0.008657,-0.026004,0.013518,0.0025,0.0017,-0.0040,-180.0000,0.0000,0.0000
44,0.4400,-0.0545,0.0964,-0.1049,0.1526,0.0000,0.0000,0.0000,20.0000,3.1104,1.9456,44.5448,37.8836,0.0070,0.000571,41.7754,-29.2300,-41.7740,71.0040,41.7754,0.0021,-13.5711,-16.9677,-1.0013,-0.0000,-0.009773,-0.023931,0.017300,0.0035,0.0018,-0.0024,-180.0000,0.0000,0.0000
45,0.4500,-0.0560,0.0807,-0.1241,0.1583,0.0000,0.0000,0.0000,20.0000,3.1798,2.0115,48.9700,38.3717,0.0074,0.000655,41.7754,-29.2300,-41.7740,71.0040,41.7754,0.0021,-13.5711,-16.9677,-1.0013,-0.0000,-0.010523,-0.021164,0.021271,0.0025,0.0007,-0.0017,-180.0000,0.0000,0.0000
46,0.4600,-0.0570,0.0629,-0.1269,0.1527,0.0000,0.0000,0.0000,20.0000,3.1627,2.0753,41.7369,38.7557,0.0079,0.000705,41.7754,-29.2300,-41.7740,71.0040,41.7754,0.0021,-13.5711,-16.9677,-1.0013,-0.0000,-0.011012,-0.017809,0.023704,-0.0004,0.0009,-0.0009,-180.0000,0.0000,0.0000
47,0.4700,-0.0619,0.0376,-0.1144,0.1354,0.0000,0.0000,0.0000,20.0000,2.9694,2.1298,44.8079,39.0042,0.0084,0.000632,41.7754,-29.2300,-41.7740,71.0040,41.7754,0.0021,-13.5711,-16.9677,-1.0013,-0.0000,-0.011753,-0.013390,0.023755,-0.0018,-0.0001,-0.0018,-180.0000,0.0000,0.0000
48,0.4800,-0.0631,0.0083,-0.0924,0.1122,0.0000,0.0000,0.0000,20.0000,2.6036,2.1660,58.6188,39.7033,0.0089,0.000551,41.7754,-29.2300,-41.7740,71.0040,41.7754,0.0021,-13.5711,-16.9677,-1.0013,-0.0000,-0.012258,-0.007988,0.021536,-0.0018,-0.0007,-0.0021,-180.0000,0.0000,0.0000
49,0.4900,-0.0657,-0.0234,-0.0667,0.0965,0.0000,0.0000,0.0000,20.0000,2.1897,2.1786,72.8587,41.1355,0.0093,0.000524,41.7754,-29.2300,-41.7740,71.0040,41.7754,0.0021,-13.5711,-16.9677,-1.0013,-0.0000,-0.012773,-0.001820,0.017693,-0.0023,-0.0004,-0.0010,-180.0000,0.0000,0.0000
50,0.5000,-0.0715,-0.0646,-0.0500,0.1086,0.0000,0.0000,0.0000,20.0000,2.0255,2.1747,84.9438,43.2129,0.0096,0.000605,41.7754,-29.2300,-41.7740,71.0040,41.7754,0.0021,-13.5711,-16.9677,-1.0013,-0.0000,-0.013614,0.005717,0.013865,-0.0028,0.0006,-0.0006,-180.0000,0.0000,0.0000
51,0.5100,-0.0763,-0.1085,-0.0495,0.1416,0.0000,0.0000,0.0000,20.0000,2.3461,2.1753,88.6913,45.6115,0.0100,0.000517,41.7754,-29.2300,-41.7740,71.0040,41.7754,0.0021,-13.5711,-16.9677,-1.0013,-0.0000,-0.014523,0.014261,0.011668,-0.0012,-0.0004,-0.0008,-180.0000,0.0000,0.0000
52,0.5200,-0.0823,-0.1360,-0.0604,0.1701,0.0000,0.0000,0.0000,20.0000,2.9111,2.2003,75.2640,47.6119,0.0103,0.000574,41.7754,-29.2300,-41.7740,71.0040,41.7754,0.0021,-13.5711,-16.9677,-1.0013,-0.0000,-0.015601,0.021709,0.011525,-0.0023,0.0003,-0.0001,-180.0000,0.0000,0.0000
53,0.5300,-0.0905,-0.1512,-0.0781,0.1927,0.0000,0.0000,0.0000,20.0000,3.4748,2.2549,59.9133,48.7108,0.0107,0.000533,41.7754,-29.2300,-41.7740,71.0040,41.7754,0.0021,-13.5711,-16.9677,-1.0013,-0.0000,-0.016983,0.027296,0.013189,-0.0040,0.0007,-0.0002,-180.0000,0.0000,0.0000
54,0.5400,-0.0964,-0.1622,-0.0944,0.2110,0.0000,0.0000,0.0000,20.0000,3.9977,2.3364,53.8959,49.1615,0.0112,0.000538,41.7922,-29.2757,-41.7891,71.0648,41.7922,-0.0059,-13.5558,-18.1458,-1.0003,0.0000,-0.018708,0.031342,0.016303,-0.0040,-0.0004,-0.0016,-180.0000,0.0000,0.0000
55,0.5500,-0.0992,-0.1566,-0.0986,0.2100,0.0000,0.0000,0.0000,20.0000,4.2672,2.4352,29.0879,48.7396,0.0118,0.000523,41.7922,-29.2757,-41.7891,71.0648,41.7922,-0.0059,-13.5558,-18.1458,-1.0003,0.0000,-0.019896,0.032954,0.018413,-0.0032,-0.0009,-0.0016,-180.0000,0.0000,0.0000
56,0.5600,-0.0910,-0.1352,-0.0913,0.1868,0.0000,0.0000,0.0000,20.0000,4.1747,2.5334,13.9418,47.2420,0.0124,0.000526,41.7922,-29.2757,-41.7891,71.0648,41.7922,-0.0059,-13.5558,-18.1458,-1.0003,0.0000,-0.019695,0.031635,0.018818,-0.0038,-0.0016,-0.0012,-180.0000,0.0000,0.0000
57,0.5700,-0.0678,-0.1128,-0.0781,0.1530,0.0000,0.0000,0.0000,20.0000,3.7782,2.6128,40.7079,46.1464,0.0130,0.000600,41.7922,-29.2757,-41.7891,71.0648,41.7922,-0.0059,-13.5558,-18.1458,-1.0003,0.0000,-0.017231,0.028601,0.017680,-0.0017,-0.0034,-0.0013,-180.0000,0.0000,0.0000
58,0.5800,-0.0330,-0.0925,-0.0610,0.1156,0.0000,0.0000,0.0000,20.0000,3.1683,2.6601,66.0361,46.5439,0.0135,0.000566,41.7922,-29.2757,-41.7891,71.0648,41.7922,-0.0059,-13.5558,-18.1458,-1.0003,0.0000,-0.012350,0.024836,0.015311,-0.0009,-0.0049,-0.0008,-180.0000,0.0000,0.0000
59,0.5900,0.0044,-0.0739,-0.0420,0.0851,0.0000,0.0000,0.0000,20.0000,2.4801,2.6691,82.5327,48.0698,0.0139,0.000479,41.7922,-29.2757,-41.7891,71.0648,41.7922,-0.0059,-13.5558,-18.1458,-1.0003,0.0000,-0.005892,0.020850,0.012068,-0.0015,-0.0041,-0.0011,-180.0000,0.0000,0.0000
60,0.6000,0.0325,-0.0622,-0.0246,0.0744,0.0000,0.0000,0.0000,20.0000,1.9411,2.6439,80.7811,49.9174,0.0141,0.000503,41.7922,-29.2757,-41.7891,71.0648,41.7922,-0.0059,-13.5558,-18.1458,-1.0003,0.0000,0.000508,0.017437,0.008512,-0.0018,-0.0045,-0.0013,-180.0000,0.0000,0.0000
61,0.6100,0.0449,-0.0617,-0.0133,0.0775,0.0000,0.0000,0.0000,20.0000,1.7210,2.5992,60.3072,51.0520,0.0142,0.000574,41.7922,-29.2757,-41.7891,71.0648,41.7922,-0.0059,-13.5558,-18.1458,-1.0003,0.0000,0.005283,0.015463,0.005401,-0.0021,-0.0033,-0.0013,-180.0000,0.0000,0.0000
62,0.6200,0.0386,-0.0667,-0.0091,0.0776,0.0000,0.0000,0.0000,20.0000,1.6846,2.5499,30.0095,50.7278,0.0142,0.000524,41.7922,-29.2757,-41.7891,71.0648,41.7922,-0.0059,-13.5558,-18.1458,-1.0003,0.0000,0.007279,0.014840,0.003249,-0.0023,-0.0020,-0.0012,-180.0000,0.0000,0.0000
63,0.6300,0.0135,-0.0707,-0.0099,0.0727,0.0000,0.0000,0.0000,20.0000,1.6122,2.5003,18.0611,49.2595,0.0142,0.000514,41.7922,-29.2757,-41.7891,71.0648,41.7922,-0.0059,-13.5558,-18.1458,-1.0003,0.0000,0.005863,0.014866,0.002129,-0.0017,-0.0008,-0.0024,-180.0000,0.0000,0.0000
64,0.6400,-0.0229,-0.0703,-0.0169,0.0759,0.0000,0.0000,0.0000,20.0000,1.5046,2.4485,44.3981,48.2677,0.0143,0.000676,41.7922,-29.2757,-41.7891,71.0648,41.7922,-0.0059,-13.5558,-18.1458,-1.0003,0.0000,0.001424,0.014815,0.002205,0.0000,-0.0005,-0.0027,-180.0000,0.0000,0.0000
65,0.6500,-0.0608,-0.0604,-0.0299,0.0908,0.0000,0.0000,0.0000,20.0000,1.5013,2.3965,64.7358,48.6142,0.0145,0.000587,41.7922,-29.2757,-41.7891,71.0648,41.7922,-0.0059,-13.5558,-18.1458,-1.0003,0.0000,-0.004822,0.013768,0.003546,0.0016,0.0005,-0.0037,-180.0000,0.0000,0.0000
66,0.6600,-0.0949,-0.0412,-0.0417,0.1115,0.0000,0.0000,0.0000,20.0000,1.7097,2.3530,75.5200,49.7977,0.0148,0.000574,41.7922,-29.2757,-41.7891,71.0648,41.7922,-0.0059,-13.5558,-18.1458,-1.0003,0.0000,-0.011673,0.011235,0.005463,0.0028,0.0004,-0.0044,-180.0000,0.0000,0.0000
67,0.6700,-0.1228,-0.0237,-0.0514,0.1352,0.0000,0.0000,0.0000,20.0000,2.1289,2.3291,75.5756,51.2141,0.0153,0.000687,41.7922,-29.2757,-41.7891,71.0648,41.7922,-0.0059,-13.5558,-18.1458,-1.0003,0.0000,-0.018228,0.008061,0.007481,0.0033,0.0013,-0.0052,-180.0000,0.0000,0.0000
68,0.6800,-0.1433,-0.0169,-0.0588,0.1559,0.0000,0.0000,0.0000,20.0000,2.6233,2.3317,64.1999,52.2413,0.0158,0.000537,41.7922,-29.2757,-41.7891,71.0648,41.7922,-0.0059,-13.5558,-18.1458,-1.0003,0.0000,-0.023871,0.005612,0.009320,0.0038,0.0012,-0.0040,-180.0000,0.0000,0.0000
69,0.6900,-0.1508,-0.0236,-0.0591,0.1637,0.0000,0.0000,0.0000,20.0000,2.9962,2.3580,40.0897,52.2360,0.0164,0.000556,41.7922,-29.2757,-41.7891,71.0648,41.7922,-0.0059,-13.5558,-18.1458,-1.0003,0.0000,-0.027685,0.004923,0.010344,0.0027,0.0000,-0.0029,-180.0000,0.0000,0.0000
70,0.7000,-0.1490,-0.0438,-0.0524,0.1639,0.0000,0.0000,0.0000,20.0000,3.1959,2.3986,24.8953,51.1500,0.0171,0.000519,41.7922,-29.2757,-41.7891,71.0648,41.7922,-0.0059,-13.5558,-18.1458,-1.0003,0.0000,-0.029564,0.006551,0.010219,0.0015,-0.0004,-0.0018,-180.0000,0.0000,0.0000
71,0.7100,-0.1430,-0.0670,-0.0463,0.1645,0.0000,0.0000,0.0000,20.0000,3.2895,2.4450,32.9529,49.9274,0.0178,0.000561,41.7922,-29.2757,-41.7891,71.0648,41.7922,-0.0059,-13.5558,-18.1458,-1.0003,0.0000,-0.029938,0.009751,0.009525,0.0007,-0.0002,-0.0004,-180.0000,0.0000,0.0000
72,0.7200,-0.1286,-0.0841,-0.0388,0.1585,0.0000,0.0000,0.0000,20.0000,3.2641,2.4908,38.7150,49.1521,0.0185,0.000588,41.7922,-29.2757,-41.7891,71.0648,41.7922,-0.0059,-13.5558,-18.1458,-1.0003,0.0000,-0.028650,0.013213,0.008368,-0.0002,-0.0013,0.0001,-180.0000,0.0000,0.0000
73,0.7300,-0.1048,-0.0940,-0.0270,0.1433,0.0000,0.0000,0.0000,20.0000,3.1674,2.5307,43.9254,48.7213,0.0192,0.000585,41.8524,-29.2950,-41.8272,71.1222,41.8524,0.0039,-13.5252,-18.8955,-0.9998,-0.0000,-0.026043,0.016540,0.007173,-0.0013,-0.0018,0.0005,180.0000,0.0000,0.0000
74,0.7400,-0.0828,-0.0970,-0.0209,0.1292,0.0000,0.0000,0.0000,20.0000,2.9693,2.5602,44.4357,48.4715,0.0198,0.000522,41.8524,-29.2950,-41.8272,71.1222,41.8524,0.0039,-13.5252,-18.8955,-0.9998,-0.0000,-0.022347,0.018645,0.005885,-0.0009,-0.0010,0.0002,180.0000,0.0000,0.0000
75,0.7500,-0.0655,-0.0962,-0.0230,0.1187,0.0000,0.0000,0.0000,20.0000,2.7576,2.5769,39.8309,48.1229,0.0204,0.000645,41.8524,-29.2950,-41.8272,71.1222,41.8524,0.0039,-13.5252,-18.8955,-0.9998,-0.0000,-0.018540,0.019695,0.005369,-0.0009,-0.0020,-0.0011,180.0000,0.0000,0.0000
76,0.7600,-0.0470,-0.0914,-0.0307,0.1072,0.0000,0.0000,0.0000,20.0000,2.5215,2.5804,40.2016,47.6769,0.0209,0.000468,41.8524,-29.2950,-41.8272,71.1222,41.8524,0.0039,-13.5252,-18.8955,-0.9998,-0.0000,-0.014548,0.019749,0.005842,0.0006,-0.0028,-0.0011,180.0000,0.0000,0.0000
77,0.7700,-0.0274,-0.0806,-0.0470,0.0972,0.0000,0.0000,0.0000,20.0000,2.2691,2.5702,47.3347,47.4619,0.0214,0.000560,41.8524,-29.2950,-41.8272,71.1222,41.8524,0.0039,-13.5252,-18.8955,-0.9998,-0.0000,-0.010344,0.018660,0.007725,0.0007,-0.0028,-0.0014,180.0000,0.0000,0.0000
78,0.7800,-0.0151,-0.0649,-0.0687,0.0957,0.0000,0.0000,0.0000,20.0000,2.0876,2.5486,52.7594,47.6041,0.0219,0.000551,41.8524,-29.2950,-41.8272,71.1222,41.8524,0.0039,-13.5252,-18.8955,-0.9998,-0.0000,-0.006774,0.016452,0.010921,0.0018,-0.0015,-0.0030,180.0000,0.0000,0.0000
79,0.7900,-0.0086,-0.0499,-0.0847,0.0987,0.0000,0.0000,0.0000,20.0000,2.0206,2.5214,50.6938,47.8309,0.0224,0.000492,41.8524,-29.2950,-41.8272,71.1222,41.8524,0.0039,-13.5252,-18.8955,-0.9998,-0.0000,-0.004134,0.013703,0.014263,0.0012,-0.0014,-0.0030,180.0000,0.0000,0.0000
80,0.8000,0.0024,-0.0338,-0.0937,0.0996,0.0000,0.0000,0.0000,20.0000,2.0050,2.4934,48.9616,47.9407,0.0229,0.000525,41.8524,-29.2950,-41.8272,71.1222,41.8524,0.0039,-13.5252,-18.8955,-0.9998,-0.0000,-0.001566,0.010543,0.016983,0.0017,-0.0015,-0.0019,180.0000,0.0000,0.0000
81,0.8100,0.0105,-0.0164,-0.0989,0.1008,0.0000,0.0000,0.0000,20.0000,2.0246,2.4671,46.0219,47.9160,0.0234,0.000574,41.8524,-29.2950,-41.8272,71.1222,41.8524,0.0039,-13.5252,-18.8955,-0.9998,-0.0000,0.000661,0.007040,0.018971,0.0019,-0.0018,-0.0027,180.0000,0.0000,0.0000
82,0.8200,0.0105,-0.0034,-0.1014,0.1020,0.0000,0.0000,0.0000,20.0000,2.0723,2.4441,37.2225,47.5698,0.0238,0.000492,41.8524,-29.2950,-41.8272,71.1222,41.8524,0.0039,-13.5252,-18.8955,-0.9998,-0.0000,0.001898,0.003785,0.020286,0.0014,-0.0017,-0.0021,180.0000,0.0000,0.0000
83,0.8300,0.0096,0.0059,-0.1070,0.1076,0.0000,0.0000,0.0000,20.0000,2.1699,2.4263,30.5925,46.8183,0.0243,0.000533,41.8524,-29.2950,-41.8272,71.1222,41.8524,0.0039,-13.5252,-18.8955,-0.9998,-0.0000,0.002484,0.001053,0.021531,0.0003,-0.0025,-0.0001,180.0000,0.0000,0.0000
84,0.8400,0.0063,0.0161,-0.1200,0.1212,0.0000,0.0000,0.0000,20.0000,2.3654,2.4176,31.9917,45.9642,0.0248,0.000576,41.8524,-29.2950,-41.8272,71.1222,41.8524,0.0039,-13.5252,-18.8955,-0.9998,-0.0000,0.002477,-0.001486,0.023477,0.0001,-0.0026,0.0004,180.0000,0.0000,0.0000
85,0.8500,-0.0060,0.0189,-0.1342,0.1356,0.0000,0.0000,0.0000,20.0000,2.6145,2.4216,32.1615,45.2003,0.0254,0.000651,41.8524,-29.2950,-41.8272,71.1222,41.8524,0.0039,-13.5252,-18.8955,-0.9998,-0.0000,0.001237,-0.003167,0.025923,-0.0002,-0.0021,-0.0001,180.0000,0.0000,0.0000
86,0.8600,-0.0233,0.0096,-0.1393,0.1415,0.0000,0.0000,0.0000,20.0000,2.7937,2.4371,30.2423,44.4303,0.0261,0.000685,41.8524,-29.2950,-41.8272,71.1222,41.8524,0.0039,-13.5252,-18.8955,-0.9998,-0.0000,-0.001185,-0.003160,0.027733,0.0001,-0.0011,-0.0006,180.0000,0.0000,0.0000
87,0.8700,-0.0401,-0.0057,-0.1362,0.1421,0.0000,0.0000,0.0000,20.0000,2.8725,2.4589,34.4512,43.7656,0.0269,0.000597,41.8524,-29.2950,-41.8272,71.1222,41.8524,0.0039,-13.5252,-18.8955,-0.9998,-0.0000,-0.004197,-0.001613,0.028371,0.0010,-0.0004,-0.0012,180.0000,0.0000,0.0000
88,0.8800,-0.0509,-0.0225,-0.1274,0.1390,0.0000,0.0000,0.0000,20.0000,2.8654,2.4815,37.7110,43.3429,0.0278,0.000549,41.8524,-29.2950,-41.8272,71.1222,41.8524,0.0039,-13.5252,-18.8955,-0.9998,-0.0000,-0.006932,0.000917,0.027787,0.0013,0.0001,-0.0023,180.0000,0.0000,0.0000
89,0.8900,-0.0526,-0.0355,-0.1109,0.1277,0.0000,0.0000,0.0000,20.0000,2.7396,2.4991,37.6444,43.0312,0.0286,0.000643,41.8524,-29.2950,-41.8272,71.1222,41.8524,0.0039,-13.5252,-18.8955,-0.9998,-0.0000,-0.008602,0.003612,0.025759,0.0023,0.0003,-0.0020,180.0000,0.0000,0.0000
90,0.9000,-0.0443,-0.0418,-0.0925,0.1107,0.0000,0.0000,0.0000,20.0000,2.5010,2.5058,36.8698,42.7136,0.0295,0.000535,41.8524,-29.2950,-41.8272,71.1222,41.8524,0.0039,-13.5252,-18.8955,-0.9998,-0.0000,-0.008678,0.005735,0.022745,0.0014,-0.0007,-0.0013,180.0000,0.0000,0.0000
91,0.9100,-0.0260,-0.0432,-0.0796,0.0942,0.0000,0.0000,0.0000,20.0000,2.2056,2.4974,37.3562,42.4055,0.0302,0.000528,41.8524,-29.2950,-41.8272,71.1222,41.8524,0.0039,-13.5252,-18.8955,-0.9998,-0.0000,-0.006873,0.007034,0.019743,0.0002,-0.0012,-0.0009,180.0000,0.0000,0.0000
92,0.9200,-0.0036,-0.0387,-0.0735,0.0831,0.0000,0.0000,0.0000,20.0000,1.9238,2.4736,39.9298,42.1986,0.0308,0.000537,41.8524,-29.2950,-41.8272,71.1222,41.8524,0.0039,-13.5252,-18.8955,-0.9998,-0.0000,-0.003625,0.007283,0.017433,-0.0003,-0.0018,-0.0011,180.0000,0.0000,0.0000
93,0.9300,0.0216,-0.0238,-0.0731,0.0799,0.0000,0.0000,0.0000,20.0000,1.7905,2.4397,40.0858,42.0781,0.0314,0.000492,41.9082,-29.3102,-41.8695,71.1797,41.9082,-0.0102,-13.8924,-19.3392,-1.0015,0.0000,0.000212,0.006356,0.016737,0.0005,-0.0031,-0.0007,180.0000,0.0000,0.0000
94,0.9400,0.0470,-0.0096,-0.0790,0.0924,0.0000,0.0000,0.0000,20.0000,1.8137,2.4046,50.5615,42.2566,0.0318,0.000527,41.9082,-29.3102,-41.8695,71.1797,41.9082,-0.0102,-13.8924,-19.3392,-1.0015,0.0000,0.004875,0.004409,0.016904,0.0004,-0.0029,-0.0008,180.0000,0.0000,0.0000
95,0.9500,0.0638,0.0008,-0.0896,0.1100,0.0000,0.0000,0.0000,20.0000,2.0334,2.3782,48.7871,42.6646,0.0322,0.000510,41.9082,-29.3102,-41.8695,71.1797,41.9082,-0.0102,-13.8924,-19.3392,-1.0015,0.0000,0.009119,0.002282,0.018030,0.0006,-0.0015,-0.0015,180.0000,0.0000,0.0000
96,0.9600,0.0725,0.0063,-0.0954,0.1200,0.0000,0.0000,0.0000,20.0000,2.2812,2.3660,38.1699,42.7094,0.0325,0.000987,41.9082,-29.3102,-41.8695,71.1797,41.9082,-0.0102,-13.8924,-19.3392,-1.0015,0.0000,0.012320,0.000557,0.019191,0.0007,-0.0022,-0.0005,180.0000,0.0000,0.0000
97,0.9700,0.0719,-0.0011,-0.0908,0.1158,0.0000,0.0000,0.0000,20.0000,2.3879,2.3643,17.1019,41.8802,0.0329,0.000958,41.9082,-29.3102,-41.8695,71.1797,41.9082,-0.0102,-13.8924,-19.3392,-1.0015,0.0000,0.014011,0.000342,0.019334,-0.0003,-0.0016,-0.0014,180.0000,0.0000,0.0000
98,0.9800,0.0595,-0.0110,-0.0830,0.1027,0.0000,0.0000,0.0000,20.0000,2.3114,2.3635,11.9157,40.3746,0.0332,0.000675,41.9082,-29.3102,-41.8695,71.1797,41.9082,-0.0102,-13.8924,-19.3392,-1.0015,0.0000,0.013672,0.001215,0.018597,-0.0003,-0.0007,-0.0014,180.0000,0.0000,0.0000
99,0.9900,0.0435,-0.0146,-0.0804,0.0926,0.0000,0.0000,0.0000,20.0000,2.1566,2.3563,21.1504,39.0631,0.0336,0.000604,41.9082,-29.3102,-41.8695,71.1797,41.9082,-0.0102,-13.8924,-19.3392,-1.0015,0.0000,0.011857,0.002046,0.017897,-0.0012,-0.0007,-0.0026,180.0000,0.0000,0.0000
100,1.0000,0.0304,-0.0109,-0.0877,0.0934,0.0000,0.0000,0.0000,20.0000,2.0645,2.3428,23.6060,38.1453,0.0340,0.000617,41.9082,-29.3102,-41.8695,71.1797,41.9082,-0.0102,-13.8924,-19.3392,-1.0015,0.0000,0.009517,0.002139,0.018195,-0.0001,-0.0020,-0.0028,180.0000,0.0000,0.0000
101,1.0100,0.0159,0.0003,-0.1035,0.1047,0.0000,0.0000,0.0000,20.0000,2.1047,2.3286,34.2314,37.6378,0.0345,0.000576,41.9082,-29.3102,-41.8695,71.1797,41.9082,-0.0102,-13.8924,-19.3392,-1.0015,0.0000,0.006754,0.001062,0.019906,-0.0007,-0.0018,-0.0043,180.0000,0.0000,0.0000
102,1.0200,0.0032,0.0110,-0.1240,0.1245,0.0000,0.0000,0.0000,20.0000,2.3210,2.3223,44.0747,37.7211,0.0352,0.000602,41.9082,-29.3102,-41.8695,71.1797,41.9082,-0.0102,-13.8924,-19.3392,-1.0015,0.0000,0.003946,-0.000607,0.022864,-0.0002,-0.0019,-0.0025,180.0000,0.0000,0.0000
103,1.0300,-0.0081,0.0060,-0.1437,0.1440,0.0000,0.0000,0.0000,20.0000,2.6468,2.3311,44.7519,38.0892,0.0360,0.000573,41.9082,-29.3102,-41.8695,71.1797,41.9082,-0.0102,-13.8924,-19.3392,-1.0015,0.0000,0.001259,-0.001022,0.026419,-0.0005,-0.0011,-0.0021,180.0000,0.0000,0.0000
104,1.0400,-0.0185,-0.0106,-0.1599,0.1613,0.0000,0.0000,0.0000,20.0000,2.9981,2.3582,45.7334,38.4827,0.0370,0.000557,41.9082,-29.3102,-41.8695,71.1797,41.9082,-0.0102,-13.8924,-19.3392,-1.0015,0.0000,-0.001270,0.000406,0.029951,0.0001,-0.0015,-0.0012,180.0000,0.0000,0.0000
105,1.0500,-0.0212,-0.0321,-0.1705,0.1748,0.0000,0.0000,0.0000,20.0000,3.3209,2.4022,44.8863,38.8583,0.0382,0.000696,41.9082,-29.3102,-41.8695,71.1797,41.9082,-0.0102,-13.8924,-19.3392,-1.0015,0.0000,-0.002936,0.003343,0.032909,-0.0008,-0.0011,-0.0016,180.0000,0.0000,0.0000
106,1.0600,-0.0212,-0.0615,-0.1747,0.1864,0.0000,0.0000,0.0000,20.0000,3.5986,2.4604,50.5884,39.3467,0.0395,0.000555,41.9082,-29.3102,-41.8695,71.1797,41.9082,-0.0102,-13.8924,-19.3392,-1.0015,0.0000,-0.003851,0.007905,0.034895,0.0004,-0.0001,-0.0004,180.0000,0.0000,0.0000
107,1.0700,-0.0219,-0.0843,-0.1760,0.1964,0.0000,0.0000,0.0000,20.0000,3.8477,2.5299,49.5643,39.9369,0.0410,0.000637,41.9082,-29.3102,-41.8695,71.1797,41.9082,-0.0102,-13.8924,-19.3392,-1.0015,0.0000,-0.004417,0.012690,0.036054,0.0008,-0.0010,0.0003,180.0000,0.0000,0.0000
108,1.0800,-0.0246,-0.0936,-0.1731,0.1983,0.0000,0.0000,0.0000,20.0000,4.0111,2.6069,36.0773,40.0956,0.0425,0.000646,41.9082,-29.3102,-41.8695,71.1797,41.9082,-0.0102,-13.8924,-19.3392,-1.0015,0.0000,-0.004994,0.016241,0.036334,0.0004,-0.0022,0.0005,180.0000,0.0000,0.0000
109,1.0900,-0.0383,-0.0979,-0.1652,0.1959,0.0000,0.0000,0.0000,20.0000,4.0742,2.6858,29.8249,39.7026,0.0441,0.000582,41.9082,-29.3102,-41.8695,71.1797,41.9082,-0.0102,-13.8924,-19.3392,-1.0015,0.0000,-0.006673,0.018603,0.035628,0.0002,-0.0015,-0.0002,180.0000,0.0000,0.0000
110,1.1000,-0.0652,-0.1020,-0.1562,0.1976,0.0000,0.0000,0.0000,20.0000,4.1119,2.7633,41.9579,39.4929,0.0458,0.000569,41.9082,-29.3102,-41.8695,71.1797,41.9082,-0.0102,-13.8924,-19.3392,-1.0015,0.0000,-0.010273,0.020274,0.034267,0.0008,-0.0012,-0.0004,180.0000,0.0000,0.0000
111,1.1100,-0.0844,-0.0981,-0.1494,0.1976,0.0000,0.0000,0.0000,20.0000,4.1292,2.8379,42.0061,39.6298,0.0475,0.000645,41.9082,-29.3102,-41.8695,71.1797,41.9082,-0.0102,-13.8924,-19.3392,-1.0015,0.0000,-0.014162,0.020768,0.032759,0.0010,-0.0019,-0.0008,180.0000,0.0000,0.0000
112,1.1200,-0.0872,-0.0873,-0.1448,0.1902,0.0000,0.0000,0.0000,20.0000,4.0714,2.9074,28.8707,39.3993,0.0493,0.000532,41.9082,-29.3102,-41.8695,71.1797,41.9082,-0.0102,-13.8924,-19.3392,-1.0015,0.0000,-0.016568,0.019919,0.031406,0.0016,-0.0017,-0.0025,180.0000,0.0000,0.0000
113,1.1300,-0.0794,-0.0715,-0.1426,0.1782,0.0000,0.0000,0.0000,20.0000,3.9922,2.9692,19.6563,38.5667,0.0510,0.000599,41.9152,-29.3023,-41.9513,71.2536,41.9152,-0.0019,-13.3416,-18.4518,-1.0004,0.0000,-0.017017,0.018008,0.031304,0.0028,-0.0018,-0.0042,180.0000,0.0000,0.0000
114,1.1400,-0.0561,-0.0501,-0.1350,0.1545,0.0000,0.0000,0.0000,20.0000,3.6953,3.0173,39.6813,38.0772,0.0527,0.000515,41.9152,-29.3023,-41.9513,71.2536,41.9152,-0.0019,-13.3416,-18.4518,-1.0004,0.0000,-0.014893,0.014775,0.030421,0.0031,-0.0021,-0.0038,180.0000,0.0000,0.0000
115,1.1500,-0.0205,-0.0291,-0.1218,0.1269,0.0000,0.0000,0.0000,20.0000,3.2181,3.0415,64.3858,38.8449,0.0542,0.000556,41.9152,-29.3023,-41.9513,71.2536,41.9152,-0.0019,-13.3416,-18.4518,-1.0004,0.0000,-0.010137,0.010859,0.028547,0.0032,-0.0013,-0.0034,180.0000,0.0000,0.0000
116,1.1600,0.0073,-0.0129,-0.1113,0.1123,0.0000,0.0000,0.0000,20.0000,2.7737,3.0390,69.7005,40.3961,0.0554,0.000646,41.9152,-29.3023,-41.9513,71.2536,41.9152,-0.0019,-13.3416,-18.4518,-1.0004,0.0000,-0.004707,0.007048,0.026410,0.0018,-0.0015,-0.0025,180.0000,0.0000,0.0000
117,1.1700,0.0202,-0.0078,-0.1029,0.1052,0.0000,0.0000,0.0000,20.0000,2.4739,3.0161,54.4911,41.5897,0.0565,0.000550,41.9152,-29.3023,-41.9513,71.2536,41.9152,-0.0019,-13.3416,-18.4518,-1.0004,0.0000,-0.000407,0.004420,0.024337,0.0001,-0.0017,-0.0026,180.0000,0.0000,0.0000
118,1.1800,0.0288,-0.0132,-0.0958,0.1009,0.0000,0.0000,0.0000,20.0000,2.2876,2.9812,38.7421,41.8662,0.0574,0.000571,41.9152,-29.3023,-41.9513,71.2536,41.9152,-0.0019,-13.3416,-18.4518,-1.0004,0.0000,0.002836,0.003497,0.022428,-0.0003,-0.0017,-0.0012,180.0000,0.0000,0.0000
119,1.1900,0.0311,-0.0205,-0.0944,0.1014,0.0000,0.0000,0.0000,20.0000,2.2048,2.9408,23.7481,41.2820,0.0583,0.000585,41.9152,-29.3023,-41.9513,71.2536,41.9152,-0.0019,-13.3416,-18.4518,-1.0004,0.0000,0.004849,0.003709,0.021186,0.0002,-0.0017,-0.0009,180.0000,0.0000,0.0000
120,1.2000,0.0248,-0.0334,-0.0966,0.1052,0.0000,0.0000,0.0000,20.0000,2.1963,2.9000,15.6436,40.0946,0.0591,0.000561,41.9152,-29.3023,-41.9513,71.2536,41.9152,-0.0019,-13.3416,-18.4518,-1.0004,0.0000,0.005324,0.005112,0.020685,-0.0005,-0.0022,-0.0012,180.0000,0.0000,0.0000
121,1.2100,0.0211,-0.0570,-0.0999,0.1170,0.0000,0.0000,0.0000,20.0000,2.2876,2.8638,31.2390,39.1785,0.0600,0.000562,41.9152,-29.3023,-41.9513,71.2536,41.9152,-0.0019,-13.3416,-18.4518,-1.0004,0.0000,0.005209,0.008234,0.020698,0.0003,-0.0027,-0.0021,180.0000,0.0000,0.0000
122,1.2200,0.0233,-0.0760,-0.1050,0.1317,0.0000,0.0000,0.0000,20.0000,2.4838,2.8375,36.4720,38.8857,0.0610,0.000564,41.9152,-29.3023,-41.9513,71.2536,41.9152,-0.0019,-13.3416,-18.4518,-1.0004,0.0000,0.005349,0.011849,0.021164,0.0015,-0.0020,-0.0019,180.0000,0.0000,0.0000
123,1.2300,0.0273,-0.0769,-0.1088,0.1359,0.0000,0.0000,0.0000,20.0000,2.6472,2.8226,21.9302,38.3530,0.0620,0.000567,41.9152,-29.3023,-41.9513,71.2536,41.9152,-0.0019,-13.3416,-18.4518,-1.0004,0.0000,0.005819,0.013906,0.021760,0.0022,-0.0021,-0.0016,180.0000,0.0000,0.0000
124,1.2400,0.0311,-0.0703,-0.1122,0.1360,0.0000,0.0000,0.0000,20.0000,2.7370,2.8154,9.9967,37.1214,0.0631,0.000573,41.9152,-29.3023,-41.9513,71.2536,41.9152,-0.0019,-13.3416,-18.4518,-1.0004,0.0000,0.006448,0.014362,0.022389,0.0020,-0.0022,-0.0020,180.0000,0.0000,0.0000
125,1.2500,0.0325,-0.0622,-0.1133,0.1333,0.0000,0.0000,0.0000,20.0000,2.7524,2.8115,8.6515,35.5923,0.0642,0.000591,41.9152,-29.3023,-41.9513,71.2536,41.9152,-0.0019,-13.3416,-18.4518,-1.0004,0.0000,0.006924,0.013771,0.022804,0.0017,-0.0016,-0.0015,180.0000,0.0000,0.0000
126,1.2600,0.0296,-0.0473,-0.1114,0.1246,0.0000,0.0000,0.0000,20.0000,2.6633,2.8058,18.3860,34.3781,0.0653,0.000574,41.9152,-29.3023,-41.9513,71.2536,41.9152,-0.0019,-13.3416,-18.4518,-1.0004,0.0000,0.006885,0.011933,0.022793,0.0012,-0.0002,-0.0005,180.0000,0.0000,0.0000
127,1.2700,0.0202,-0.0337,-0.1105,0.1172,0.0000,0.0000,0.0000,20.0000,2.5273,2.7942,26.0024,33.7079,0.0664,0.000606,41.9152,-29.3023,-41.9513,71.2536,41.9152,-0.0019,-13.3416,-18.4518,-1.0004,0.0000,0.005907,0.009528,0.022651,0.0006,-0.0001,-0.0003,180.0000,0.0000,0.0000
128,1.2800,0.0023,-0.0337,-0.1144,0.1193,0.0000,0.0000,0.0000,20.0000,2.4595,2.7777,27.1890,33.3166,0.0675,0.000768,41.9152,-29.3023,-41.9513,71.2536,41.9152,-0.0019,-13.3416,-18.4518,-1.0004,0.0000,0.003559,0.008182,0.022920,-0.0002,0.0004,-0.0022,180.0000,0.0000,0.0000
129,1.2900,-0.0148,-0.0422,-0.1216,0.1296,0.0000,0.0000,0.0000,20.0000,2.5152,2.7617,31.1836,33.0894,0.0687,0.000753,41.9152,-29.3023,-41.9513,71.2536,41.9152,-0.0019,-13.3416,-18.4518,-1.0004,0.0000,0.000554,0.008272,0.023746,-0.0011,-0.0004,-0.0022,180.0000,0.0000,0.0000
130,1.3000,-0.0276,-0.0496,-0.1321,0.1437,0.0000,0.0000,0.0000,20.0000,2.6877,2.7529,33.7214,33.0544,0.0701,0.000716,41.9152,-29.3023,-41.9513,71.2536,41.9152,-0.0019,-13.3416,-18.4518,-1.0004,0.0000,-0.002391,0.009039,0.025198,-0.0018,-0.0019,-0.0024,180.0000,0.0000,0.0000
131,1.3100,-0.0448,-0.0617,-0.1441,0.1630,0.0000,0.0000,0.0000,20.0000,2.9730,2.7572,41.9895,33.3185,0.0716,0.000638,41.9152,-29.3023,-41.9513,71.2536,41.9152,-0.0019,-13.3416,-18.4518,-1.0004,0.0000,-0.005735,0.010656,0.027156,-0.0022,-0.0026,-0.0026,180.0000,0.0000,0.0000
132,1.3200,-0.0687,-0.0698,-0.1523,0.1810,0.0000,0.0000,0.0000,20.0000,3.3053,2.7782,49.0721,33.9903,0.0734,0.000545,41.9152,-29.3023,-41.9513,71.2536,41.9152,-0.0019,-13.3416,-18.4518,-1.0004,0.0000,-0.009959,0.012340,0.029001,-0.0021,-0.0024,-0.0034,180.0000,0.0000,0.0000
133,1.3300,-0.0961,-0.0623,-0.1583,0.1954,0.0000,0.0000,0.0000,20.0000,3.7339,2.8190,57.9447,35.0639,0.0754,0.000583,41.9486,-29.2884,-42.0467,71.3352,41.9486,-0.0046,-6.3137,-18.1917,-1.0013,0.0000,-0.015103,0.012941,0.031601,-0.0019,-0.0017,-0.0033,-180.0000,0.0000,0.0000
134,1.3400,-0.1177,-0.0402,-0.1609,0.2034,0.0000,0.0000,0.0000,20.0000,4.0369,2.8776,55.6509,36.2595,0.0776,0.000581,41.9486,-29.2884,-42.0467,71.3352,41.9486,-0.0046,-6.3137,-18.1917,-1.0013,0.0000,-0.020070,0.011041,0.033240,-0.0024,-0.0011,-0.0041,-180.0000,0.0000,0.0000
135,1.3500,-0.1279,-0.0136,-0.1591,0.2046,0.0000,0.0000,0.0000,20.0000,4.2058,2.9460,53.1197,37.2565,0.0799,0.000569,41.9486,-29.2884,-42.0467,71.3352,41.9486,-0.0046,-6.3137,-18.1917,-1.0013,0.0000,-0.023795,0.007312,0.033900,-0.0018,-0.0003,-0.0034,-180.0000,0.0000,0.0000
136,1.3600,-0.1263,0.0057,-0.1514,0.1972,0.0000,0.0000,0.0000,20.0000,4.2261,3.0159,44.4253,37.8900,0.0822,0.000627,41.9486,-29.2884,-42.0467,71.3352,41.9486,-0.0046,-6.3137,-18.1917,-1.0013,0.0000,-0.025646,0.003301,0.033427,-0.0018,-0.0012,-0.0028,-180.0000,0.0000,0.0000
137,1.3700,-0.1119,0.0157,-0.1355,0.1764,0.0000,0.0000,0.0000,20.0000,4.0334,3.0772,37.8157,38.0677,0.0843,0.000527,41.9486,-29.2884,-42.0467,71.3352,41.9486,-0.0046,-6.3137,-18.1917,-1.0013,0.0000,-0.025186,0.000078,0.031504,-0.0015,-0.0009,-0.0013,-180.0000,0.0000,0.0000
138,1.3800,-0.0904,0.0131,-0.1140,0.1460,0.0000,0.0000,0.0000,20.0000,3.6265,3.1186,43.7110,38.2160,0.0862,0.000612,41.9486,-29.2884,-42.0467,71.3352,41.9486,-0.0046,-6.3137,-18.1917,-1.0013,0.0000,-0.022724,-0.001440,0.028226,-0.0019,-0.0019,-0.0003,-180.0000,0.0000,0.0000
139,1.3900,-0.0690,0.0010,-0.0935,0.1162,0.0000,0.0000,0.0000,20.0000,3.0981,3.1320,52.9722,38.7730,0.0879,0.000541,41.9486,-29.2884,-42.0467,71.3352,41.9486,-0.0046,-6.3137,-18.1917,-1.0013,0.0000,-0.019178,-0.001066,0.024309,0.0002,-0.0022,0.0013,-180.0000,0.0000,0.0000
140,1.4000,-0.0531,-0.0074,-0.0769,0.0938,0.0000,0.0000,0.0000,20.0000,2.5711,3.1156,53.7383,39.5751,0.0893,0.000643,41.9486,-29.2884,-42.0467,71.3352,41.9486,-0.0046,-6.3137,-18.1917,-1.0013,0.0000,-0.015593,-0.000025,0.020443,0.0015,-0.0021,0.0018,-180.0000,0.0000,0.0000
141,1.4100,-0.0425,-0.0016,-0.0615,0.0748,0.0000,0.0000,0.0000,20.0000,2.0891,3.0724,48.2437,40.2031,0.0904,0.000730,41.9486,-29.2884,-42.0467,71.3352,41.9486,-0.0046,-6.3137,-18.1917,-1.0013,0.0000,-0.012524,-0.000027,0.016721,0.0029,-0.0018,0.0009,-180.0000,0.0000,0.0000
142,1.4200,-0.0276,0.0074,-0.0516,0.0590,0.0000,0.0000,0.0000,20.0000,1.6537,3.0063,45.4489,40.5685,0.0914,0.000649,41.9486,-29.2884,-42.0467,71.3352,41.9486,-0.0046,-6.3137,-18.1917,-1.0013,0.0000,-0.009305,-0.000923,0.013640,0.0021,-0.0037,0.0000,-180.0000,0.0000,0.0000
143,1.4300,-0.0030,0.0125,-0.0496,0.0512,0.0000,0.0000,0.0000,20.0000,1.2895,2.9219,47.8012,40.9017,0.0921,0.000762,41.9486,-29.2884,-42.0467,71.3352,41.9486,-0.0046,-6.3137,-18.1917,-1.0013,0.0000,-0.005049,-0.001925,0.011708,0.0022,-0.0038,-0.0005,-180.0000,0.0000,0.0000
144,1.4400,0.0214,0.0194,-0.0508,0.0585,0.0000,0.0000,0.0000,20.0000,1.1203,2.8275,50.5065,41.3556,0.0926,0.000577,41.9486,-29.2884,-42.0467,71.3352,41.9486,-0.0046,-6.3137,-18.1917,-1.0013,0.0000,-0.000252,-0.003174,0.010742,0.0015,-0.0042,-0.0004,-180.0000,0.0000,0.0000
145,1.4500,0.0451,0.0334,-0.0477,0.0737,0.0000,0.0000,0.0000,20.0000,1.2163,2.7362,55.1124,41.9857,0.0930,0.000694,41.9486,-29.2884,-42.0467,71.3352,41.9486,-0.0046,-6.3137,-18.1917,-1.0013,0.0000,0.004779,-0.005251,0.009876,0.0009,-0.0054,-0.0010,-180.0000,0.0000,0.0000
146,1.4600,0.0626,0.0512,-0.0450,0.0926,0.0000,0.0000,0.0000,20.0000,1.5371,2.6614,54.3783,42.6875,0.0931,0.000684,41.9486,-29.2884,-42.0467,71.3352,41.9486,-0.0046,-6.3137,-18.1917,-1.0013,0.0000,0.009300,-0.008174,0.009109,0.0003,-0.0052,-0.0017,-180.0000,0.0000,0.0000
147,1.4700,0.0626,0.0612,-0.0521,0.1019,0.0000,0.0000,0.0000,20.0000,1.8509,2.6082,36.0126,42.8255,0.0932,0.000671,41.9486,-29.2884,-42.0467,71.3352,41.9486,-0.0046,-6.3137,-18.1917,-1.0013,0.0000,0.011776,-0.010776,0.009370,0.0013,-0.0043,-0.0016,-180.0000,0.0000,0.0000
148,1.4800,0.0443,0.0581,-0.0633,0.0967,0.0000,0.0000,0.0000,20.0000,1.9528,2.5694,17.3387,41.9371,0.0933,0.000672,41.9486,-29.2884,-42.0467,71.3352,41.9486,-0.0046,-6.3137,-18.1917,-1.0013,0.0000,0.011292,-0.011877,0.010618,0.0005,-0.0029,-0.0011,-180.0000,0.0000,0.0000
149,1.4900,0.0150,0.0427,-0.0739,0.0867,0.0000,0.0000,0.0000,20.0000,1.8359,2.5322,37.7575,41.1456,0.0937,0.000661,41.9486,-29.2884,-42.0467,71.3352,41.9486,-0.0046,-6.3137,-18.1917,-1.0013,0.0000,0.008075,-0.010924,0.012350,0.0001,-0.0024,-0.0002,-180.0000,0.0000,0.0000
150,1.5000,-0.0185,0.0138,-0.0894,0.0924,0.0000,0.0000,0.0000,20.0000,1.6870,2.4898,66.6714,41.7545,0.0943,0.000684,41.9486,-29.2884,-42.0467,71.3352,41.9486,-0.0046,-6.3137,-18.1917,-1.0013,0.0000,0.002928,-0.007489,0.014831,-0.0005,-0.0019,-0.0007,-180.0000,0.0000,0.0000
151,1.5100,-0.0499,-0.0226,-0.1053,0.1187,0.0000,0.0000,0.0000,20.0000,1.8123,2.4491,86.7866,43.6784,0.0954,0.000621,41.9486,-29.2884,-42.0467,71.3352,41.9486,-0.0046,-6.3137,-18.1917,-1.0013,0.0000,-0.003062,-0.001932,0.017758,-0.0014,-0.0011,-0.0000,-180.0000,0.0000,0.0000
152,1.5200,-0.0713,-0.0514,-0.1094,0.1403,0.0000,0.0000,0.0000,20.0000,2.1877,2.4244,83.0981,45.9482,0.0967,0.000573,41.9486,-29.2884,-42.0467,71.3352,41.9486,-0.0046,-6.3137,-18.1917,-1.0013,0.0000,-0.008506,0.004021,0.019750,-0.0024,0.0003,0.0004,-180.0000,0.0000,0.0000
153,1.5300,-0.0765,-0.0614,-0.1036,0.1427,0.0000,0.0000,0.0000,20.0000,2.5922,2.4225,59.9317,47.3546,0.0983,0.000626,41.9725,-29.3203,-42.1015,71.4217,41.9725,-0.0046,-6.3087,-19.5075,-1.0000,0.0000,-0.012349,0.008389,0.021191,-0.0015,-0.0004,-0.0002,-180.0000,0.0000,0.0000
154,1.5400,-0.0678,-0.0613,-0.0929,0.1303,0.0000,0.0000,0.0000,20.0000,2.7131,2.4352,27.0134,47.1410,0.1000,0.000551,41.9725,-29.3203,-42.1015,71.4217,41.9725,-0.0046,-6.3087,-19.5075,-1.0000,0.0000,-0.013586,0.010769,0.020870,-0.0027,-0.0008,-0.0021,-180.0000,0.0000,0.0000
155,1.5500,-0.0604,-0.0631,-0.0777,0.1169,0.0000,0.0000,0.0000,20.0000,2.6421,2.4485,22.8665,45.9198,0.1015,0.000664,41.9725,-29.3203,-42.1015,71.4217,41.9725,-0.0046,-6.3087,-19.5075,-1.0000,0.0000,-0.013496,0.012248,0.019128,-0.0026,0.0008,-0.0034,-180.0000,0.0000,0.0000
156,1.5600,-0.0566,-0.0655,-0.0648,0.1082,0.0000,0.0000,0.0000,20.0000,2.5104,2.4555,25.5120,44.7245,0.1030,0.000715,41.9725,-29.3203,-42.1015,71.4217,41.9725,-0.0046,-6.3087,-19.5075,-1.0000,0.0000,-0.013046,0.013283,0.016840,-0.0023,0.0006,-0.0052,-180.0000,0.0000,0.0000
157,1.5700,-0.0517,-0.0667,-0.0595,0.1032,0.0000,0.0000,0.0000,20.0000,2.3882,2.4552,20.9655,43.5426,0.1044,0.000630,41.9725,-29.3203,-42.1015,71.4217,41.9725,-0.0046,-6.3087,-19.5075,-1.0000,0.0000,-0.012273,0.013946,0.015008,-0.0018,-0.0011,-0.0063,-180.0000,0.0000,0.0000
158,1.5800,-0.0436,-0.0699,-0.0569,0.1001,0.0000,0.0000,0.0000,20.0000,2.2859,2.4487,19.2447,42.2533,0.1057,0.000804,41.9725,-29.3203,-42.1015,71.4217,41.9725,-0.0046,-6.3087,-19.5075,-1.0000,0.0000,-0.011013,0.014604,0.013710,-0.0018,-0.0020,-0.0062,-180.0000,0.0000,0.0000
159,1.5900,-0.0354,-0.0770,-0.0569,0.1021,0.0000,0.0000,0.0000,20.0000,2.2422,2.4385,20.0388,41.0095,0.1069,0.000680,41.9725,-29.3203,-42.1015,71.4217,41.9725,-0.0046,-6.3087,-19.5075,-1.0000,0.0000,-0.009476,0.015650,0.012963,0.0002,-0.0019,-0.0041,-180.0000,0.0000,0.0000
160,1.6000,-0.0271,-0.0815,-0.0613,0.1055,0.0000,0.0000,0.0000,20.0000,2.2486,2.4279,19.6732,39.8459,0.1082,0.000628,41.9725,-29.3203,-42.1015,71.4217,41.9725,-0.0046,-6.3087,-19.5075,-1.0000,0.0000,-0.007778,0.016643,0.012966,0.0012,-0.0016,-0.0024,-180.0000,0.0000,0.0000
161,1.6100,-0.0219,-0.0788,-0.0683,0.1066,0.0000,0.0000,0.0000,20.0000,2.2609,2.4184,16.3693,38.6454,0.1094,0.000615,41.9725,-29.3203,-42.1015,71.4217,41.9725,-0.0046,-6.3087,-19.5075,-1.0000,0.0000,-0.006308,0.016888,0.013645,0.0023,-0.0008,-0.0017,-180.0000,0.0000,0.0000
162,1.6200,-0.0275,-0.0677,-0.0776,0.1066,0.0000,0.0000,0.0000,20.0000,2.2612,2.4097,16.4242,37.4215,0.1107,0.000592,41.9725,-29.3203,-42.1015,71.4217,41.9725,-0.0046,-6.3087,-19.5075,-1.0000,0.0000,-0.006042,0.015884,0.014916,0.0036,0.0010,-0.0009,-180.0000,0.0000,0.0000
163,1.6300,-0.0432,-0.0511,-0.0944,0.1158,0.0000,0.0000,0.0000,20.0000,2.3237,2.4033,35.4873,36.7908,0.1122,0.000578,41.9725,-29.3203,-42.1015,71.4217,41.9725,-0.0046,-6.3087,-19.5075,-1.0000,0.0000,-0.007455,0.013639,0.017274,0.0030,0.0014,0.0001,-180.0000,0.0000,0.0000
164,1.6400,-0.0594,-0.0272,-0.1170,0.1340,0.0000,0.0000,0.0000,20.0000,2.5080,2.4040,56.1196,37.2866,0.1139,0.000608,41.9725,-29.3203,-42.1015,71.4217,41.9725,-0.0046,-6.3087,-19.5075,-1.0000,0.0000,-0.009832,0.009979,0.020803,0.0036,0.0012,-0.0009,-180.0000,0.0000,0.0000
165,1.6500,-0.0694,0.0111,-0.1359,0.1530,0.0000,0.0000,0.0000,20.0000,2.7736,2.4170,73.6896,38.8058,0.1157,0.000697,41.9725,-29.3203,-42.1015,71.4217,41.9725,-0.0046,-6.3087,-19.5075,-1.0000,0.0000,-0.012129,0.004099,0.024604,0.0038,0.0002,-0.0023,-180.0000,0.0000,0.0000
166,1.6600,-0.0673,0.0601,-0.1450,0.1708,0.0000,0.0000,0.0000,20.0000,3.0814,2.4451,87.3896,41.1015,0.1176,0.000691,41.9725,-29.3203,-42.1015,71.4217,41.9725,-0.0046,-6.3087,-19.5075,-1.0000,0.0000,-0.013168,-0.004058,0.027561,0.0042,-0.0016,-0.0014,-180.0000,0.0000,0.0000
167,1.6700,-0.0559,0.1046,-0.1437,0.1863,0.0000,0.0000,0.0000,20.0000,3.4184,2.4893,90.7899,43.7412,0.1195,0.000630,41.9725,-29.3203,-42.1015,71.4217,41.9725,-0.0046,-6.3087,-19.5075,-1.0000,0.0000,-0.012572,-0.013001,0.029008,0.0034,-0.0025,-0.0017,-180.0000,0.0000,0.0000
168,1.6800,-0.0482,0.1356,-0.1362,0.1982,0.0000,0.0000,0.0000,20.0000,3.7609,2.5499,81.0195,46.0605,0.1212,0.000566,41.9725,-29.3203,-42.1015,71.4217,41.9725,-0.0046,-6.3087,-19.5075,-1.0000,0.0000,-0.011447,-0.021025,0.029006,0.0034,-0.0024,-0.0024,-180.0000,0.0000,0.0000
169,1.6900,-0.0481,0.1490,-0.1265,0.2013,0.0000,0.0000,0.0000,20.0000,4.0188,2.6236,58.5922,47.3667,0.1228,0.000652,41.9725,-29.3203,-42.1015,71.4217,41.9725,-0.0046,-6.3087,-19.5075,-1.0000,0.0000,-0.010798,-0.026756,0.027976,0.0022,-0.0012,-0.0022,-180.0000,0.0000,0.0000
170,1.7000,-0.0480,0.1466,-0.1197,0.1953,0.0000,0.0000,0.0000,20.0000,4.1205,2.7031,31.8192,47.2479,0.1242,0.000566,41.9725,-29.3203,-42.1015,71.4217,41.9725,-0.0046,-6.3087,-19.5075,-1.0000,0.0000,-0.010404,-0.029633,0.026674,0.0026,-0.0010,-0.0015,-180.0000,0.0000,0.0000
171,1.7100,-0.0454,0.1380,-0.1193,0.1880,0.0000,0.0000,0.0000,20.0000,4.1047,2.7807,11.6822,45.8453,0.1256,0.000597,41.9725,-29.3203,-42.1015,71.4217,41.9725,-0.0046,-6.3087,-19.5075,-1.0000,0.0000,-0.009905,-0.030301,0.025856,0.0025,0.0006,-0.0009,-180.0000,0.0000,0.0000
172,1.7200,-0.0416,0.1282,-0.1271,0.1853,0.0000,0.0000,0.0000,20.0000,4.0575,2.8522,9.9274,43.9178,0.1270,0.000585,41.9725,-29.3203,-42.1015,71.4217,41.9725,-0.0046,-6.3087,-19.5075,-1.0000,0.0000,-0.009229,-0.029631,0.026137,0.0042,0.0020,0.0001,-180.0000,0.0000,0.0000
173,1.7300,-0.0360,0.1217,-0.1360,0.1860,0.0000,0.0000,0.0000,20.0000,4.0611,2.9186,22.2891,42.3880,0.1286,0.000505,42.0078,-29.3368,-42.1460,71.4828,42.0078,0.0034,-13.5864,-20.6397,-1.0001,-0.0000,-0.008609,-0.028306,0.027819,0.0057,0.0019,0.0004,-180.0000,0.0000,0.0000
174,1.7400,-0.0306,0.1197,-0.1376,0.1849,0.0000,0.0000,0.0000,20.0000,4.0473,2.9811,16.9025,41.1343,0.1303,0.000546,42.0078,-29.3368,-42.1460,71.4828,42.0078,0.0034,-13.5864,-20.6397,-1.0001,-0.0000,-0.007713,-0.027314,0.028853,0.0056,0.0008,0.0003,-180.0000,0.0000,0.0000
175,1.7500,-0.0294,0.1107,-0.1386,0.1798,0.0000,0.0000,0.0000,20.0000,3.9809,3.0379,17.4228,39.8157,0.1321,0.000501,42.0078,-29.3368,-42.1460,71.4828,42.0078,0.0034,-13.5864,-20.6397,-1.0001,-0.0000,-0.007080,-0.025812,0.029468,0.0039,0.0012,0.0021,-180.0000,0.0000,0.0000
176,1.7600,-0.0404,0.0926,-0.1390,0.1719,0.0000,0.0000,0.0000,20.0000,3.8514,3.0862,28.0858,38.8771,0.1340,0.000537,42.0078,-29.3368,-42.1460,71.4828,42.0078,0.0034,-13.5864,-20.6397,-1.0001,-0.0000,-0.007823,-0.023122,0.029791,0.0037,0.0015,0.0009,-180.0000,0.0000,0.0000
177,1.7700,-0.0565,0.0780,-0.1308,0.1624,0.0000,0.0000,0.0000,20.0000,3.6706,3.1233,36.7235,38.5211,0.1359,0.000501,42.0078,-29.3368,-42.1460,71.4828,42.0078,0.0034,-13.5864,-20.6397,-1.0001,-0.0000,-0.009823,-0.020124,0.029084,0.0035,0.0007,0.0006,-180.0000,0.0000,0.0000
178,1.7800,-0.0592,0.0679,-0.1182,0.1486,0.0000,0.0000,0.0000,20.0000,3.4322,3.1469,34.7324,38.3675,0.1378,0.000484,42.0078,-29.3368,-42.1460,71.4828,42.0078,0.0034,-13.5864,-20.6397,-1.0001,-0.0000,-0.011182,-0.017424,0.027375,0.0033,0.0002,0.0003,-180.0000,0.0000,0.0000
179,1.7900,-0.0510,0.0610,-0.1084,0.1345,0.0000,0.0000,0.0000,20.0000,3.1611,3.1551,29.7464,38.0304,0.1397,0.000555,42.0078,-29.3368,-42.1460,71.4828,42.0078,0.0034,-13.5864,-20.6397,-1.0001,-0.0000,-0.011089,-0.015200,0.025402,0.0043,-0.0001,0.0004,-180.0000,0.0000,0.0000
180,1.8000,-0.0375,0.0590,-0.1003,0.1222,0.0000,0.0000,0.0000,20.0000,2.8841,3.1478,28.2714,37.5341,0.1414,0.000530,42.0078,-29.3368,-42.1460,71.4828,42.0078,0.0034,-13.5864,-20.6397,-1.0001,-0.0000,-0.009662,-0.013745,0.023442,0.0060,-0.0010,0.0003,-180.0000,0.0000,0.0000
181,1.8100,-0.0130,0.0638,-0.0925,0.1132,0.0000,0.0000,0.0000,20.0000,2.6159,3.1259,37.8249,37.2874,0.1429,0.000491,42.0078,-29.3368,-42.1460,71.4828,42.0078,0.0034,-13.5864,-20.6397,-1.0001,-0.0000,-0.006413,-0.013388,0.021539,0.0068,-0.0025,0.0014,-180.0000,0.0000,0.0000
182,1.8200,0.0138,0.0704,-0.0908,0.1157,0.0000,0.0000,0.0000,20.0000,2.4610,3.0936,46.8751,37.5658,0.1442,0.000496,42.0078,-29.3368,-42.1460,71.4828,42.0078,0.0034,-13.5864,-20.6397,-1.0001,-0.0000,-0.001923,-0.013828,0.020266,0.0062,-0.0027,0.0014,-180.0000,0.0000,0.0000
183,1.8300,0.0228,0.0741,-0.0991,0.1258,0.0000,0.0000,0.0000,20.0000,2.4980,3.0598,34.4412,37.7359,0.1454,0.000550,42.0078,-29.3368,-42.1460,71.4828,42.0078,0.0034,-13.5864,-20.6397,-1.0001,-0.0000,0.001471,-0.014410,0.020352,0.0059,-0.0019,0.0013,-180.0000,0.0000,0.0000
184,1.8400,0.0110,0.0714,-0.1133,0.1344,0.0000,0.0000,0.0000,20.0000,2.6224,3.0323,15.9159,37.0452,0.1467,0.000512,42.0078,-29.3368,-42.1460,71.4828,42.0078,0.0034,-13.5864,-20.6397,-1.0001,-0.0000,0.002163,-0.014438,0.021785,0.0041,-0.0018,0.0010,-180.0000,0.0000,0.0000
185,1.8500,-0.0149,0.0534,-0.1274,0.1389,0.0000,0.0000,0.0000,20.0000,2.7064,3.0121,35.8885,36.4322,0.1483,0.000836,42.0078,-29.3368,-42.1460,71.4828,42.0078,0.0034,-13.5864,-20.6397,-1.0001,-0.0000,-0.000054,-0.012619,0.023942,0.0025,-0.0010,-0.0001,-180.0000,0.0000,0.0000
186,1.8600,-0.0411,0.0195,-0.1418,0.1489,0.0000,0.0000,0.0000,20.0000,2.8034,2.9980,64.0461,37.1768,0.1502,0.000677,42.0078,-29.3368,-42.1460,71.4828,42.0078,0.0034,-13.5864,-20.6397,-1.0001,-0.0000,-0.003900,-0.008196,0.026524,0.0010,-0.0006,-0.0002,-180.0000,0.0000,0.0000
187,1.8700,-0.0559,-0.0213,-0.1501,0.1616,0.0000,0.0000,0.0000,20.0000,2.9739,2.9919,77.7937,39.0329,0.1524,0.000610,42.0078,-29.3368,-42.1460,71.4828,42.0078,0.0034,-13.5864,-20.6397,-1.0001,-0.0000,-0.007497,-0.001661,0.028731,-0.0012,-0.0003,-0.0009,-180.0000,0.0000,0.0000
188,1.8800,-0.0642,-0.0544,-0.1444,0.1671,0.0000,0.0000,0.0000,20.0000,3.1519,2.9959,74.9464,41.0867,0.1549,0.000587,42.0078,-29.3368,-42.1460,71.4828,42.0078,0.0034,-13.5864,-20.6397,-1.0001,-0.0000,-0.010295,0.005267,0.029322,-0.0019,-0.0001,-0.0016,-180.0000,0.0000,0.0000
189,1.8900,-0.0652,-0.0694,-0.1283,0.1598,0.0000,0.0000,0.0000,20.0000,3.2203,3.0063,57.2376,42.4622,0.1574,0.000707,42.0078,-29.3368,-42.1460,71.4828,42.0078,0.0034,-13.5864,-20.6397,-1.0001,-0.0000,-0.011922,0.010587,0.027978,-0.0015,-0.0001,-0.0016,-180.0000,0.0000,0.0000
190,1.9000,-0.0570,-0.0669,-0.1058,0.1376,0.0000,0.0000,0.0000,20.0000,3.0675,3.0139,40.5116,42.8150,0.1597,0.000673,42.0078,-29.3368,-42.1460,71.4828,42.0078,0.0034,-13.5864,-20.6397,-1.0001,-0.0000,-0.011979,0.013259,0.024933,-0.0014,0.0003,-0.0008,-180.0000,0.0000,0.0000
191,1.9100,-0.0537,-0.0546,-0.0797,0.1105,0.0000,0.0000,0.0000,20.0000,2.7228,3.0074,43.6487,42.7745,0.1617,0.000629,42.0078,-29.3368,-42.1460,71.4828,42.0078,0.0034,-13.5864,-20.6397,-1.0001,-0.0000,-0.011659,0.013478,0.020586,-0.0006,0.0007,-0.0006,-180.0000,0.0000,0.0000
192,1.9200,-0.0675,-0.0494,-0.0611,0.1036,0.0000,0.0000,0.0000,20.0000,2.4507,2.9842,44.7718,42.8535,0.1635,0.000571,42.0078,-29.3368,-42.1460,71.4828,42.0078,0.0034,-13.5864,-20.6397,-1.0001,-0.0000,-0.012841,0.013053,0.016289,0.0005,0.0003,-0.0004,-180.0000,0.0000,0.0000
193,1.9300,-0.0869,-0.0558,-0.0519,0.1156,0.0000,0.0000,0.0000,20.0000,2.4537,2.9550,37.2241,42.7515,0.1651,0.000635,41.9809,-29.4170,-42.1650,71.5819,41.9809,-0.0006,-13.7241,-20.8998,-0.9991,0.0000,-0.015681,0.012766,0.013899,0.0006,0.0006,-0.0016,-180.0000,0.0000,0.0000
194,1.9400,-0.1065,-0.0761,-0.0470,0.1391,0.0000,0.0000,0.0000,20.0000,2.6959,2.9340,43.5529,42.6215,0.1667,0.000645,41.9809,-29.4170,-42.1650,71.5819,41.9809,-0.0006,-13.7241,-20.8998,-0.9991,0.0000,-0.019176,0.014610,0.012068,-0.0010,0.0016,-0.0015,-180.0000,0.0000,0.0000
195,1.9500,-0.1263,-0.1069,-0.0505,0.1730,0.0000,0.0000,0.0000,20.0000,3.1776,2.9342,56.6411,43.0327,0.1685,0.000613,41.9809,-29.4170,-42.1650,71.5819,41.9809,-0.0006,-13.7241,-20.8998,-0.9991,0.0000,-0.023048,0.018685,0.011375,-0.0011,0.0018,-0.0013,-180.0000,0.0000,0.0000
196,1.9600,-0.1275,-0.1272,-0.0592,0.1896,0.0000,0.0000,0.0000,20.0000,3.6117,2.9595,48.1302,43.5472,0.1705,0.000664,41.9809,-29.4170,-42.1650,71.5819,41.9809,-0.0006,-13.7241,-20.8998,-0.9991,0.0000,-0.025263,0.022932,0.011847,-0.0017,0.0005,-0.0021,-180.0000,0.0000,0.0000
197,1.9700,-0.1071,-0.1222,-0.0625,0.1741,0.0000,0.0000,0.0000,20.0000,3.6887,2.9975,20.7195,43.0454,0.1725,0.000859,41.9809,-29.4170,-42.1650,71.5819,41.9809,-0.0006,-13.7241,-20.8998,-0.9991,0.0000,-0.024396,0.024726,0.012415,-0.0010,-0.0006,-0.0016,-180.0000,0.0000,0.0000
198,1.9800,-0.0784,-0.0973,-0.0602,0.1387,0.0000,0.0000,0.0000,20.0000,3.3676,3.0267,37.2867,42.2729,0.1744,0.000726,41.9809,-29.4170,-42.1650,71.5819,41.9809,-0.0006,-13.7241,-20.8998,-0.9991,0.0000,-0.021000,0.023187,0.012466,-0.0007,-0.0009,0.0002,-180.0000,0.0000,0.0000
199,1.9900,-0.0490,-0.0667,-0.0577,0.1009,0.0000,0.0000,0.0000,20.0000,2.7920,3.0296,62.7566,42.6992,0.1761,0.000705,41.9809,-29.4170,-42.1650,71.5819,41.9809,-0.0006,-13.7241,-20.8998,-0.9991,0.0000,-0.016143,0.019221,0.012227,-0.0004,-0.0008,-0.0006,-180.0000,0.0000,0.0000
200,2.0000,-0.0202,-0.0319,-0.0525,0.0647,0.0000,0.0000,0.0000,20.0000,2.0670,2.9966,80.2153,44.2827,0.1775,0.000635,41.9809,-29.4170,-42.1650,71.5819,41.9809,-0.0006,-13.7241,-20.8998,-0.9991,0.0000,-0.010546,0.013514,0.011550,0.0010,-0.0013,-0.0014,-180.0000,0.0000,0.0000
201,2.0100,-0.0018,-0.0011,-0.0473,0.0473,0.0000,0.0000,0.0000,20.0000,1.4029,2.9272,80.3856,46.2639,0.1786,0.000699,41.9809,-29.4170,-42.1650,71.5819,41.9809,-0.0006,-13.7241,-20.8998,-0.9991,0.0000,-0.005586,0.007256,0.010629,0.0024,0.0002,-0.0014,-180.0000,0.0000,0.0000
202,2.0200,-0.0019,0.0152,-0.0471,0.0496,0.0000,0.0000,0.0000,20.0000,1.0695,2.8342,58.1874,47.5304,0.1795,0.000635,41.9809,-29.4170,-42.1650,71.5819,41.9809,-0.0006,-13.7241,-20.8998,-0.9991,0.0000,-0.002846,0.002152,0.010083,0.0023,0.0014,-0.0025,-180.0000,0.0000,0.0000
203,2.0300,-0.0122,0.0108,-0.0461,0.0489,0.0000,0.0000,0.0000,20.0000,0.9939,2.7350,24.7889,47.1980,0.1804,0.000673,41.9809,-29.4170,-42.1650,71.5819,41.9809,-0.0006,-13.7241,-20.8998,-0.9991,0.0000,-0.002353,-0.000240,0.009654,-0.0001,-0.0005,-0.0019,-180.0000,0.0000,0.0000
204,2.0400,-0.0238,-0.0092,-0.0432,0.0502,0.0000,0.0000,0.0000,20.0000,0.9677,2.6385,12.4532,45.6260,0.1812,0.000653,41.9809,-29.4170,-42.1650,71.5819,41.9809,-0.0006,-13.7241,-20.8998,-0.9991,0.0000,-0.003241,0.000441,0.009108,-0.0002,-0.0020,-0.0011,-180.0000,0.0000,0.0000
205,2.0500,-0.0316,-0.0331,-0.0398,0.0606,0.0000,0.0000,0.0000,20.0000,1.0096,2.5478,31.0893,44.3138,0.1820,0.000689,41.9809,-29.4170,-42.1650,71.5819,41.9809,-0.0006,-13.7241,-20.8998,-0.9991,0.0000,-0.004505,0.003204,0.008448,-0.0019,-0.0024,-0.0017,-180.0000,0.0000,0.0000
206,2.0600,-0.0414,-0.0538,-0.0320,0.0750,0.0000,0.0000,0.0000,20.0000,1.1718,2.4676,41.2646,43.8662,0.1829,0.000637,41.9809,-29.4170,-42.1650,71.5819,41.9809,-0.0006,-13.7241,-20.8998,-0.9991,0.0000,-0.006170,0.006796,0.007284,-0.0029,-0.0018,-0.0025,-180.0000,0.0000,0.0000
207,2.0700,-0.0529,-0.0654,-0.0270,0.0884,0.0000,0.0000,0.0000,20.0000,1.4282,2.4034,39.2831,43.6686,0.1838,0.000668,41.9809,-29.4170,-42.1650,71.5819,41.9809,-0.0006,-13.7241,-20.8998,-0.9991,0.0000,-0.008232,0.009933,0.006127,-0.0023,-0.0014,-0.0023,-180.0000,0.0000,0.0000
208,2.0800,-0.0649,-0.0652,-0.0301,0.0968,0.0000,0.0000,0.0000,20.0000,1.6732,2.3565,28.8793,43.1412,0.1848,0.000643,41.9809,-29.4170,-42.1650,71.5819,41.9809,-0.0006,-13.7241,-20.8998,-0.9991,0.0000,-0.010549,0.011625,0.005791,0.0000,0.0008,-0.0035,-180.0000,0.0000,0.0000
209,2.0900,-0.0824,-0.0506,-0.0361,0.1032,0.0000,0.0000,0.0000,20.0000,1.8570,2.3240,30.8373,42.4106,0.1859,0.000629,41.9809,-29.4170,-42.1650,71.5819,41.9809,-0.0006,-13.7241,-20.8998,-0.9991,0.0000,-0.013558,0.011079,0.006187,0.0003,0.0006,-0.0052,-180.0000,0.0000,0.0000
210,2.1000,-0.1230,-0.0276,-0.0574,0.1385,0.0000,0.0000,0.0000,20.0000,2.2692,2.3096,66.9897,42.7683,0.1873,0.000713,41.9809,-29.4170,-42.1650,71.5819,41.9809,-0.0006,-13.7241,-20.8998,-0.9991,0.0000,-0.019255,0.008448,0.008531,-0.0014,-0.0074,-0.0096,-180.0000,0.0000,0.0000
211,2.1100,-0.1964,0.0028,-0.1052,0.2228,0.0000,0.0000,0.0000,20.0000,3.3328,2.3366,128.9432,45.8046,0.1895,0.000624,41.9809,-29.4170,-42.1650,71.5819,41.9809,-0.0006,-13.7241,-20.8998,-0.9991,0.0000,-0.029707,0.003936,0.014586,-0.0047,-0.0167,-0.0151,-180.0000,0.0000,0.0000
212,2.1200,-0.2919,0.0496,-0.1656,0.3393,0.0000,0.0000,0.0000,20.0000,5.1059,2.4402,192.9751,52.1391,0.1929,0.000727,41.9809,-29.4170,-42.1650,71.5819,41.9809,-0.0006,-13.7241,-20.8998,-0.9991,0.0000,-0.044979,-0.003244,0.023945,-0.0092,-0.0240,-0.0188,-180.0000,0.0000,0.0000
213,2.1300,-0.4012,0.1165,-0.2359,0.4798,0.0000,0.0000,0.0000,20.0000,7.5705,2.6546,257.1618,61.6516,0.1979,0.000673,42.0403,-29.4366,-42.2029,71.6394,42.0403,0.0034,-13.5405,-21.2058,-0.9992,-0.0000,-0.064810,-0.013461,0.036739,-0.0122,-0.0299,-0.0206,-180.0000,-0.0000,0.0000
214,2.1400,-0.5125,0.2045,-0.3182,0.6369,0.0000,0.0000,0.0000,20.0000,10.4912,3.0054,303.6322,73.6843,0.2048,0.000710,42.0403,-29.4366,-42.2029,71.6394,42.0403,0.0034,-13.5405,-21.2058,-0.9992,-0.0000,-0.086770,-0.027880,0.051963,-0.0150,-0.0321,-0.0208,-180.0000,-0.0000,0.0000
215,2.1500,-0.6022,0.3105,-0.3938,0.7837,0.0000,0.0000,0.0000,20.0000,13.5487,3.5012,321.4909,86.8245,0.2138,0.000629,42.0403,-29.4366,-42.2029,71.6394,42.0403,0.0034,-13.5405,-21.2058,-0.9992,-0.0000,-0.107709,-0.046399,0.067843,-0.0160,-0.0261,-0.0171,-180.0000,-0.0000,0.0000
216,2.1600,-0.6511,0.4172,-0.4489,0.8942,0.0000,0.0000,0.0000,20.0000,16.3114,4.1299,299.5900,99.1306,0.2248,0.000653,42.0403,-29.4366,-42.2029,71.6394,42.0403,0.0034,-13.5405,-21.2058,-0.9992,-0.0000,-0.123959,-0.067214,0.081992,-0.0194,-0.0214,-0.0110,-180.0000,-0.0000,0.0000
217,2.1700,-0.6584,0.5042,-0.4827,0.9595,0.0000,0.0000,0.0000,20.0000,18.4590,4.8591,247.8222,108.7337,0.2375,0.000758,42.0403,-29.4366,-42.2029,71.6394,42.0403,0.0034,-13.5405,-21.2058,-0.9992,-0.0000,-0.133420,-0.087287,0.093025,-0.0244,-0.0184,-0.0062,-180.0000,-0.0000,0.0000
218,2.1800,-0.6287,0.5749,-0.4923,0.9839,0.0000,0.0000,0.0000,20.0000,19.8495,5.6454,193.5909,114.8931,0.2514,0.000691,42.0403,-29.4366,-42.2029,71.6394,42.0403,0.0034,-13.5405,-21.2058,-0.9992,-0.0000,-0.135414,-0.105272,0.099905,-0.0315,-0.0164,-0.0035,-180.0000,-0.0000,0.0000
219,2.1900,-0.5704,0.6384,-0.4746,0.9788,0.0000,0.0000,0.0000,20.0000,20.5146,6.4451,169.4018,118.5568,0.2659,0.000675,42.0403,-29.4366,-42.2029,71.6394,42.0403,0.0034,-13.5405,-21.2058,-0.9992,-0.0000,-0.130413,-0.121354,0.101737,-0.0393,-0.0166,-0.0011,-180.0000,-0.0000,0.0000
220,2.2000,-0.5007,0.6818,-0.4257,0.9470,0.0000,0.0000,0.0000,20.0000,20.5147,7.2190,168.9394,121.3410,0.2802,0.000618,42.0403,-29.4366,-42.2029,71.6394,42.0403,0.0034,-13.5405,-21.2058,-0.9992,-0.0000,-0.120417,-0.134346,0.097653,-0.0467,-0.0174,-0.0002,-180.0000,-0.0000,0.0000
221,2.2100,-0.4286,0.6990,-0.3491,0.8911,0.0000,0.0000,0.0000,20.0000,19.9120,7.9338,185.7909,124.4227,0.2938,0.000623,42.0403,-29.4366,-42.2029,71.6394,42.0403,0.0034,-13.5405,-21.2058,-0.9992,-0.0000,-0.107440,-0.142976,0.087539,-0.0490,-0.0169,-0.0004,-180.0000,-0.0000,0.0000
222,2.2200,-0.3559,0.7058,-0.2552,0.8306,0.0000,0.0000,0.0000,20.0000,18.9194,8.5654,217.0286,128.6576,0.3058,0.000565,42.0403,-29.4366,-42.2029,71.6394,42.0403,0.0034,-13.5405,-21.2058,-0.9992,-0.0000,-0.092784,-0.148140,0.072388,-0.0496,-0.0141,-0.0008,-180.0000,-0.0000,0.0000
223,2.2300,-0.2863,0.6977,-0.1533,0.7696,0.0000,0.0000,0.0000,20.0000,17.7088,9.1016,241.9870,134.2052,0.3159,0.000628,42.0403,-29.4366,-42.2029,71.6394,42.0403,0.0034,-13.5405,-21.2058,-0.9992,-0.0000,-0.077538,-0.149889,0.053677,-0.0479,-0.0117,-0.0015,-180.0000,-0.0000,0.0000
224,2.2400,-0.2202,0.6587,-0.0492,0.6963,0.0000,0.0000,0.0000,20.0000,16.2704,9.5355,260.0915,140.6320,0.3237,0.000596,42.0403,-29.4366,-42.2029,71.6394,42.0403,0.0034,-13.5405,-21.2058,-0.9992,-0.0000,-0.062341,-0.146659,0.032818,-0.0436,-0.0072,-0.0021,-180.0000,-0.0000,0.0000
225,2.2500,-0.1558,0.5957,0.0537,0.6181,0.0000,0.0000,0.0000,20.0000,14.6579,9.8617,278.0721,147.6978,0.3289,0.000666,42.0403,-29.4366,-42.2029,71.6394,42.0403,0.0034,-13.5405,-21.2058,-0.9992,-0.0000,-0.047376,-0.138280,0.010930,-0.0399,-0.0035,-0.0032,-180.0000,-0.0000,0.0000
226,2.2600,-0.1008,0.5201,0.1571,0.5526,0.0000,0.0000,0.0000,20.0000,13.0706,10.0818,291.9410,155.2509,0.3313,0.000584,42.0403,-29.4366,-42.2029,71.6394,42.0403,0.0034,-13.5405,-21.2058,-0.9992,-0.0000,-0.033511,-0.125810,-0.011532,-0.0371,0.0006,-0.0059,-180.0000,-0.0000,0.0000
227,2.2700,-0.0602,0.4298,0.2650,0.5085,0.0000,0.0000,0.0000,20.0000,11.7030,10.2086,306.3265,163.1656,0.3308,0.000554,42.0403,-29.4366,-42.2029,71.6394,42.0403,0.0034,-13.5405,-21.2058,-0.9992,-0.0000,-0.021716,-0.109632,-0.034716,-0.0327,0.0033,-0.0076,-180.0000,-0.0000,0.0000
228,2.2800,-0.0209,0.3193,0.3814,0.4978,0.0000,0.0000,0.0000,20.0000,10.7771,10.2654,333.6381,171.7918,0.3273,0.000704,42.0403,-29.4366,-42.2029,71.6394,42.0403,0.0034,-13.5405,-21.2058,-0.9992,-0.0000,-0.011225,-0.089420,-0.059099,-0.0293,0.0070,-0.0105,-180.0000,-0.0000,0.0000
229,2.2900,0.0299,0.1891,0.5141,0.5486,0.0000,0.0000,0.0000,20.0000,10.7617,10.2931,377.0632,181.8890,0.3204,0.000672,42.0403,-29.4366,-42.2029,71.6394,42.0403,0.0034,-13.5405,-21.2058,-0.9992,-0.0000,-0.000322,-0.065052,-0.085729,-0.0294,0.0111,-0.0146,-180.0000,-0.0000,0.0000
230,2.3000,0.1031,0.0536,0.6776,0.6875,0.0000,0.0000,0.0000,20.0000,12.3323,10.3621,432.4491,194.1485,0.3096,0.000566,42.0403,-29.4366,-42.2029,71.6394,42.0403,0.0034,-13.5405,-21.2058,-0.9992,-0.0000,0.013018,-0.037900,-0.116630,-0.0290,0.0168,-0.0168,-180.0000,-0.0000,0.0000
231,2.3100,0.2012,-0.0646,0.8817,0.9067,0.0000,0.0000,0.0000,20.0000,15.7210,10.5636,490.5925,208.8561,0.2943,0.000566,42.0403,-29.4366,-42.2029,71.6394,42.0403,0.0034,-13.5405,-21.2058,-0.9992,-0.0000,0.030180,-0.010997,-0.153893,-0.0322,0.0251,-0.0157,-180.0000,-0.0000,0.0000
232,2.3200,0.3255,-0.1558,1.1312,1.1874,0.0000,0.0000,0.0000,20.0000,20.6233,10.9822,556.8813,226.1770,0.2738,0.000799,42.0403,-29.4366,-42.2029,71.6394,42.0403,0.0034,-13.5405,-21.2058,-0.9992,-0.0000,0.052041,0.013014,-0.199134,-0.0402,0.0308,-0.0138,-180.0000,-0.0000,0.0000
233,2.3300,0.4682,-0.2044,1.4335,1.5218,0.0000,0.0000,0.0000,20.0000,26.5858,11.6765,613.0098,245.9122,0.2483,0.000617,42.0338,-29.7203,-42.0815,71.8017,42.0338,-0.0187,-10.6580,-17.1207,-1.4857,-0.0000,0.076463,0.029386,-0.252924,-0.0515,0.0362,-0.0074,-180.0000,0.0000,0.0000
234,2.3400,0.6162,-0.1906,1.7808,1.8941,0.0000,0.0000,0.0000,20.0000,33.5750,12.6889,702.9444,268.5791,0.2177,0.000547,42.0338,-29.7203,-42.0815,71.8017,42.0338,-0.0187,-10.6580,-17.1207,-1.4857,-0.0000,0.104616,0.036991,-0.316884,-0.0639,0.0399,0.0025,-180.0000,0.0000,0.0000
235,2.3500,0.7632,-0.1257,2.1487,2.2837,0.0000,0.0000,0.0000,20.0000,41.2530,14.0489,776.0034,294.4820,0.1832,0.000577,42.0338,-29.7203,-42.0815,71.8017,42.0338,-0.0187,-10.6580,-17.1207,-1.4857,-0.0000,0.134670,0.034632,-0.388389,-0.0783,0.0435,0.0138,-180.0000,0.0000,0.0000
236,2.3600,0.9026,-0.0408,2.5201,2.6772,0.0000,0.0000,0.0000,20.0000,49.3337,15.7676,823.0460,322.2634,0.1464,0.000580,42.0338,-29.7203,-42.0815,71.8017,42.0338,-0.0187,-10.6580,-17.1207,-1.4857,-0.0000,0.164948,0.024775,-0.464284,-0.0906,0.0451,0.0244,-180.0000,0.0000,0.0000
237,2.3700,1.0315,0.0455,2.8830,3.0623,0.0000,0.0000,0.0000,20.0000,57.5479,17.8400,838.8019,350.2438,0.1100,0.000535,42.0338,-29.7203,-42.0815,71.8017,42.0338,-0.0187,-10.6580,-17.1207,-1.4857,-0.0000,0.194243,0.010640,-0.541601,-0.0982,0.0474,0.0330,-180.0000,0.0000,0.0000
238,2.3800,1.1393,0.1214,3.2266,3.4239,0.0000,0.0000,0.0000,20.0000,65.5920,20.2455,819.8854,376.5982,0.0767,0.000591,42.0338,-29.7203,-42.0815,71.8017,42.0338,-0.0187,-10.6580,-17.1207,-1.4857,-0.0000,0.220829,-0.004785,-0.617610,-0.1038,0.0481,0.0381,-180.0000,0.0000,0.0000
239,2.3900,1.2208,0.1772,3.5472,3.7556,0.0000,0.0000,0.0000,20.0000,73.2292,22.9499,775.0745,399.7500,0.0502,0.000536,42.0338,-29.7203,-42.0815,71.8017,42.0338,-0.0187,-10.6580,-17.1207,-1.4857,-0.0000,0.243235,-0.018878,-0.690458,-0.1043,0.0487,0.0393,-180.0000,0.0000,0.0000
240,2.4000,1.2802,0.2188,3.8387,4.0524,0.0000,0.0000,0.0000,20.0000,80.2754,25.9095,713.3378,418.6979,0.0337,0.000742,42.0338,-29.7203,-42.0815,71.8017,42.0338,-0.0187,-10.6580,-17.1207,-1.4857,-0.0000,0.261072,-0.030792,-0.758490,-0.0998,0.0502,0.0373,-180.0000,0.0000,0.0000
241,2.4100,1.3234,0.2445,4.0944,4.3099,0.0000,0.0000,0.0000,20.0000,86.5864,29.0736,638.0991,432.8361,0.0307,0.000651,42.0338,-29.7203,-42.0815,71.8017,42.0338,-0.0187,-10.6580,-17.1207,-1.4857,-0.0000,0.274735,-0.039889,-0.820153,-0.0948,0.0515,0.0335,-180.0000,0.0000,0.0000
242,2.4200,1.3515,0.2460,4.3118,4.5253,0.0000,0.0000,0.0000,20.0000,92.0578,32.3878,553.0493,441.7880,0.0443,0.000562,42.0338,-29.7203,-42.0815,71.8017,42.0338,-0.0187,-10.6580,-17.1207,-1.4857,-0.0000,0.284549,-0.044991,-0.874340,-0.0895,0.0529,0.0286,-180.0000,0.0000,0.0000
243,2.4300,1.3753,0.2292,4.4816,4.6935,0.0000,0.0000,0.0000,20.0000,96.5813,35.7945,457.7813,445.2880,0.0770,0.000555,42.0338,-29.7203,-42.0815,71.8017,42.0338,-0.0187,-10.6580,-17.1207,-1.4857,-0.0000,0.291784,-0.046038,-0.919531,-0.0806,0.0546,0.0232,-180.0000,0.0000,0.0000
244,2.4400,1.3968,0.1839,4.6043,4.8151,0.0000,0.0000,0.0000,20.0000,100.1046,39.2352,360.7313,443.3060,0.1306,0.000617,42.0338,-29.7203,-42.0815,71.8017,42.0338,-0.0187,-10.6580,-17.1207,-1.4857,-0.0000,0.297346,-0.041993,-0.954942,-0.0733,0.0574,0.0204,-180.0000,0.0000,0.0000
245,2.4500,1.4196,0.1088,4.7010,4.9118,0.0000,0.0000,0.0000,20.0000,102.8182,42.6581,294.3070,436.9368,0.2064,0.000592,42.0338,-29.7203,-42.0815,71.8017,42.0338,-0.0187,-10.6580,-17.1207,-1.4857,-0.0000,0.302114,-0.032159,-0.982269,-0.0681,0.0571,0.0197,-180.0000,0.0000,0.0000
246,2.4600,1.4448,0.0239,4.7958,5.0088,0.0000,0.0000,0.0000,20.0000,105.0802,46.0296,269.8401,428.4180,0.3055,0.000587,42.0338,-29.7203,-42.0815,71.8017,42.0338,-0.0187,-10.6580,-17.1207,-1.4857,-0.0000,0.306660,-0.018175,-1.004895,-0.0621,0.0577,0.0181,-180.0000,0.0000,0.0000
247,2.4700,1.4649,-0.0504,4.9091,5.1232,0.0000,0.0000,0.0000,20.0000,107.2668,49.3380,268.8079,419.6666,0.4293,0.000571,42.0338,-29.7203,-42.0815,71.8017,42.0338,-0.0187,-10.6580,-17.1207,-1.4857,-0.0000,0.310570,-0.002978,-1.026720,-0.0592,0.0601,0.0188,-180.0000,0.0000,0.0000
248,2.4800,1.4959,-0.1004,5.0521,5.2699,0.0000,0.0000,0.0000,20.0000,109.7335,52.5924,281.5608,411.7189,0.5794,0.000548,42.0338,-29.7203,-42.0815,71.8017,42.0338,-0.0187,-10.6580,-17.1207,-1.4857,-0.0000,0.315208,0.010435,-1.051038,-0.0570,0.0612,0.0206,-180.0000,0.0000,0.0000
249,2.4900,1.5414,-0.1158,5.2188,5.4429,0.0000,0.0000,0.0000,20.0000,112.6140,55.8149,301.0140,405.0942,0.7584,0.000606,42.0338,-29.7203,-42.0815,71.8017,42.0338,-0.0187,-10.6580,-17.1207,-1.4857,-0.0000,0.321691,0.019368,-1.079042,-0.0557,0.0615,0.0213,-180.0000,0.0000,0.0000
250,2.5000,1.5879,-0.0990,5.3957,5.6254,0.0000,0.0000,0.0000,20.0000,115.8091,59.0271,320.9677,399.9178,0.9689,0.000563,42.0338,-29.7203,-42.0815,71.8017,42.0338,-0.0187,-10.6580,-17.1207,-1.4857,-0.0000,0.329287,0.022586,-1.110061,-0.0551,0.0627,0.0229,-180.0000,0.0000,0.0000
251,2.5100,1.6383,-0.0698,5.5719,5.8082,0.0000,0.0000,0.0000,20.0000,119.1705,62.2431,336.7892,396.0100,1.2136,0.000627,42.0338,-29.7203,-42.0815,71.8017,42.0338,-0.0187,-10.6580,-17.1207,-1.4857,-0.0000,0.337869,0.021397,-1.142606,-0.0540,0.0618,0.0265,-180.0000,0.0000,0.0000
252,2.5200,1.6904,-0.0320,5.7294,5.9736,0.0000,0.0000,0.0000,20.0000,123.5740,65.4956,445.4496,395.7410,1.4975,0.000556,41.7762,-29.4882,-41.3468,70.8350,41.7762,2.2789,-11.9057,-15.4388,-1.7059,1.3626,0.349867,0.015360,-1.185078,-0.0532,0.0598,0.0296,-180.0000,0.0000,0.0000
253,2.5300,1.7139,0.0140,5.8560,6.1017,0.0000,0.0000,0.0000,20.0000,127.0404,68.7858,356.7435,396.0356,1.8215,0.000540,41.7762,-29.4882,-41.3468,70.8350,41.7762,2.2789,-11.9057,-15.4388,-1.7059,1.3626,0.358155,0.007400,-1.218851,-0.0559,0.0587,0.0315,-180.0000,0.0000,0.0000
254,2.5400,1.6983,0.0605,5.9463,6.1844,0.0000,0.0000,0.0000,20.0000,129.5282,72.0587,269.4022,391.4720,2.1854,0.000548,41.7762,-29.4882,-41.3468,70.8350,41.7762,2.2789,-11.9057,-15.4388,-1.7059,1.3626,0.360458,-0.001665,-1.244115,-0.0601,0.0563,0.0337,-180.0000,0.0000,0.0000
255,2.5500,1.6544,0.1078,5.9898,6.2150,0.0000,0.0000,0.0000,20.0000,130.9489,75.2590,189.7885,382.5675,2.5877,0.000532,41.7762,-29.4882,-41.3468,70.8350,41.7762,2.2789,-11.9057,-15.4388,-1.7059,1.3626,0.356619,-0.011410,-1.259942,-0.0633,0.0518,0.0375,-180.0000,0.0000,0.0000
256,2.5600,1.5797,0.1593,5.9886,6.1955,0.0000,0.0000,0.0000,20.0000,131.2739,78.3313,159.2634,371.1235,3.0259,0.000537,41.7762,-29.4882,-41.3468,70.8350,41.7762,2.2789,-11.9057,-15.4388,-1.7059,1.3626,0.346320,-0.021915,-1.266043,-0.0684,0.0481,0.0399,-180.0000,0.0000,0.0000
257,2.5700,1.4780,0.2018,5.9496,6.1338,0.0000,0.0000,0.0000,20.0000,130.5723,81.2243,195.9498,360.4785,3.4964,0.000581,41.7762,-29.4882,-41.3468,70.8350,41.7762,2.2789,-11.9057,-15.4388,-1.7059,1.3626,0.329760,-0.031936,-1.262992,-0.0746,0.0438,0.0421,-180.0000,0.0000,0.0000
258,2.5800,1.3715,0.2248,5.8712,6.0334,0.0000,0.0000,0.0000,20.0000,128.9215,83.8934,249.9421,352.9131,3.9947,0.000532,41.7762,-29.4882,-41.3468,70.8350,41.7762,2.2789,-11.9057,-15.4388,-1.7059,1.3626,0.309293,-0.039709,-1.250934,-0.0785,0.0389,0.0438,-180.0000,0.0000,0.0000
259,2.5900,1.2699,0.2291,5.7574,5.9003,0.0000,0.0000,0.0000,20.0000,126.4245,86.3017,305.2465,348.7700,4.5158,0.000553,41.7762,-29.4882,-41.3468,70.8350,41.7762,2.2789,-11.9057,-15.4388,-1.7059,1.3626,0.287199,-0.044358,-1.230392,-0.0822,0.0348,0.0438,-180.0000,0.0000,0.0000
260,2.6000,1.1711,0.2210,5.6253,5.7502,0.0000,0.0000,0.0000,20.0000,123.2956,88.4227,353.1094,347.6923,5.0549,0.000608,41.7762,-29.4882,-41.3468,70.8350,41.7762,2.2789,-11.9057,-15.4388,-1.7059,1.3626,0.264537,-0.046024,-1.203363,-0.0866,0.0313,0.0431,-180.0000,0.0000,0.0000
261,2.6100,1.0825,0.2150,5.4818,5.5918,0.0000,0.0000,0.0000,20.0000,119.7417,90.2432,385.3764,348.8777,5.6076,0.000560,41.7762,-29.4882,-41.3468,70.8350,41.7762,2.2789,-11.9057,-15.4388,-1.7059,1.3626,0.242619,-0.046260,-1.171666,-0.0902,0.0263,0.0424,-180.0000,0.0000,0.0000
262,2.6200,1.0153,0.2249,5.3278,5.4284,0.0000,0.0000,0.0000,20.0000,115.9099,91.7605,402.2107,351.3485,6.1698,0.000552,41.7762,-29.4882,-41.3468,70.8350,41.7762,2.2789,-11.9057,-15.4388,-1.7059,1.3626,0.223303,-0.047282,-1.136402,-0.0950,0.0218,0.0424,-180.0000,0.0000,0.0000
263,2.6300,0.9642,0.2595,5.1690,5.2646,0.0000,0.0000,0.0000,20.0000,111.9267,92.9793,411.9010,354.4128,6.7381,0.000594,41.7762,-29.4882,-41.3468,70.8350,41.7762,2.2789,-11.9057,-15.4388,-1.7059,1.3626,0.207062,-0.051213,-1.098754,-0.0997,0.0189,0.0427,-180.0000,0.0000,0.0000
264,2.6400,0.9190,0.3169,5.0064,5.0999,0.0000,0.0000,0.0000,20.0000,107.8566,93.9097,423.8227,357.9030,7.3093,0.000572,41.7762,-29.4882,-41.3468,70.8350,41.7762,2.2789,-11.9057,-15.4388,-1.7059,1.3626,0.193156,-0.059021,-1.059486,-0.1032,0.0169,0.0434,-180.0000,0.0000,0.0000
265,2.6500,0.8770,0.3831,4.8420,4.9357,0.0000,0.0000,0.0000,20.0000,103.7502,94.5639,434.6448,361.8268,7.8806,0.000617,41.7762,-29.4882,-41.3468,70.8350,41.7762,2.2789,-11.9057,-15.4388,-1.7059,1.3626,0.180879,-0.069848,-1.019222,-0.1048,0.0160,0.0434,-180.0000,0.0000,0.0000
266,2.6600,0.8357,0.4507,4.6805,4.7759,0.0000,0.0000,0.0000,20.0000,99.6776,94.9572,438.3927,365.9355,8.4494,0.000568,41.7762,-29.4882,-41.3468,70.8350,41.7762,2.2789,-11.9057,-15.4388,-1.7059,1.3626,0.169599,-0.082446,-0.978776,-0.1034,0.0151,0.0420,-180.0000,0.0000,0.0000
267,2.6700,0.7863,0.5069,4.5253,4.6210,0.0000,0.0000,0.0000,20.0000,95.6865,95.1071,432.9088,369.7704,9.0137,0.000546,41.7762,-29.4882,-41.3468,70.8350,41.7762,2.2789,-11.9057,-15.4388,-1.7059,1.3626,0.158086,-0.094868,-0.938936,-0.0998,0.0141,0.0408,-180.0000,0.0000,0.0000
268,2.6800,0.7277,0.5402,4.3821,4.4749,0.0000,0.0000,0.0000,20.0000,91.8410,95.0332,414.4736,372.7364,9.5719,0.000592,41.7762,-29.4882,-41.3468,70.8350,41.7762,2.2789,-11.9057,-15.4388,-1.7059,1.3626,0.145541,-0.104872,-0.900720,-0.0949,0.0137,0.0388,-180.0000,0.0000,0.0000
269,2.6900,0.6644,0.5510,4.2651,4.3515,0.0000,0.0000,0.0000,20.0000,88.3126,94.7606,377.3648,374.0117,10.1240,0.000578,41.7762,-29.4882,-41.3468,70.8350,41.7762,2.2789,-11.9057,-15.4388,-1.7059,1.3626,0.131987,-0.111274,-0.866088,-0.0903,0.0128,0.0367,-180.0000,0.0000,0.0000
270,2.7000,0.6032,0.5397,4.1814,4.2590,0.0000,0.0000,0.0000,20.0000,85.2721,94.3222,324.4187,372.7399,10.6711,0.000569,41.7762,-29.4882,-41.3468,70.8350,41.7762,2.2789,-11.9057,-15.4388,-1.7059,1.3626,0.118115,-0.113466,-0.836844,-0.0868,0.0108,0.0352,-180.0000,0.0000,0.0000
271,2.7100,0.5543,0.5056,4.1368,4.2043,0.0000,0.0000,0.0000,20.0000,82.8795,93.7586,258.2611,368.2622,11.2165,0.000611,41.7762,-29.4882,-41.3468,70.8350,41.7762,2.2789,-11.9057,-15.4388,-1.7059,1.3626,0.105317,-0.111032,-0.814544,-0.0846,0.0097,0.0362,-180.0000,0.0000,0.0000
272,2.7200,0.5261,0.4639,4.1376,4.1966,0.0000,0.0000,0.0000,20.0000,84.6664,93.2093,196.4845,360.5122,11.7879,0.000616,41.2208,-28.3208,-39.5035,67.8243,41.2208,1.0484,-9.1627,-15.5831,-1.7264,0.6455,0.104071,-0.106087,-0.833519,-0.0808,0.0097,0.0364,180.0000,0.0000,0.0000
273,2.7300,0.5195,0.4300,4.1884,4.2424,0.0000,0.0000,0.0000,20.0000,85.9413,92.7745,153.5886,350.3095,12.3827,0.000639,41.2208,-28.3208,-39.5035,67.8243,41.2208,1.0484,-9.1627,-15.5831,-1.7264,0.6455,0.102523,-0.099751,-0.847425,-0.0766,0.0100,0.0364,180.0000,0.0000,0.0000
274,2.7400,0.5347,0.3964,4.2877,4.3391,0.0000,0.0000,0.0000,20.0000,87.4393,92.4398,174.2750,340.0573,13.0033,0.000536,41.2208,-28.3208,-39.5035,67.8243,41.2208,1.0484,-9.1627,-15.5831,-1.7264,0.6455,0.102976,-0.092682,-0.863347,-0.0715,0.0109,0.0366,180.0000,0.0000,0.0000
275,2.7500,0.5772,0.3611,4.4271,4.4792,0.0000,0.0000,0.0000,20.0000,89.4896,92.2211,227.6117,332.4049,13.6546,0.000626,41.2208,-28.3208,-39.5035,67.8243,41.2208,1.0484,-9.1627,-15.5831,-1.7264,0.6455,0.107272,-0.085064,-0.884361,-0.0646,0.0146,0.0367,180.0000,0.0000,0.0000
276,2.7600,0.6390,0.3228,4.5979,4.6533,0.0000,0.0000,0.0000,20.0000,92.1800,92.1448,293.5909,328.4551,14.3427,0.000683,41.2208,-28.3208,-39.5035,67.8243,41.2208,1.0484,-9.1627,-15.5831,-1.7264,0.6455,0.115609,-0.076852,-0.911287,-0.0560,0.0201,0.0338,180.0000,0.0000,0.0000
277,2.7700,0.7106,0.2656,4.7938,4.8535,0.0000,0.0000,0.0000,20.0000,95.4780,92.2375,361.6623,328.4096,15.0737,0.000585,41.2208,-28.3208,-39.5035,67.8243,41.2208,1.0484,-9.1627,-15.5831,-1.7264,0.6455,0.127150,-0.066434,-0.943941,-0.0480,0.0242,0.0294,180.0000,0.0000,0.0000
278,2.7800,0.7971,0.1796,5.0086,5.0748,0.0000,0.0000,0.0000,20.0000,99.3152,92.5213,429.5757,332.1066,15.8538,0.000669,41.2208,-28.3208,-39.5035,67.8243,41.2208,1.0484,-9.1627,-15.5831,-1.7264,0.6455,0.141921,-0.051942,-0.981586,-0.0381,0.0283,0.0262,180.0000,0.0000,0.0000
279,2.7900,0.8971,0.0808,5.2290,5.3060,0.0000,0.0000,0.0000,20.0000,103.5438,93.0113,481.1560,338.8869,16.6881,0.000564,41.2208,-28.3208,-39.5035,67.8243,41.2208,1.0484,-9.1627,-15.5831,-1.7264,0.6455,0.159810,-0.033948,-1.022468,-0.0271,0.0326,0.0221,180.0000,0.0000,0.0000
280,2.8000,0.9927,-0.0197,5.4488,5.5385,0.0000,0.0000,0.0000,20.0000,108.0015,93.7133,507.6367,347.4411,17.5807,0.000572,41.2208,-28.3208,-39.5035,67.8243,41.2208,1.0484,-9.1627,-15.5831,-1.7264,0.6455,0.178937,-0.013891,-1.064998,-0.0181,0.0355,0.0160,180.0000,0.0000,0.0000
281,2.8100,1.0718,-0.1220,5.6693,5.7710,0.0000,0.0000,0.0000,20.0000,112.5835,94.6253,516.8041,356.5053,18.5350,0.000636,41.2208,-28.3208,-39.5035,67.8243,41.2208,1.0484,-9.1627,-15.5831,-1.7264,0.6455,0.197066,0.007463,-1.108429,-0.0098,0.0374,0.0119,180.0000,0.0000,0.0000
282,2.8200,1.1249,-0.2192,5.8856,5.9962,0.0000,0.0000,0.0000,20.0000,117.1560,95.7389,507.0861,365.0557,19.5536,0.000554,41.2208,-28.3208,-39.5035,67.8243,41.2208,1.0484,-9.1627,-15.5831,-1.7264,0.6455,0.211995,0.028970,-1.151856,-0.0019,0.0410,0.0075,180.0000,0.0000,0.0000
283,2.8300,1.1469,-0.3063,6.0843,6.1991,0.0000,0.0000,0.0000,20.0000,121.4918,97.0362,474.4518,371.9710,20.6373,0.000561,41.2208,-28.3208,-39.5035,67.8243,41.2208,1.0484,-9.1627,-15.5831,-1.7264,0.6455,0.222030,0.049509,-1.193431,0.0050,0.0432,0.0019,180.0000,0.0000,0.0000
284,2.8400,1.1424,-0.3855,6.2504,6.3656,0.0000,0.0000,0.0000,20.0000,125.3216,98.4868,421.0514,376.1395,21.7844,0.000586,41.2208,-28.3208,-39.5035,67.8243,41.2208,1.0484,-9.1627,-15.5831,-1.7264,0.6455,0.226683,0.068680,-1.230629,0.0102,0.0431,-0.0018,180.0000,0.0000,0.0000
285,2.8500,1.1117,-0.4617,6.3707,6.4834,0.0000,0.0000,0.0000,20.0000,128.3745,100.0469,351.5770,376.6992,22.9902,0.000613,41.2208,-28.3208,-39.5035,67.8243,41.2208,1.0484,-9.1627,-15.5831,-1.7264,0.6455,0.225727,0.086767,-1.260762,0.0148,0.0420,-0.0047,180.0000,0.0000,0.0000
286,2.8600,1.0561,-0.5273,6.4329,6.5403,0.0000,0.0000,0.0000,20.0000,130.3824,101.6604,269.3623,373.0560,24.2467,0.000662,41.2208,-28.3208,-39.5035,67.8243,41.2208,1.0484,-9.1627,-15.5831,-1.7264,0.6455,0.219193,0.103148,-1.281122,0.0208,0.0429,-0.0079,180.0000,0.0000,0.0000
287,2.8700,0.9901,-0.5665,6.4363,6.5366,0.0000,0.0000,0.0000,20.0000,131.2030,103.2629,189.2871,365.1497,25.5436,0.000543,41.2208,-28.3208,-39.5035,67.8243,41.2208,1.0484,-9.1627,-15.5831,-1.7264,0.6455,0.208535,0.115919,-1.290155,0.0251,0.0411,-0.0100,180.0000,0.0000,0.0000
288,2.8800,0.9251,-0.5832,6.3976,6.4904,0.0000,0.0000,0.0000,20.0000,130.9395,104.7926,154.3538,354.5150,26.8706,0.000567,41.2208,-28.3208,-39.5035,67.8243,41.2208,1.0484,-9.1627,-15.5831,-1.7264,0.6455,0.195733,0.124418,-1.288691,0.0260,0.0390,-0.0106,180.0000,0.0000,0.0000
289,2.8900,0.8622,-0.5841,6.3394,6.4244,0.0000,0.0000,0.0000,20.0000,129.8785,106.2017,171.6609,343.9806,28.2195,0.000565,41.2208,-28.3208,-39.5035,67.8243,41.2208,1.0484,-9.1627,-15.5831,-1.7264,0.6455,0.181968,0.128955,-1.279492,0.0269,0.0379,-0.0115,180.0000,0.0000,0.0000
290,2.9000,0.8041,-0.5602,6.2833,6.3592,0.0000,0.0000,0.0000,20.0000,128.3830,107.4630,191.2627,335.0407,29.5853,0.000540,41.2208,-28.3208,-39.5035,67.8243,41.2208,1.0484,-9.1627,-15.5831,-1.7264,0.6455,0.168187,0.128814,-1.266231,0.0273,0.0382,-0.0111,180.0000,0.0000,0.0000
291,2.9100,0.7584,-0.5241,6.2464,6.3140,0.0000,0.0000,0.0000,20.0000,126.8471,108.5715,188.7347,327.0623,30.9668,0.000566,41.2208,-28.3208,-39.5035,67.8243,41.2208,1.0484,-9.1627,-15.5831,-1.7264,0.6455,0.155660,0.124872,-1.252676,0.0236,0.0354,-0.0097,180.0000,0.0000,0.0000
292,2.9200,0.7283,-0.4982,6.2357,6.2978,0.0000,0.0000,0.0000,20.0000,129.4182,109.6475,279.8108,321.9581,32.4103,0.000617,40.7091,-27.0050,-37.3284,64.3334,40.7091,1.3790,-10.9239,-15.4451,-1.5673,0.8646,0.152695,0.118222,-1.279693,0.0179,0.0317,-0.0054,180.0000,0.0000,0.0000
293,2.9300,0.7027,-0.4816,6.2525,6.3103,0.0000,0.0000,0.0000,20.0000,130.7073,110.7705,157.7797,316.2833,33.9027,0.000588,40.7091,-27.0050,-37.3284,64.3334,40.7091,1.3790,-10.9239,-15.4451,-1.5673,0.8646,0.148189,0.112652,-1.293751,0.0140,0.0280,-0.0018,180.0000,0.0000,0.0000
294,2.9400,0.6680,-0.4694,6.3013,6.3540,0.0000,0.0000,0.0000,20.0000,131.5969,111.8917,126.8897,306.7147,35.4399,0.000553,40.7091,-27.0050,-37.3284,64.3334,40.7091,1.3790,-10.9239,-15.4451,-1.5673,0.8646,0.141930,0.108124,-1.303817,0.0106,0.0246,0.0022,180.0000,0.0000,0.0000
295,2.9500,0.6318,-0.4649,6.3740,6.4221,0.0000,0.0000,0.0000,20.0000,132.5080,113.0007,129.9163,296.9062,37.0225,0.000507,40.7091,-27.0050,-37.3284,64.3334,40.7091,1.3790,-10.9239,-15.4451,-1.5673,0.8646,0.134570,0.104959,-1.314044,0.0070,0.0197,0.0071,180.0000,0.0000,0.0000
296,2.9600,0.6062,-0.4693,6.4542,6.4996,0.0000,0.0000,0.0000,20.0000,133.5234,114.1017,131.0886,287.7526,38.6523,0.000651,40.7091,-27.0050,-37.3284,64.3334,40.7091,1.3790,-10.9239,-15.4451,-1.5673,0.8646,0.127669,0.103435,-1.325085,0.0059,0.0153,0.0111,180.0000,0.0000,0.0000
297,2.9700,0.5779,-0.4779,6.5364,6.5792,0.0000,0.0000,0.0000,20.0000,134.6167,115.2001,135.5992,279.2589,40.3308,0.000792,40.7091,-27.0050,-37.3284,64.3334,40.7091,1.3790,-10.9239,-15.4451,-1.5673,0.8646,0.120770,0.103251,-1.336757,0.0080,0.0135,0.0125,180.0000,0.0000,0.0000
298,2.9800,0.5390,-0.4859,6.6106,6.6504,0.0000,0.0000,0.0000,20.0000,135.6648,116.2970,137.4361,271.4070,42.0582,0.000662,40.7091,-27.0050,-37.3284,64.3334,40.7091,1.3790,-10.9239,-15.4451,-1.5673,0.8646,0.112827,0.103744,-1.347962,0.0101,0.0115,0.0140,180.0000,0.0000,0.0000
299,2.9900,0.5010,-0.4996,6.6614,6.6989,0.0000,0.0000,0.0000,20.0000,136.4606,117.3843,121.0104,263.5857,43.8317,0.000715,40.7091,-27.0050,-37.3284,64.3334,40.7091,1.3790,-10.9239,-15.4451,-1.5673,0.8646,0.104407,0.105174,-1.356535,0.0116,0.0097,0.0140,180.0000,0.0000,0.0000
300,3.0000,0.4568,-0.5244,6.6827,6.7188,0.0000,0.0000,0.0000,20.0000,136.8304,118.4438,106.2711,255.3376,45.6459,0.000717,40.7091,-27.0050,-37.3284,64.3334,40.7091,1.3790,-10.9239,-15.4451,-1.5673,0.8646,0.095121,0.108239,-1.360695,0.0135,0.0086,0.0126,180.0000,0.0000,0.0000
301,3.0100,0.3851,-0.5547,6.6729,6.7070,0.0000,0.0000,0.0000,20.0000,136.6461,119.4501,133.4871,247.8863,47.4928,0.000718,40.7091,-27.0050,-37.3284,64.3334,40.7091,1.3790,-10.9239,-15.4451,-1.5673,0.8646,0.082633,0.112742,-1.359292,0.0141,0.0074,0.0101,180.0000,0.0000,0.0000
302,3.0200,0.2966,-0.5843,6.6278,6.6601,0.0000,0.0000,0.0000,20.0000,135.8063,120.3729,185.7574,243.0310,49.3623,0.000696,40.7091,-27.0050,-37.3284,64.3334,40.7091,1.3790,-10.9239,-15.4451,-1.5673,0.8646,0.066709,0.117971,-1.351284,0.0143,0.0059,0.0096,180.0000,0.0000,0.0000
303,3.0300,0.2077,-0.6096,6.5478,6.5794,0.0000,0.0000,0.0000,20.0000,134.2707,121.1797,239.4906,241.3584,51.2431,0.000677,40.7091,-27.0050,-37.3284,64.3334,40.7091,1.3790,-10.9239,-15.4451,-1.5673,0.8646,0.048881,0.123148,-1.336154,0.0145,0.0043,0.0090,180.0000,0.0000,0.0000
304,3.0400,0.1191,-0.6244,6.4429,6.4742,0.0000,0.0000,0.0000,20.0000,132.1115,121.8404,288.7457,242.6104,53.1247,0.000631,40.7091,-27.0050,-37.3284,64.3334,40.7091,1.3790,-10.9239,-15.4451,-1.5673,0.8646,0.030075,0.127245,-1.314629,0.0134,0.0022,0.0106,180.0000,0.0000,0.0000
305,3.0500,0.0357,-0.6236,6.3274,6.3581,0.0000,0.0000,0.0000,20.0000,129.5061,122.3337,322.0667,246.0647,54.9987,0.000730,40.7091,-27.0050,-37.3284,64.3334,40.7091,1.3790,-10.9239,-15.4451,-1.5673,0.8646,0.011273,0.129182,-1.288552,0.0118,0.0009,0.0130,180.0000,0.0000,0.0000
306,3.0600,-0.0326,-0.6036,6.2210,6.2503,0.0000,0.0000,0.0000,20.0000,126.7410,122.6522,325.9653,250.3526,56.8611,0.000736,40.7091,-27.0050,-37.3284,64.3334,40.7091,1.3790,-10.9239,-15.4451,-1.5673,0.8646,-0.005973,0.127986,-1.260918,0.0088,0.0008,0.0178,180.0000,0.0000,0.0000
307,3.0700,-0.0883,-0.5613,6.1423,6.1685,0.0000,0.0000,0.0000,20.0000,124.1526,122.8059,302.0998,253.8555,58.7133,0.000697,40.7091,-27.0050,-37.3284,64.3334,40.7091,1.3790,-10.9239,-15.4451,-1.5673,0.8646,-0.021058,0.122839,-1.235255,0.0047,0.0001,0.0213,180.0000,0.0000,0.0000
308,3.0800,-0.1329,-0.5009,6.1014,6.1234,0.0000,0.0000,0.0000,20.0000,122.0288,122.8216,260.0969,255.3541,60.5614,0.000670,40.7091,-27.0050,-37.3284,64.3334,40.7091,1.3790,-10.9239,-15.4451,-1.5673,0.8646,-0.033815,0.113712,-1.214508,-0.0007,0.0001,0.0254,180.0000,0.0000,0.0000
309,3.0900,-0.1598,-0.4298,6.1027,6.1199,0.0000,0.0000,0.0000,20.0000,120.5791,122.7381,208.9540,254.2083,62.4155,0.000658,40.7091,-27.0050,-37.3284,64.3334,40.7091,1.3790,-10.9239,-15.4451,-1.5673,0.8646,-0.043497,0.101331,-1.200738,-0.0057,0.0002,0.0288,180.0000,0.0000,0.0000
310,3.1000,-0.1722,-0.3602,6.1471,6.1601,0.0000,0.0000,0.0000,20.0000,119.9394,122.6018,164.1635,250.4871,64.2883,0.000662,40.7091,-27.0050,-37.3284,64.3334,40.7091,1.3790,-10.9239,-15.4451,-1.5673,0.8646,-0.050001,0.087326,-1.195166,-0.0093,-0.0010,0.0311,180.0000,0.0000,0.0000
311,3.1100,-0.1806,-0.3054,6.2245,6.2346,0.0000,0.0000,0.0000,20.0000,120.0945,122.4596,142.6595,245.1471,66.1924,0.000532,40.7091,-27.0050,-37.3284,64.3334,40.7091,1.3790,-10.9239,-15.4451,-1.5673,0.8646,-0.054337,0.073925,-1.197435,-0.0112,-0.0029,0.0315,180.0000,0.0000,0.0000
312,3.1200,-0.1924,-0.2710,6.3154,6.3241,0.0000,0.0000,0.0000,20.0000,124.9741,122.4637,503.8060,249.4425,68.2067,0.000575,40.5357,-25.1904,-35.2208,60.4112,40.5357,1.4566,-11.3914,-14.5474,-1.6710,0.7386,-0.052420,0.064854,-1.246956,-0.0105,-0.0062,0.0317,180.0000,0.0000,0.0000
313,3.1300,-0.2119,-0.2595,6.4009,6.4097,0.0000,0.0000,0.0000,20.0000,128.2828,122.6928,340.2808,258.9369,70.3076,0.000547,40.5357,-25.1904,-35.2208,60.4112,40.5357,1.4566,-11.3914,-14.5474,-1.6710,0.7386,-0.053208,0.058556,-1.280386,-0.0085,-0.0100,0.0320,180.0000,0.0000,0.0000
314,3.1400,-0.2510,-0.2695,6.4690,6.4795,0.0000,0.0000,0.0000,20.0000,130.5586,123.0629,232.7227,260.4532,72.4788,0.000552,40.5357,-25.1904,-35.2208,60.4112,40.5357,1.4566,-11.3914,-14.5474,-1.6710,0.7386,-0.057448,0.055953,-1.303120,-0.0051,-0.0146,0.0300,180.0000,0.0000,0.0000
315,3.1500,-0.3088,-0.2969,6.5121,6.5262,0.0000,0.0000,0.0000,20.0000,132.0255,123.5155,164.0770,257.0398,74.7069,0.000513,40.5357,-25.1904,-35.2208,60.4112,40.5357,1.4566,-11.3914,-14.5474,-1.6710,0.7386,-0.065454,0.057150,-1.317392,-0.0009,-0.0180,0.0298,180.0000,0.0000,0.0000
316,3.1600,-0.3716,-0.3326,6.5257,6.5448,0.0000,0.0000,0.0000,20.0000,132.7601,124.0039,131.3728,251.0266,76.9792,0.000514,40.5357,-25.1904,-35.2208,60.4112,40.5357,1.4566,-11.3914,-14.5474,-1.6710,0.7386,-0.076034,0.061263,-1.324006,0.0032,-0.0221,0.0291,180.0000,0.0000,0.0000
317,3.1700,-0.4354,-0.3722,6.5106,6.5358,0.0000,0.0000,0.0000,20.0000,132.8141,124.4870,135.4478,244.5567,79.2832,0.000571,40.5357,-25.1904,-35.2208,60.4112,40.5357,1.4566,-11.3914,-14.5474,-1.6710,0.7386,-0.088110,0.067376,-1.323501,0.0048,-0.0249,0.0287,180.0000,0.0000,0.0000
318,3.1800,-0.5024,-0.4134,6.4707,6.5033,0.0000,0.0000,0.0000,20.0000,132.2588,124.9298,166.2034,239.4008,81.6075,0.000494,40.5357,-25.1904,-35.2208,60.4112,40.5357,1.4566,-11.3914,-14.5474,-1.6710,0.7386,-0.101304,0.074745,-1.316583,0.0054,-0.0259,0.0272,180.0000,0.0000,0.0000
319,3.1900,-0.5702,-0.4415,6.4057,6.4462,0.0000,0.0000,0.0000,20.0000,131.1243,125.3017,201.3994,236.3424,83.9404,0.000548,40.5357,-25.1904,-35.2208,60.4112,40.5357,1.4566,-11.3914,-14.5474,-1.6710,0.7386,-0.115183,0.081472,-1.303631,0.0052,-0.0255,0.0265,180.0000,0.0000,0.0000
320,3.2000,-0.6354,-0.4322,6.3193,6.3658,0.0000,0.0000,0.0000,20.0000,129.4422,125.5758,232.5909,235.2781,86.2708,0.000685,40.5357,-25.1904,-35.2208,60.4112,40.5357,1.4566,-11.3914,-14.5474,-1.6710,0.7386,-0.129144,0.084105,-1.285215,0.0062,-0.0245,0.0252,180.0000,0.0000,0.0000
321,3.2100,-0.6995,-0.3923,6.2270,6.2785,0.0000,0.0000,0.0000,20.0000,127.3916,125.7321,261.2260,235.9179,88.5907,0.000657,40.5357,-25.1904,-35.2208,60.4112,40.5357,1.4566,-11.3914,-14.5474,-1.6710,0.7386,-0.143011,0.081397,-1.263243,0.0061,-0.0221,0.0257,180.0000,0.0000,0.0000
322,3.2200,-0.7650,-0.3385,6.1478,6.2044,0.0000,0.0000,0.0000,20.0000,125.2738,125.7651,274.6460,237.6791,90.8972,0.000720,40.5357,-25.1904,-35.2208,60.4112,40.5357,1.4566,-11.3914,-14.5474,-1.6710,0.7386,-0.156938,0.074359,-1.240642,0.0070,-0.0187,0.0246,180.0000,0.0000,0.0000
323,3.2300,-0.8236,-0.2791,6.1084,6.1700,0.0000,0.0000,0.0000,20.0000,123.5203,125.6898,251.5549,239.0775,93.1959,0.000554,40.5357,-25.1904,-35.2208,60.4112,40.5357,1.4566,-11.3914,-14.5474,-1.6710,0.7386,-0.170185,0.064382,-1.221728,0.0088,-0.0183,0.0247,180.0000,0.0000,0.0000
324,3.2400,-0.8657,-0.2375,6.1318,6.1972,0.0000,0.0000,0.0000,20.0000,122.5898,125.5449,182.4262,237.8625,95.5021,0.000632,40.5357,-25.1904,-35.2208,60.4112,40.5357,1.4566,-11.3914,-14.5474,-1.6710,0.7386,-0.181379,0.054576,-1.211176,0.0115,-0.0190,0.0260,180.0000,0.0000,0.0000
325,3.2500,-0.8911,-0.2211,6.2176,6.2851,0.0000,0.0000,0.0000,20.0000,122.7185,125.3859,110.1979,232.8265,97.8372,0.000668,40.5357,-25.1904,-35.2208,60.4112,40.5357,1.4566,-11.3914,-14.5474,-1.6710,0.7386,-0.189738,0.047402,-1.211501,0.0146,-0.0209,0.0266,180.0000,0.0000,0.0000
326,3.2600,-0.8997,-0.2317,6.3626,6.4301,0.0000,0.0000,0.0000,20.0000,123.9969,125.2743,136.1442,226.7946,100.2258,0.000596,40.5357,-25.1904,-35.2208,60.4112,40.5357,1.4566,-11.3914,-14.5474,-1.6710,0.7386,-0.194846,0.044402,-1.223759,0.0174,-0.0243,0.0272,180.0000,0.0000,0.0000
327,3.2700,-0.8965,-0.2736,6.5622,6.6288,0.0000,0.0000,0.0000,20.0000,126.4357,125.2711,244.9748,224.8014,102.6939,0.000619,40.5357,-25.1904,-35.2208,60.4112,40.5357,1.4566,-11.3914,-14.5474,-1.6710,0.7386,-0.196960,0.046845,-1.248043,0.0203,-0.0283,0.0278,180.0000,0.0000,0.0000
328,3.2800,-0.8838,-0.3359,6.7894,6.8549,0.0000,0.0000,0.0000,20.0000,129.7799,125.4272,344.7531,228.6554,105.2630,0.000578,40.5357,-25.1904,-35.2208,60.4112,40.5357,1.4566,-11.3914,-14.5474,-1.6710,0.7386,-0.196461,0.054331,-1.281692,0.0240,-0.0307,0.0286,180.0000,0.0000,0.0000
329,3.2900,-0.8563,-0.4095,7.0085,7.0725,0.0000,0.0000,0.0000,20.0000,133.5302,125.7698,397.6655,236.4970,107.9453,0.000562,40.5357,-25.1904,-35.2208,60.4112,40.5357,1.4566,-11.3914,-14.5474,-1.6710,0.7386,-0.193043,0.065720,-1.319639,0.0244,-0.0331,0.0287,180.0000,0.0000,0.0000
330,3.3000,-0.8314,-0.4842,7.2006,7.2646,0.0000,0.0000,0.0000,20.0000,137.2476,126.2989,402.2684,245.4892,110.7434,0.000507,40.5357,-25.1904,-35.2208,60.4112,40.5357,1.4566,-11.3914,-14.5474,-1.6710,0.7386,-0.188272,0.079354,-1.357183,0.0230,-0.0346,0.0267,180.0000,0.0000,0.0000
331,3.3100,-0.8215,-0.5476,7.3494,7.4155,0.0000,0.0000,0.0000,20.0000,140.5355,126.9916,358.9396,252.9216,113.6502,0.000579,40.5357,-25.1904,-35.2208,60.4112,40.5357,1.4566,-11.3914,-14.5474,-1.6710,0.7386,-0.184277,0.093077,-1.390109,0.0209,-0.0341,0.0257,180.0000,0.0000,0.0000
332,3.3200,-0.8209,-0.5857,7.4273,7.4955,0.0000,0.0000,0.0000,20.0000,147.1589,127.9188,678.9256,267.5543,116.7406,0.000586,40.6705,-23.3064,-32.9950,56.3014,40.6705,0.0521,-11.3292,-14.7379,-1.6336,-0.0001,-0.181012,0.106923,-1.456494,0.0201,-0.0325,0.0249,-180.0000,-0.0000,0.0000
333,3.3300,-0.8327,-0.5958,7.4295,7.4997,0.0000,0.0000,0.0000,20.0000,150.5756,129.0711,350.5103,281.1503,119.9491,0.000730,40.6705,-23.3064,-32.9950,56.3014,40.6705,0.0521,-11.3292,-14.7379,-1.6336,-0.0001,-0.180028,0.115378,-1.490496,0.0160,-0.0303,0.0235,-180.0000,-0.0000,0.0000
334,3.3400,-0.8575,-0.5904,7.3671,7.4403,0.0000,0.0000,0.0000,20.0000,151.5725,130.2814,104.5912,278.2019,123.2241,0.000588,40.6705,-23.3064,-32.9950,56.3014,40.6705,0.0521,-11.3292,-14.7379,-1.6336,-0.0001,-0.181600,0.119280,-1.500072,0.0117,-0.0288,0.0229,-180.0000,-0.0000,0.0000
335,3.3500,-0.8730,-0.5682,7.2428,7.3173,0.0000,0.0000,0.0000,20.0000,150.5916,131.4256,103.4985,268.6218,126.5219,0.000630,40.6705,-23.3064,-32.9950,56.3014,40.6705,0.0521,-11.3292,-14.7379,-1.6336,-0.0001,-0.183656,0.118977,-1.489932,0.0062,-0.0269,0.0239,-180.0000,-0.0000,0.0000
336,3.3600,-0.8746,-0.5198,7.0648,7.1377,0.0000,0.0000,0.0000,20.0000,147.9524,132.4073,269.1250,264.0941,129.8047,0.000552,40.6705,-23.3064,-32.9950,56.3014,40.6705,0.0521,-11.3292,-14.7379,-1.6336,-0.0001,-0.184586,0.113735,-1.463552,0.0019,-0.0254,0.0237,-180.0000,-0.0000,0.0000
337,3.3700,-0.8781,-0.4501,6.8570,6.9276,0.0000,0.0000,0.0000,20.0000,144.0959,133.1564,396.0450,267.8617,133.0425,0.000606,40.6705,-23.3064,-32.9950,56.3014,40.6705,0.0521,-11.3292,-14.7379,-1.6336,-0.0001,-0.185080,0.103633,-1.425260,-0.0054,-0.0237,0.0234,-180.0000,-0.0000,0.0000
338,3.3800,-0.8840,-0.3745,6.6433,6.7123,0.0000,0.0000,0.0000,20.0000,139.5214,133.6323,473.1665,277.0339,136.2153,0.000555,40.6705,-23.3064,-32.9950,56.3014,40.6705,0.0521,-11.3292,-14.7379,-1.6336,-0.0001,-0.185569,0.090286,-1.379868,-0.0125,-0.0207,0.0250,-180.0000,-0.0000,0.0000
339,3.3900,-0.8894,-0.2968,6.4403,6.5082,0.0000,0.0000,0.0000,20.0000,134.6734,133.8229,505.3315,288.7075,139.3127,0.000553,40.6705,-23.3064,-32.9950,56.3014,40.6705,0.0521,-11.3292,-14.7379,-1.6336,-0.0001,-0.186017,0.074960,-1.331717,-0.0184,-0.0175,0.0263,-180.0000,-0.0000,0.0000
340,3.4000,-0.8914,-0.2149,6.2664,6.3332,0.0000,0.0000,0.0000,20.0000,129.9758,133.7405,496.0032,300.3670,142.3343,0.000577,40.6705,-23.3064,-32.9950,56.3014,40.6705,0.0521,-11.3292,-14.7379,-1.6336,-0.0001,-0.186087,0.058147,-1.285053,-0.0224,-0.0147,0.0280,-180.0000,-0.0000,0.0000
341,3.4100,-0.8772,-0.1349,6.1378,6.2016,0.0000,0.0000,0.0000,20.0000,125.8067,133.4187,447.9227,309.8061,145.2896,0.000556,40.6705,-23.3064,-32.9950,56.3014,40.6705,0.0521,-11.3292,-14.7379,-1.6336,-0.0001,-0.184333,0.040732,-1.243822,-0.0269,-0.0119,0.0311,-180.0000,-0.0000,0.0000
342,3.4200,-0.8361,-0.0601,6.0619,6.1195,0.0000,0.0000,0.0000,20.0000,122.4318,132.9072,374.9268,315.3959,148.1965,0.000578,40.6705,-23.3064,-32.9950,56.3014,40.6705,0.0521,-11.3292,-14.7379,-1.6336,-0.0001,-0.178884,0.023543,-1.210951,-0.0309,-0.0105,0.0350,-180.0000,-0.0000,0.0000
343,3.4300,-0.7716,0.0165,6.0286,6.0778,0.0000,0.0000,0.0000,20.0000,119.9029,132.2614,310.5808,316.9009,151.0748,0.000659,40.6705,-23.3064,-32.9950,56.3014,40.6705,0.0521,-11.3292,-14.7379,-1.6336,-0.0001,-0.169066,0.006334,-1.187033,-0.0339,-0.0110,0.0382,-180.0000,-0.0000,0.0000
344,3.4400,-0.6931,0.0923,6.0193,6.0598,0.0000,0.0000,0.0000,20.0000,118.0834,131.5316,274.0240,315.5477,153.9417,0.000546,40.6705,-23.3064,-32.9950,56.3014,40.6705,0.0521,-11.3292,-14.7379,-1.6336,-0.0001,-0.155452,-0.010767,-1.170507,-0.0366,-0.0108,0.0420,-180.0000,-0.0000,0.0000
345,3.4500,-0.6144,0.1446,6.0202,6.0532,0.0000,0.0000,0.0000,20.0000,116.7786,130.7559,243.2092,312.4161,156.8090,0.000629,40.6705,-23.3064,-32.9950,56.3014,40.6705,0.0521,-11.3292,-14.7379,-1.6336,-0.0001,-0.139741,-0.025427,-1.159116,-0.0380,-0.0102,0.0438,-180.0000,-0.0000,0.0000
346,3.4600,-0.5472,0.1690,6.0128,6.0400,0.0000,0.0000,0.0000,20.0000,115.6995,129.9574,210.5962,307.7121,159.6812,0.000572,40.6705,-23.3064,-32.9950,56.3014,40.6705,0.0521,-11.3292,-14.7379,-1.6336,-0.0001,-0.124058,-0.035919,-1.149764,-0.0352,-0.0086,0.0442,-180.0000,-0.0000,0.0000
347,3.4700,-0.4974,0.1723,5.9771,6.0003,0.0000,0.0000,0.0000,20.0000,114.4816,129.1396,187.4767,301.7341,162.5534,0.000552,40.6705,-23.3064,-32.9950,56.3014,40.6705,0.0521,-11.3292,-14.7379,-1.6336,-0.0001,-0.110165,-0.041977,-1.138730,-0.0311,-0.0056,0.0425,-180.0000,-0.0000,0.0000
348,3.4800,-0.4675,0.1545,5.9061,5.9266,0.0000,0.0000,0.0000,20.0000,112.8466,128.2883,189.8473,295.5142,165.4131,0.000736,40.6705,-23.3064,-32.9950,56.3014,40.6705,0.0521,-11.3292,-14.7379,-1.6336,-0.0001,-0.099274,-0.043465,-1.123250,-0.0242,-0.0016,0.0402,-180.0000,-0.0000,0.0000
349,3.4900,-0.4544,0.1212,5.8030,5.8220,0.0000,0.0000,0.0000,20.0000,110.6703,127.3790,225.6659,290.6869,168.2445,0.000581,40.6705,-23.3064,-32.9950,56.3014,40.6705,0.0521,-11.3292,-14.7379,-1.6336,-0.0001,-0.091744,-0.040866,-1.102137,-0.0179,0.0018,0.0357,-180.0000,-0.0000,0.0000
350,3.5000,-0.4503,0.0808,5.6717,5.6901,0.0000,0.0000,0.0000,20.0000,107.9215,126.3843,279.8635,288.6008,171.0307,0.000548,40.6705,-23.3064,-32.9950,56.3014,40.6705,0.0521,-11.3292,-14.7379,-1.6336,-0.0001,-0.086984,-0.035307,-1.075124,-0.0122,0.0044,0.0318,-180.0000,-0.0000,0.0000
351,3.5100,-0.4496,0.0500,5.5238,5.5423,0.0000,0.0000,0.0000,20.0000,104.7045,125.2802,325.9713,289.3884,173.7568,0.000603,40.6705,-23.3064,-32.9950,56.3014,40.6705,0.0521,-11.3292,-14.7379,-1.6336,-0.0001,-0.084111,-0.029084,-1.043256,-0.0086,0.0070,0.0273,-180.0000,-0.0000,0.0000
352,3.5200,-0.4518,0.0307,5.3866,5.4056,0.0000,0.0000,0.0000,20.0000,106.3531,124.1937,186.0360,287.5519,176.5489,0.000557,41.0612,-21.0444,-30.4087,51.4531,41.0612,-1.0095,-10.7286,-14.8910,-1.5158,-0.6220,-0.086501,-0.020921,-1.059801,-0.0054,0.0090,0.0247,180.0000,0.0000,0.0000
353,3.5300,-0.4576,0.0068,5.2896,5.3093,0.0000,0.0000,0.0000,20.0000,106.0895,123.2051,76.4044,278.9524,179.3566,0.000576,41.0612,-21.0444,-30.4087,51.4531,41.0612,-1.0095,-10.7286,-14.8910,-1.5158,-0.6220,-0.088223,-0.013975,-1.057128,-0.0042,0.0103,0.0228,180.0000,0.0000,0.0000
354,3.5400,-0.4655,-0.0131,5.2554,5.2760,0.0000,0.0000,0.0000,20.0000,105.3985,122.2446,92.6860,268.2585,182.1681,0.000544,41.0612,-21.0444,-30.4087,51.4531,41.0612,-1.0095,-10.7286,-14.8910,-1.5158,-0.6220,-0.089795,-0.008113,-1.050122,-0.0020,0.0136,0.0244,180.0000,0.0000,0.0000
355,3.5500,-0.4612,-0.0167,5.3006,5.3207,0.0000,0.0000,0.0000,20.0000,105.2538,121.3140,39.0242,257.1247,184.9980,0.000511,41.0612,-21.0444,-30.4087,51.4531,41.0612,-1.0095,-10.7286,-14.8910,-1.5158,-0.6220,-0.090050,-0.004500,-1.048669,0.0001,0.0206,0.0274,180.0000,0.0000,0.0000
356,3.5600,-0.4331,-0.0269,5.4391,5.4564,0.0000,0.0000,0.0000,20.0000,106.3201,120.4598,117.1097,247.2751,187.8804,0.000527,41.0612,-21.0444,-30.4087,51.4531,41.0612,-1.0095,-10.7286,-14.8910,-1.5158,-0.6220,-0.087203,-0.001471,-1.059618,-0.0010,0.0260,0.0327,180.0000,0.0000,0.0000
357,3.5700,-0.3764,-0.0396,5.6613,5.6739,0.0000,0.0000,0.0000,20.0000,108.8696,119.7522,273.4128,244.4139,190.8586,0.000493,41.0612,-21.0444,-30.4087,51.4531,41.0612,-1.0095,-10.7286,-14.8910,-1.5158,-0.6220,-0.079784,0.001476,-1.085768,-0.0005,0.0312,0.0371,180.0000,0.0000,0.0000
358,3.5800,-0.2853,-0.0381,5.9294,5.9364,0.0000,0.0000,0.0000,20.0000,112.6824,119.2584,413.4232,249.8599,193.9706,0.000497,41.0612,-21.0444,-30.4087,51.4531,41.0612,-1.0095,-10.7286,-14.8910,-1.5158,-0.6220,-0.066415,0.002953,-1.124861,0.0003,0.0366,0.0399,180.0000,0.0000,0.0000
359,3.5900,-0.1578,-0.0368,6.2068,6.2090,0.0000,0.0000,0.0000,20.0000,117.2879,119.0233,512.8825,261.5927,197.2422,0.000620,41.0612,-21.0444,-30.4087,51.4531,41.0612,-1.0095,-10.7286,-14.8910,-1.5158,-0.6220,-0.046138,0.003632,-1.171966,0.0014,0.0397,0.0405,180.0000,0.0000,0.0000
