GerardoEmirSanchez/Integraci-n-de-xArm5-5-DOF-en-NVIDIA-Isaac-Sim-con-ROS-2-Humble-para-pHRI/mediciones/2026.04.28_VIC_pHRI_tanh_2026-04-28_12-26-59.csv
Index,Time_s,Fx,Fy,Fz,F_Amp,Psi_Imp,Psi_Int,Beta,K_Stiffness,Vel_Raw,Vel_Filt,Acc_Raw,Acc_Filt,Lyapunov_V_Nmm,Loop_Duration_s,q1,q2,q3,q4,q5,tau1,tau2,tau3,tau4,tau5,deltaXcmd,deltaYcmd,deltaZcmd,Tx_EE,Ty_EE,Tz_EE,Roll,Pitch,Yaw
0,0.0000,-0.1089,0.0058,0.1358,0.1742,0.0000,0.0000,0.0000,20.0000,3.2730,0.4178,51.6882,15.6118,0.0001,0.000680,0.0000,0.0000,0.0000,0.0000,0.0000,-0.0000,-6.3732,-3.6123,-0.9928,0.0000,-0.018924,-0.002039,-0.026627,-0.0013,0.0016,-0.0001,-180.0000,0.0000,0.0000
1,0.0100,-0.1145,-0.0070,0.1229,0.1681,0.0000,0.0000,0.0000,20.0000,3.4593,0.5800,33.2893,17.0902,0.0002,0.000664,0.0000,0.0000,0.0000,0.0000,0.0000,-0.0000,-6.3732,-3.6123,-0.9928,0.0000,-0.021815,-0.000404,-0.026844,-0.0030,0.0018,-0.0008,-180.0000,0.0000,0.0000
2,0.0200,-0.1121,-0.0253,0.1107,0.1595,0.0000,0.0000,0.0000,20.0000,3.4642,0.7385,32.3827,17.9564,0.0003,0.000610,0.0000,0.0000,0.0000,0.0000,0.0000,-0.0000,-6.3732,-3.6123,-0.9928,0.0000,-0.023124,0.002323,-0.025689,-0.0027,0.0019,0.0005,-180.0000,0.0000,0.0000
3,0.0300,-0.1051,-0.0366,0.0990,0.1489,0.0000,0.0000,0.0000,20.0000,3.3560,0.8855,32.3112,18.7480,0.0004,0.000573,0.0000,0.0000,0.0000,0.0000,0.0000,-0.0000,-6.3732,-3.6123,-0.9928,0.0000,-0.023106,0.004964,-0.023828,-0.0028,0.0014,0.0016,-180.0000,0.0000,0.0000
4,0.0400,-0.0983,-0.0378,0.0900,0.1386,0.0000,0.0000,0.0000,20.0000,3.1948,1.0170,26.2656,19.3278,0.0005,0.000593,0.0000,0.0000,0.0000,0.0000,0.0000,-0.0000,-6.3732,-3.6123,-0.9928,0.0000,-0.022372,0.006532,-0.021852,-0.0028,0.0009,0.0016,-180.0000,0.0000,0.0000
5,0.0500,-0.0871,-0.0374,0.0914,0.1317,0.0000,0.0000,0.0000,20.0000,3.0357,1.1324,20.3014,19.5454,0.0007,0.000674,0.0000,0.0000,0.0000,0.0000,0.0000,-0.0000,-6.3732,-3.6123,-0.9928,0.0000,-0.020795,0.007341,-0.020862,-0.0023,-0.0000,0.0020,-180.0000,0.0000,0.0000
6,0.0600,-0.0782,-0.0380,0.0975,0.1307,0.0000,0.0000,0.0000,20.0000,2.9297,1.2342,18.6488,19.5415,0.0008,0.000637,0.0000,0.0000,0.0000,0.0000,0.0000,-0.0000,-6.3732,-3.6123,-0.9928,0.0000,-0.018998,0.007839,-0.020879,-0.0020,0.0003,0.0029,-180.0000,0.0000,0.0000
7,0.0700,-0.0862,-0.0414,0.0959,0.1354,0.0000,0.0000,0.0000,20.0000,2.9177,1.3271,6.6952,19.1636,0.0010,0.000657,0.0000,0.0000,0.0000,0.0000,0.0000,-0.0000,-6.3732,-3.6123,-0.9928,0.0000,-0.018767,0.008437,-0.020686,-0.0021,0.0000,0.0003,-180.0000,0.0000,0.0000
8,0.0800,-0.1014,-0.0497,0.0855,0.1416,0.0000,0.0000,0.0000,20.0000,2.9609,1.4158,21.3198,18.8800,0.0012,0.000501,0.0000,0.0000,0.0000,0.0000,0.0000,-0.0000,-6.3732,-3.6123,-0.9928,0.0000,-0.020118,0.009582,-0.019497,-0.0020,-0.0000,-0.0012,-180.0000,0.0000,0.0000
9,0.0900,-0.1132,-0.0646,0.0737,0.1498,0.0000,0.0000,0.0000,20.0000,3.0521,1.5033,33.9332,19.3611,0.0014,0.000595,0.0000,0.0000,0.0000,0.0000,0.0000,-0.0000,-6.3732,-3.6123,-0.9928,0.0000,-0.022008,0.011686,-0.017624,-0.0025,0.0005,-0.0007,-180.0000,0.0000,0.0000
10,0.1000,-0.1274,-0.0811,0.0651,0.1644,0.0000,0.0000,0.0000,20.0000,3.2438,1.5938,41.6308,20.3744,0.0016,0.000603,0.0000,0.0000,0.0000,0.0000,0.0000,-0.0000,-6.3732,-3.6123,-0.9928,0.0000,-0.024425,0.014472,-0.015692,-0.0035,0.0009,-0.0016,-180.0000,0.0000,0.0000
11,0.1100,-0.1416,-0.0918,0.0622,0.1799,0.0000,0.0000,0.0000,20.0000,3.5096,1.6918,39.9588,21.4977,0.0019,0.000615,0.0000,0.0000,0.0000,0.0000,0.0000,-0.0000,-6.3732,-3.6123,-0.9928,0.0000,-0.027134,0.017058,-0.014300,-0.0034,0.0005,-0.0020,-180.0000,0.0000,0.0000
12,0.1200,-0.1456,-0.0917,0.0671,0.1847,0.0000,0.0000,0.0000,20.0000,3.7090,1.7973,23.2468,22.0536,0.0022,0.000654,0.0000,0.0000,0.0000,0.0000,0.0000,-0.0000,-6.3732,-3.6123,-0.9928,0.0000,-0.028975,0.018445,-0.013995,-0.0022,0.0011,-0.0002,-180.0000,0.0000,0.0000
13,0.1300,-0.1370,-0.0811,0.0753,0.1760,0.0000,0.0000,0.0000,20.0000,3.7236,1.9029,7.1093,21.6754,0.0025,0.000627,0.0000,0.0000,0.0000,0.0000,0.0000,-0.0000,-6.3732,-3.6123,-0.9928,0.0000,-0.029072,0.018106,-0.014613,-0.0012,0.0017,0.0006,-180.0000,0.0000,0.0000
14,0.1400,-0.1258,-0.0688,0.0808,0.1646,0.0000,0.0000,0.0000,20.0000,3.6033,1.9997,20.3036,21.2370,0.0029,0.000578,0.0000,0.0000,0.0000,0.0000,0.0000,-0.0000,-6.3732,-3.6123,-0.9928,0.0000,-0.027950,0.016655,-0.015484,-0.0020,0.0017,0.0005,-180.0000,0.0000,0.0000
15,0.1500,-0.1116,-0.0559,0.0803,0.1484,0.0000,0.0000,0.0000,20.0000,3.3962,2.0822,28.6912,21.4164,0.0032,0.000565,0.0065,0.0517,0.0107,-0.0623,0.0065,-0.0009,-6.3554,-3.6026,-0.9909,-0.0000,-0.026089,0.014572,-0.016139,0.0002,0.0018,0.0018,-180.0000,-0.0000,0.0000
16,0.1600,-0.0891,-0.0429,0.0728,0.1228,0.0000,0.0000,0.0000,20.0000,3.0190,2.1441,41.7084,22.1746,0.0036,0.000509,0.0065,0.0517,0.0107,-0.0623,0.0065,-0.0009,-6.3554,-3.6026,-0.9909,-0.0000,-0.022758,0.012097,-0.015723,0.0013,0.0017,0.0028,-180.0000,-0.0000,0.0000
17,0.1700,-0.0619,-0.0274,0.0647,0.0937,0.0000,0.0000,0.0000,20.0000,2.5059,2.1782,55.6969,23.6338,0.0039,0.000494,0.0065,0.0517,0.0107,-0.0623,0.0065,-0.0009,-6.3554,-3.6026,-0.9909,-0.0000,-0.018150,0.009158,-0.014653,0.0009,0.0007,0.0039,-180.0000,-0.0000,0.0000
18,0.1800,-0.0364,-0.0096,0.0619,0.0725,0.0000,0.0000,0.0000,20.0000,1.9784,2.1817,62.3878,25.5816,0.0041,0.000555,0.0065,0.0517,0.0107,-0.0623,0.0065,-0.0009,-6.3554,-3.6026,-0.9909,-0.0000,-0.013017,0.005727,-0.013754,0.0003,0.0001,0.0039,-180.0000,-0.0000,0.0000
19,0.1900,-0.0154,0.0018,0.0625,0.0644,0.0000,0.0000,0.0000,20.0000,1.5773,2.1595,58.3682,27.4956,0.0043,0.000559,0.0065,0.0517,0.0107,-0.0623,0.0065,-0.0009,-6.3554,-3.6026,-0.9909,-0.0000,-0.008056,0.002686,-0.013291,0.0008,-0.0010,0.0041,-180.0000,-0.0000,0.0000
20,0.2000,0.0002,0.0092,0.0600,0.0607,0.0000,0.0000,0.0000,20.0000,1.3296,2.1206,49.8372,28.9592,0.0045,0.000625,0.0065,0.0517,0.0107,-0.0623,0.0065,-0.0009,-6.3554,-3.6026,-0.9909,-0.0000,-0.003738,0.000256,-0.012758,0.0002,-0.0009,0.0037,-180.0000,-0.0000,0.0000
21,0.2100,0.0039,0.0169,0.0552,0.0579,0.0000,0.0000,0.0000,20.0000,1.2139,2.0739,35.7288,29.7197,0.0046,0.000489,0.0065,0.0517,0.0107,-0.0623,0.0065,-0.0009,-6.3554,-3.6026,-0.9909,-0.0000,-0.000969,-0.001856,-0.011957,-0.0011,-0.0000,0.0019,-180.0000,-0.0000,0.0000
22,0.2200,-0.0043,0.0161,0.0475,0.0504,0.0000,0.0000,0.0000,20.0000,1.1118,2.0238,17.9462,29.5611,0.0047,0.000445,0.0065,0.0517,0.0107,-0.0623,0.0065,-0.0009,-6.3554,-3.6026,-0.9909,-0.0000,-0.000261,-0.002944,-0.010718,-0.0022,0.0010,-0.0003,-180.0000,-0.0000,0.0000
23,0.2300,-0.0195,0.0124,0.0398,0.0460,0.0000,0.0000,0.0000,20.0000,0.9871,1.9702,18.6415,28.9413,0.0048,0.000606,0.0065,0.0517,0.0107,-0.0623,0.0065,-0.0009,-6.3554,-3.6026,-0.9909,-0.0000,-0.001381,-0.003170,-0.009246,-0.0021,0.0016,-0.0013,-180.0000,-0.0000,0.0000
24,0.2400,-0.0367,0.0125,0.0369,0.0535,0.0000,0.0000,0.0000,20.0000,0.9516,1.9152,26.0240,28.5778,0.0049,0.000548,0.0065,0.0517,0.0107,-0.0623,0.0065,-0.0009,-6.3554,-3.6026,-0.9909,-0.0000,-0.003721,-0.003294,-0.008115,-0.0018,0.0019,-0.0018,-180.0000,-0.0000,0.0000
25,0.2500,-0.0593,0.0094,0.0360,0.0701,0.0000,0.0000,0.0000,20.0000,1.0806,1.8657,36.3303,28.7208,0.0050,0.000594,0.0065,0.0517,0.0107,-0.0623,0.0065,-0.0009,-6.3554,-3.6026,-0.9909,-0.0000,-0.007272,-0.003047,-0.007389,-0.0020,0.0026,-0.0021,-180.0000,-0.0000,0.0000
26,0.2600,-0.0801,0.0109,0.0372,0.0890,0.0000,0.0000,0.0000,20.0000,1.3687,1.8304,40.3928,29.2511,0.0052,0.000564,0.0065,0.0517,0.0107,-0.0623,0.0065,-0.0009,-6.3554,-3.6026,-0.9909,-0.0000,-0.011301,-0.003050,-0.007093,-0.0012,0.0028,-0.0015,-180.0000,-0.0000,0.0000
27,0.2700,-0.0927,0.0152,0.0375,0.1012,0.0000,0.0000,0.0000,20.0000,1.6684,1.8133,34.9279,29.7137,0.0054,0.000520,0.0065,0.0517,0.0107,-0.0623,0.0065,-0.0009,-6.3554,-3.6026,-0.9909,-0.0000,-0.014764,-0.003479,-0.006947,-0.0008,0.0026,0.0000,-180.0000,-0.0000,0.0000
28,0.2800,-0.1035,0.0110,0.0327,0.1091,0.0000,0.0000,0.0000,20.0000,1.9124,1.8120,30.2777,29.8726,0.0056,0.000485,0.0065,0.0517,0.0107,-0.0623,0.0065,-0.0009,-6.3554,-3.6026,-0.9909,-0.0000,-0.017730,-0.003286,-0.006371,-0.0008,0.0024,0.0002,-180.0000,-0.0000,0.0000
29,0.2900,-0.1182,0.0065,0.0245,0.1209,0.0000,0.0000,0.0000,20.0000,2.1615,1.8244,33.2148,29.9757,0.0059,0.000621,0.0065,0.0517,0.0107,-0.0623,0.0065,-0.0009,-6.3554,-3.6026,-0.9909,-0.0000,-0.020796,-0.002730,-0.005220,-0.0004,0.0036,0.0001,-180.0000,-0.0000,0.0000
30,0.3000,-0.1283,0.0038,0.0173,0.1295,0.0000,0.0000,0.0000,20.0000,2.3872,1.8491,30.5552,30.0807,0.0062,0.000578,0.0065,0.0517,0.0107,-0.0623,0.0065,-0.0009,-6.3554,-3.6026,-0.9909,-0.0000,-0.023462,-0.002144,-0.003847,0.0004,0.0034,0.0004,-180.0000,-0.0000,0.0000
31,0.3100,-0.1311,-0.0080,0.0116,0.1319,0.0000,0.0000,0.0000,20.0000,2.5304,1.8827,26.3785,29.9919,0.0065,0.000556,0.0065,0.0517,0.0107,-0.0623,0.0065,-0.0009,-6.3554,-3.6026,-0.9909,-0.0000,-0.025171,-0.000640,-0.002514,-0.0006,0.0034,0.0000,-180.0000,-0.0000,0.0000
32,0.3200,-0.1356,-0.0276,0.0128,0.1390,0.0000,0.0000,0.0000,20.0000,2.6667,1.9221,31.6729,29.9388,0.0068,0.000554,0.0065,0.0517,0.0107,-0.0623,0.0065,-0.0009,-6.3554,-3.6026,-0.9909,-0.0000,-0.026512,0.002161,-0.001894,-0.0018,0.0039,-0.0007,-180.0000,-0.0000,0.0000
33,0.3300,-0.1348,-0.0473,0.0222,0.1445,0.0000,0.0000,0.0000,20.0000,2.7815,1.9662,36.0746,30.1552,0.0072,0.000601,0.0065,0.0517,0.0107,-0.0623,0.0065,-0.0009,-6.3554,-3.6026,-0.9909,-0.0000,-0.027117,0.005669,-0.002481,-0.0019,0.0035,0.0005,-180.0000,-0.0000,0.0000
34,0.3400,-0.1281,-0.0645,0.0281,0.1462,0.0000,0.0000,0.0000,20.0000,2.8519,2.0130,37.8554,30.5298,0.0076,0.000584,0.0065,0.0517,0.0107,-0.0623,0.0065,-0.0009,-6.3554,-3.6026,-0.9909,-0.0000,-0.026737,0.009323,-0.003395,-0.0030,0.0019,0.0006,-180.0000,-0.0000,0.0000
35,0.3500,-0.1227,-0.0760,0.0308,0.1476,0.0000,0.0000,0.0000,20.0000,2.9747,2.0625,35.7862,30.8759,0.0081,0.000631,0.0330,0.1415,0.0437,-0.1852,0.0330,0.0053,-6.3819,-3.5830,-1.3251,-0.0000,-0.026511,0.012661,-0.004666,-0.0031,0.0022,0.0002,-180.0000,-0.0000,0.0000
36,0.3600,-0.1143,-0.0698,0.0318,0.1376,0.0000,0.0000,0.0000,20.0000,2.9521,2.1120,17.6900,30.6483,0.0086,0.000580,0.0330,0.1415,0.0437,-0.1852,0.0330,0.0053,-6.3819,-3.5830,-1.3251,-0.0000,-0.025486,0.013862,-0.005462,-0.0016,0.0018,0.0005,-180.0000,-0.0000,0.0000
37,0.3700,-0.1007,-0.0503,0.0252,0.1153,0.0000,0.0000,0.0000,20.0000,2.7157,2.1518,23.8439,30.1047,0.0090,0.000533,0.0330,0.1415,0.0437,-0.1852,0.0330,0.0053,-6.3819,-3.5830,-1.3251,-0.0000,-0.023510,0.012548,-0.005231,0.0000,0.0009,0.0008,-180.0000,-0.0000,0.0000
38,0.3800,-0.0852,-0.0351,0.0171,0.0938,0.0000,0.0000,0.0000,20.0000,2.3616,2.1730,36.4043,30.1058,0.0094,0.000536,0.0330,0.1415,0.0437,-0.1852,0.0330,0.0053,-6.3819,-3.5830,-1.3251,-0.0000,-0.020825,0.010280,-0.004282,0.0009,0.0007,0.0008,-180.0000,-0.0000,0.0000
39,0.3900,-0.0639,-0.0285,0.0186,0.0724,0.0000,0.0000,0.0000,20.0000,1.9477,2.1720,41.6104,30.5954,0.0098,0.000515,0.0330,0.1415,0.0437,-0.1852,0.0330,0.0053,-6.3819,-3.5830,-1.3251,-0.0000,-0.017162,0.008343,-0.003898,0.0024,0.0022,0.0014,-180.0000,-0.0000,0.0000
40,0.4000,-0.0380,-0.0291,0.0249,0.0540,0.0000,0.0000,0.0000,20.0000,1.5128,2.1477,47.7106,31.3691,0.0101,0.000552,0.0330,0.1415,0.0437,-0.1852,0.0330,0.0053,-6.3819,-3.5830,-1.3251,-0.0000,-0.012521,0.007316,-0.004309,0.0014,0.0019,0.0025,-180.0000,-0.0000,0.0000
41,0.4100,-0.0077,-0.0353,0.0293,0.0465,0.0000,0.0000,0.0000,20.0000,1.1236,2.1021,56.6649,32.5143,0.0103,0.000550,0.0330,0.1415,0.0437,-0.1852,0.0330,0.0053,-6.3819,-3.5830,-1.3251,-0.0000,-0.006893,0.007354,-0.004966,0.0014,0.0007,0.0044,-180.0000,-0.0000,0.0000
42,0.4200,0.0295,-0.0430,0.0345,0.0625,0.0000,0.0000,0.0000,20.0000,1.0009,2.0449,69.4256,34.1938,0.0104,0.000567,0.0330,0.1415,0.0437,-0.1852,0.0330,0.0053,-6.3819,-3.5830,-1.3251,-0.0000,-0.000049,0.008131,-0.005837,0.0002,-0.0004,0.0053,-180.0000,-0.0000,0.0000
43,0.4300,0.0611,-0.0545,0.0386,0.0905,0.0000,0.0000,0.0000,20.0000,1.3658,1.9975,71.6779,36.1937,0.0104,0.000599,0.0330,0.1415,0.0437,-0.1852,0.0330,0.0053,-6.3819,-3.5830,-1.3251,-0.0000,0.006891,0.009690,-0.006720,-0.0015,-0.0007,0.0051,-180.0000,-0.0000,0.0000
44,0.4400,0.0780,-0.0625,0.0388,0.1073,0.0000,0.0000,0.0000,20.0000,1.8289,1.9755,57.7805,37.7634,0.0103,0.000602,0.0330,0.1415,0.0437,-0.1852,0.0330,0.0053,-6.3819,-3.5830,-1.3251,-0.0000,0.012407,0.011337,-0.007211,-0.0023,-0.0026,0.0046,-180.0000,-0.0000,0.0000
45,0.4500,0.0813,-0.0621,0.0395,0.1096,0.0000,0.0000,0.0000,20.0000,2.1292,1.9757,34.6798,38.2292,0.0102,0.000551,0.0330,0.1415,0.0437,-0.1852,0.0330,0.0053,-6.3819,-3.5830,-1.3251,-0.0000,0.015756,0.012179,-0.007535,-0.0015,-0.0031,0.0046,-180.0000,-0.0000,0.0000
46,0.4600,0.0660,-0.0585,0.0425,0.0979,0.0000,0.0000,0.0000,20.0000,2.1729,1.9853,5.6083,37.2343,0.0102,0.000604,0.0330,0.1415,0.0437,-0.1852,0.0330,0.0053,-6.3819,-3.5830,-1.3251,-0.0000,0.016052,0.012265,-0.008003,-0.0019,-0.0024,0.0027,-180.0000,-0.0000,0.0000
47,0.4700,0.0288,-0.0517,0.0431,0.0732,0.0000,0.0000,0.0000,20.0000,1.8945,1.9880,36.6319,36.3479,0.0101,0.000678,0.0330,0.1415,0.0437,-0.1852,0.0330,0.0053,-6.3819,-3.5830,-1.3251,-0.0000,0.012461,0.011605,-0.008304,-0.0011,-0.0003,0.0007,-180.0000,-0.0000,0.0000
48,0.4800,-0.0150,-0.0430,0.0428,0.0625,0.0000,0.0000,0.0000,20.0000,1.4658,1.9711,65.1856,37.1489,0.0102,0.000515,0.0330,0.1415,0.0437,-0.1852,0.0330,0.0053,-6.3819,-3.5830,-1.3251,-0.0000,0.006065,0.010350,-0.008422,-0.0007,0.0002,0.0007,-180.0000,-0.0000,0.0000
49,0.4900,-0.0481,-0.0356,0.0423,0.0733,0.0000,0.0000,0.0000,20.0000,1.2279,1.9367,70.0755,38.8256,0.0104,0.000579,0.0330,0.1415,0.0437,-0.1852,0.0330,0.0053,-6.3819,-3.5830,-1.3251,-0.0000,-0.000790,0.008899,-0.008424,-0.0016,0.0019,0.0016,-180.0000,-0.0000,0.0000
50,0.5000,-0.0690,-0.0316,0.0393,0.0855,0.0000,0.0000,0.0000,20.0000,1.3003,1.8997,60.1082,40.2705,0.0106,0.000666,0.0330,0.1415,0.0437,-0.1852,0.0330,0.0053,-6.3819,-3.5830,-1.3251,-0.0000,-0.006666,0.007672,-0.008111,-0.0009,0.0033,0.0019,-180.0000,-0.0000,0.0000
51,0.5100,-0.0812,-0.0315,0.0383,0.0951,0.0000,0.0000,0.0000,20.0000,1.5277,1.8730,45.1599,40.9506,0.0109,0.000654,0.0330,0.1415,0.0437,-0.1852,0.0330,0.0053,-6.3819,-3.5830,-1.3251,-0.0000,-0.011118,0.006974,-0.007818,-0.0004,0.0029,0.0015,-180.0000,-0.0000,0.0000
52,0.5200,-0.0816,-0.0343,0.0482,0.1008,0.0000,0.0000,0.0000,20.0000,1.7508,1.8601,26.1806,40.6601,0.0113,0.000566,0.0330,0.1415,0.0437,-0.1852,0.0330,0.0053,-6.3819,-3.5830,-1.3251,-0.0000,-0.013603,0.006851,-0.008635,-0.0007,0.0020,0.0026,-180.0000,-0.0000,0.0000
53,0.5300,-0.0783,-0.0289,0.0627,0.1044,0.0000,0.0000,0.0000,20.0000,1.9052,1.8584,22.2641,39.7559,0.0117,0.000632,0.0330,0.1415,0.0437,-0.1852,0.0330,0.0053,-6.3819,-3.5830,-1.3251,-0.0000,-0.014615,0.006226,-0.010517,-0.0010,0.0027,0.0022,-180.0000,-0.0000,0.0000
54,0.5400,-0.0815,-0.0186,0.0738,0.1115,0.0000,0.0000,0.0000,20.0000,2.0557,1.8651,26.7738,38.9177,0.0122,0.000792,0.0330,0.1415,0.0437,-0.1852,0.0330,0.0053,-6.3819,-3.5830,-1.3251,-0.0000,-0.015470,0.004840,-0.012642,-0.0010,0.0013,0.0013,-180.0000,-0.0000,0.0000
55,0.5500,-0.0908,-0.0124,0.0836,0.1240,0.0000,0.0000,0.0000,20.0000,2.3414,1.8834,33.7780,38.4424,0.0127,0.000748,0.0760,0.2035,0.0835,-0.2871,0.0760,0.0003,-6.3788,-3.5885,-0.9944,0.0000,-0.017437,0.003759,-0.015166,-0.0024,0.0002,-0.0002,-180.0000,-0.0000,0.0000
56,0.5600,-0.1012,-0.0071,0.0893,0.1351,0.0000,0.0000,0.0000,20.0000,2.6089,1.9160,30.6748,38.1004,0.0133,0.000521,0.0760,0.2035,0.0835,-0.2871,0.0760,0.0003,-6.3788,-3.5885,-0.9944,0.0000,-0.019535,0.002619,-0.017093,-0.0029,0.0013,-0.0004,-180.0000,-0.0000,0.0000
57,0.5700,-0.1145,-0.0074,0.0869,0.1439,0.0000,0.0000,0.0000,20.0000,2.8414,1.9605,26.4921,37.5769,0.0139,0.000575,0.0760,0.2035,0.0835,-0.2871,0.0760,0.0003,-6.3788,-3.5885,-0.9944,0.0000,-0.021989,0.002012,-0.017883,-0.0032,0.0023,-0.0018,-180.0000,-0.0000,0.0000
58,0.5800,-0.1257,-0.0212,0.0807,0.1508,0.0000,0.0000,0.0000,20.0000,3.0292,2.0141,26.4542,36.9661,0.0146,0.000616,0.0760,0.2035,0.0835,-0.2871,0.0760,0.0003,-6.3788,-3.5885,-0.9944,0.0000,-0.024412,0.003051,-0.017673,-0.0030,0.0011,-0.0005,-180.0000,-0.0000,0.0000
59,0.5900,-0.1243,-0.0412,0.0771,0.1519,0.0000,0.0000,0.0000,20.0000,3.1298,2.0727,28.6266,36.4476,0.0154,0.000539,0.0760,0.2035,0.0835,-0.2871,0.0760,0.0003,-6.3788,-3.5885,-0.9944,0.0000,-0.025565,0.005621,-0.017158,-0.0024,0.0010,0.0004,-180.0000,-0.0000,0.0000
60,0.6000,-0.1152,-0.0561,0.0765,0.1492,0.0000,0.0000,0.0000,20.0000,3.1484,2.1314,29.4701,36.0406,0.0162,0.000466,0.0760,0.2035,0.0835,-0.2871,0.0760,0.0003,-6.3788,-3.5885,-0.9944,0.0000,-0.025239,0.008525,-0.016780,-0.0011,0.0011,0.0011,-180.0000,-0.0000,0.0000
61,0.6100,-0.1020,-0.0648,0.0769,0.1432,0.0000,0.0000,0.0000,20.0000,3.0932,2.1858,29.0609,35.6679,0.0169,0.000617,0.0760,0.2035,0.0835,-0.2871,0.0760,0.0003,-6.3788,-3.5885,-0.9944,0.0000,-0.023698,0.010980,-0.016571,-0.0008,0.0005,0.0002,-180.0000,-0.0000,0.0000
62,0.6200,-0.0879,-0.0732,0.0803,0.1398,0.0000,0.0000,0.0000,20.0000,3.0195,2.2337,31.7698,35.3790,0.0177,0.000626,0.0760,0.2035,0.0835,-0.2871,0.0760,0.0003,-6.3788,-3.5885,-0.9944,0.0000,-0.021389,0.013153,-0.016771,-0.0018,-0.0004,0.0005,-180.0000,-0.0000,0.0000
63,0.6300,-0.0805,-0.0776,0.0895,0.1433,0.0000,0.0000,0.0000,20.0000,3.0124,2.2767,28.0599,35.0784,0.0185,0.000566,0.0760,0.2035,0.0835,-0.2871,0.0760,0.0003,-6.3788,-3.5885,-0.9944,0.0000,-0.019326,0.014772,-0.017769,-0.0008,0.0012,-0.0011,-180.0000,-0.0000,0.0000
64,0.6400,-0.0817,-0.0741,0.0989,0.1481,0.0000,0.0000,0.0000,20.0000,3.0603,2.3185,18.6899,34.4346,0.0193,0.000638,0.0760,0.2035,0.0835,-0.2871,0.0760,0.0003,-6.3788,-3.5885,-0.9944,0.0000,-0.018262,0.015288,-0.019217,-0.0012,0.0008,-0.0024,-180.0000,-0.0000,0.0000
65,0.6500,-0.0841,-0.0721,0.1017,0.1504,0.0000,0.0000,0.0000,20.0000,3.1080,2.3606,11.1436,33.3610,0.0202,0.000578,0.0760,0.2035,0.0835,-0.2871,0.0760,0.0003,-6.3788,-3.5885,-0.9944,0.0000,-0.017885,0.015345,-0.020264,-0.0015,0.0005,-0.0025,-180.0000,-0.0000,0.0000
66,0.6600,-0.0873,-0.0773,0.0947,0.1503,0.0000,0.0000,0.0000,20.0000,3.1280,2.4023,5.4545,31.9824,0.0211,0.000721,0.0760,0.2035,0.0835,-0.2871,0.0760,0.0003,-6.3788,-3.5885,-0.9944,0.0000,-0.017962,0.015861,-0.020105,-0.0011,-0.0002,0.0002,-180.0000,-0.0000,0.0000
67,0.6700,-0.0841,-0.0795,0.0783,0.1398,0.0000,0.0000,0.0000,20.0000,3.0239,2.4393,18.6369,30.8857,0.0219,0.000716,0.0760,0.2035,0.0835,-0.2871,0.0760,0.0003,-6.3788,-3.5885,-0.9944,0.0000,-0.017647,0.016339,-0.018332,-0.0003,-0.0018,0.0007,-180.0000,-0.0000,0.0000
68,0.6800,-0.0679,-0.0744,0.0629,0.1188,0.0000,0.0000,0.0000,20.0000,2.7510,2.4640,31.5500,30.5671,0.0227,0.000706,0.0760,0.2035,0.0835,-0.2871,0.0760,0.0003,-6.3788,-3.5885,-0.9944,0.0000,-0.015818,0.016052,-0.015776,-0.0011,-0.0036,0.0018,-180.0000,-0.0000,0.0000
69,0.6900,-0.0549,-0.0696,0.0558,0.1048,0.0000,0.0000,0.0000,20.0000,2.4577,2.4717,32.5074,30.6475,0.0234,0.000604,0.0760,0.2035,0.0835,-0.2871,0.0760,0.0003,-6.3788,-3.5885,-0.9944,0.0000,-0.013477,0.015390,-0.013621,-0.0016,-0.0027,0.0032,-180.0000,-0.0000,0.0000
70,0.7000,-0.0517,-0.0671,0.0565,0.1019,0.0000,0.0000,0.0000,20.0000,2.2649,2.4656,21.0469,30.4346,0.0241,0.000627,0.0760,0.2035,0.0835,-0.2871,0.0760,0.0003,-6.3788,-3.5885,-0.9944,0.0000,-0.011835,0.014740,-0.012476,-0.0029,-0.0026,0.0039,-180.0000,-0.0000,0.0000
71,0.7100,-0.0483,-0.0685,0.0692,0.1087,0.0000,0.0000,0.0000,20.0000,2.2195,2.4533,14.3916,29.7351,0.0247,0.000545,0.0760,0.2035,0.0835,-0.2871,0.0760,0.0003,-6.3788,-3.5885,-0.9944,0.0000,-0.010557,0.014486,-0.013088,-0.0042,-0.0020,0.0032,-180.0000,-0.0000,0.0000
72,0.7200,-0.0458,-0.0695,0.0908,0.1232,0.0000,0.0000,0.0000,20.0000,2.3277,2.4435,26.5415,29.2253,0.0254,0.000596,0.0760,0.2035,0.0835,-0.2871,0.0760,0.0003,-6.3788,-3.5885,-0.9944,0.0000,-0.009586,0.014418,-0.015557,-0.0054,-0.0003,0.0029,-180.0000,-0.0000,0.0000
73,0.7300,-0.0472,-0.0634,0.1089,0.1346,0.0000,0.0000,0.0000,20.0000,2.4952,2.4417,32.4581,29.2404,0.0261,0.000569,0.0760,0.2035,0.0835,-0.2871,0.0760,0.0003,-6.3788,-3.5885,-0.9944,0.0000,-0.009163,0.013742,-0.018703,-0.0050,0.0008,0.0015,-180.0000,-0.0000,0.0000
74,0.7400,-0.0459,-0.0503,0.1197,0.1377,0.0000,0.0000,0.0000,20.0000,2.6958,2.4502,35.8726,29.5113,0.0269,0.000621,0.1263,0.3036,0.1169,-0.4206,0.1263,-0.0004,-6.3745,-3.5507,-1.6337,0.0000,-0.009394,0.012394,-0.022020,-0.0050,0.0005,0.0009,-180.0000,0.0000,0.0000
75,0.7500,-0.0380,-0.0334,0.1236,0.1336,0.0000,0.0000,0.0000,20.0000,2.7576,2.4654,33.6568,29.8003,0.0277,0.000558,0.1263,0.3036,0.1169,-0.4206,0.1263,-0.0004,-6.3745,-3.5507,-1.6337,0.0000,-0.008709,0.009930,-0.024207,-0.0035,0.0016,-0.0004,-180.0000,0.0000,0.0000
76,0.7600,-0.0299,-0.0201,0.1217,0.1269,0.0000,0.0000,0.0000,20.0000,2.7246,2.4805,31.1664,29.9439,0.0285,0.000662,0.1263,0.3036,0.1169,-0.4206,0.1263,-0.0004,-6.3745,-3.5507,-1.6337,0.0000,-0.007505,0.007223,-0.025177,-0.0039,0.0017,-0.0007,-180.0000,0.0000,0.0000
77,0.7700,-0.0232,-0.0152,0.1178,0.1211,0.0000,0.0000,0.0000,20.0000,2.6530,2.4920,24.1748,29.8189,0.0292,0.000570,0.1263,0.3036,0.1169,-0.4206,0.1263,-0.0004,-6.3745,-3.5507,-1.6337,0.0000,-0.006148,0.005225,-0.025274,-0.0033,0.0016,0.0009,-180.0000,0.0000,0.0000
78,0.7800,-0.0120,-0.0192,0.1142,0.1164,0.0000,0.0000,0.0000,20.0000,2.5672,2.4985,20.4250,29.4053,0.0300,0.000614,0.1263,0.3036,0.1169,-0.4206,0.1263,-0.0004,-6.3745,-3.5507,-1.6337,0.0000,-0.004270,0.004510,-0.024909,-0.0028,0.0000,0.0018,-180.0000,0.0000,0.0000
79,0.7900,0.0030,-0.0341,0.1143,0.1193,0.0000,0.0000,0.0000,20.0000,2.5353,2.5014,27.7977,29.1141,0.0306,0.000643,0.1263,0.3036,0.1169,-0.4206,0.1263,-0.0004,-6.3745,-3.5507,-1.6337,0.0000,-0.001721,0.005594,-0.024668,-0.0022,0.0002,0.0018,-180.0000,0.0000,0.0000
80,0.8000,0.0141,-0.0502,0.1245,0.1350,0.0000,0.0000,0.0000,20.0000,2.6687,2.5069,34.5072,29.2262,0.0313,0.000577,0.1263,0.3036,0.1169,-0.4206,0.1263,-0.0004,-6.3745,-3.5507,-1.6337,0.0000,0.000803,0.007790,-0.025512,-0.0023,0.0003,0.0021,-180.0000,0.0000,0.0000
81,0.8100,0.0186,-0.0561,0.1458,0.1573,0.0000,0.0000,0.0000,20.0000,2.9762,2.5243,36.1298,29.5613,0.0320,0.000535,0.1263,0.3036,0.1169,-0.4206,0.1263,-0.0004,-6.3745,-3.5507,-1.6337,0.0000,0.002645,0.009577,-0.028055,-0.0013,0.0007,0.0021,-180.0000,0.0000,0.0000
82,0.8200,0.0140,-0.0590,0.1674,0.1780,0.0000,0.0000,0.0000,20.0000,3.3524,2.5595,37.6778,29.9652,0.0328,0.000631,0.1263,0.3036,0.1169,-0.4206,0.1263,-0.0004,-6.3745,-3.5507,-1.6337,0.0000,0.003194,0.010836,-0.031564,-0.0010,0.0005,0.0012,-180.0000,0.0000,0.0000
83,0.8300,-0.0034,-0.0627,0.1813,0.1919,0.0000,0.0000,0.0000,20.0000,3.6845,2.6122,37.2334,30.3772,0.0338,0.000528,0.1263,0.3036,0.1169,-0.4206,0.1263,-0.0004,-6.3745,-3.5507,-1.6337,0.0000,0.001751,0.011878,-0.034834,-0.0018,0.0011,0.0015,-180.0000,0.0000,0.0000
84,0.8400,-0.0243,-0.0567,0.1854,0.1954,0.0000,0.0000,0.0000,20.0000,3.8841,2.6767,35.9305,30.7185,0.0349,0.000688,0.1263,0.3036,0.1169,-0.4206,0.1263,-0.0004,-6.3745,-3.5507,-1.6337,0.0000,-0.001133,0.011835,-0.036976,-0.0010,0.0019,0.0013,-180.0000,0.0000,0.0000
85,0.8500,-0.0412,-0.0464,0.1761,0.1867,0.0000,0.0000,0.0000,20.0000,3.8933,2.7434,34.5922,30.9684,0.0361,0.000632,0.1263,0.3036,0.1169,-0.4206,0.1263,-0.0004,-6.3745,-3.5507,-1.6337,0.0000,-0.004415,0.010756,-0.037156,-0.0018,0.0015,0.0018,-180.0000,0.0000,0.0000
86,0.8600,-0.0547,-0.0417,0.1522,0.1670,0.0000,0.0000,0.0000,20.0000,3.6901,2.8010,40.8800,31.3407,0.0374,0.000747,0.1263,0.3036,0.1169,-0.4206,0.1263,-0.0004,-6.3745,-3.5507,-1.6337,0.0000,-0.007572,0.009665,-0.034799,-0.0018,0.0012,0.0013,-180.0000,0.0000,0.0000
87,0.8700,-0.0611,-0.0332,0.1241,0.1423,0.0000,0.0000,0.0000,20.0000,3.3215,2.8398,50.3135,32.1249,0.0386,0.000725,0.1263,0.3036,0.1169,-0.4206,0.1263,-0.0004,-6.3745,-3.5507,-1.6337,0.0000,-0.009946,0.008194,-0.030613,-0.0001,0.0013,0.0011,-180.0000,0.0000,0.0000
88,0.8800,-0.0593,-0.0171,0.1025,0.1197,0.0000,0.0000,0.0000,20.0000,2.8904,2.8544,52.6883,33.1907,0.0397,0.000678,0.1263,0.3036,0.1169,-0.4206,0.1263,-0.0004,-6.3745,-3.5507,-1.6337,0.0000,-0.011058,0.005753,-0.026079,-0.0001,0.0003,0.0007,-180.0000,0.0000,0.0000
89,0.8900,-0.0601,-0.0065,0.0850,0.1043,0.0000,0.0000,0.0000,20.0000,2.4948,2.8455,49.9193,34.1871,0.0406,0.000567,0.1263,0.3036,0.1169,-0.4206,0.1263,-0.0004,-6.3745,-3.5507,-1.6337,0.0000,-0.011731,0.003333,-0.021765,-0.0013,-0.0009,0.0006,-180.0000,0.0000,0.0000
90,0.9000,-0.0668,-0.0017,0.0815,0.1054,0.0000,0.0000,0.0000,20.0000,2.2925,2.8207,34.7264,34.6346,0.0415,0.000583,0.1263,0.3036,0.1169,-0.4206,0.1263,-0.0004,-6.3745,-3.5507,-1.6337,0.0000,-0.012753,0.001511,-0.018991,-0.0004,-0.0026,0.0004,-180.0000,0.0000,0.0000
91,0.9100,-0.0799,0.0025,0.0958,0.1248,0.0000,0.0000,0.0000,20.0000,2.3845,2.7942,23.4536,34.3296,0.0424,0.000597,0.1263,0.3036,0.1169,-0.4206,0.1263,-0.0004,-6.3745,-3.5507,-1.6337,0.0000,-0.014603,0.000076,-0.018851,-0.0007,-0.0016,0.0005,-180.0000,0.0000,0.0000
92,0.9200,-0.0966,0.0028,0.1121,0.1480,0.0000,0.0000,0.0000,20.0000,2.6708,2.7795,31.6756,33.9575,0.0435,0.000467,0.1263,0.3036,0.1169,-0.4206,0.1263,-0.0004,-6.3745,-3.5507,-1.6337,0.0000,-0.017262,-0.000738,-0.020366,-0.0009,0.0003,0.0004,-180.0000,0.0000,0.0000
93,0.9300,-0.1106,-0.0004,0.1236,0.1659,0.0000,0.0000,0.0000,20.0000,3.0044,2.7827,34.4454,33.9082,0.0446,0.000448,0.1263,0.3036,0.1169,-0.4206,0.1263,-0.0004,-6.3745,-3.5507,-1.6337,0.0000,-0.020102,-0.000870,-0.022312,-0.0003,0.0021,0.0005,-180.0000,0.0000,0.0000
94,0.9400,-0.1246,-0.0100,0.1332,0.1827,0.0000,0.0000,0.0000,20.0000,3.4377,2.8068,45.5347,34.2427,0.0460,0.000604,0.1816,0.5048,0.1114,-0.6162,0.1816,-0.0018,-8.4398,-3.5152,-1.4345,-0.0000,-0.023376,0.000418,-0.025202,-0.0007,0.0027,0.0002,-180.0000,-0.0000,0.0000
95,0.9500,-0.1366,-0.0314,0.1334,0.1935,0.0000,0.0000,0.0000,20.0000,3.7697,2.8507,44.0038,34.8218,0.0476,0.000514,0.1816,0.5048,0.1114,-0.6162,0.1816,-0.0018,-8.4398,-3.5152,-1.4345,-0.0000,-0.026342,0.003267,-0.026767,-0.0013,0.0042,-0.0006,-180.0000,-0.0000,0.0000
96,0.9600,-0.1410,-0.0539,0.1206,0.1932,0.0000,0.0000,0.0000,20.0000,3.9321,2.9057,43.4024,35.3103,0.0493,0.000886,0.1816,0.5048,0.1114,-0.6162,0.1816,-0.0018,-8.4398,-3.5152,-1.4345,-0.0000,-0.028362,0.007080,-0.026298,-0.0012,0.0036,-0.0001,-180.0000,-0.0000,0.0000
97,0.9700,-0.1374,-0.0677,0.1055,0.1860,0.0000,0.0000,0.0000,20.0000,3.9438,2.9625,39.8674,35.6582,0.0510,0.000740,0.1816,0.5048,0.1114,-0.6162,0.1816,-0.0018,-8.4398,-3.5152,-1.4345,-0.0000,-0.029070,0.010553,-0.024473,-0.0013,0.0026,0.0007,-180.0000,-0.0000,0.0000
98,0.9800,-0.1315,-0.0815,0.0944,0.1813,0.0000,0.0000,0.0000,20.0000,3.8979,3.0152,39.3660,35.8760,0.0528,0.000738,0.1816,0.5048,0.1114,-0.6162,0.1816,-0.0018,-8.4398,-3.5152,-1.4345,-0.0000,-0.028811,0.013834,-0.022313,-0.0036,0.0015,0.0016,-180.0000,-0.0000,0.0000
99,0.9900,-0.1244,-0.0958,0.0893,0.1806,0.0000,0.0000,0.0000,20.0000,3.8624,3.0628,37.7787,36.0243,0.0545,0.000679,0.1816,0.5048,0.1114,-0.6162,0.1816,-0.0018,-8.4398,-3.5152,-1.4345,-0.0000,-0.027900,0.017053,-0.020558,-0.0033,0.0019,0.0021,-180.0000,-0.0000,0.0000
100,1.0000,-0.1178,-0.1041,0.0880,0.1801,0.0000,0.0000,0.0000,20.0000,3.8393,3.1061,30.6634,35.9251,0.0562,0.000707,0.1816,0.5048,0.1114,-0.6162,0.1816,-0.0018,-8.4398,-3.5152,-1.4345,-0.0000,-0.026677,0.019625,-0.019421,-0.0035,0.0020,0.0025,-180.0000,-0.0000,0.0000
101,1.0100,-0.1127,-0.1186,0.0849,0.1844,0.0000,0.0000,0.0000,20.0000,3.8626,3.1471,32.4758,35.6855,0.0580,0.000587,0.1816,0.5048,0.1114,-0.6162,0.1816,-0.0018,-8.4398,-3.5152,-1.4345,-0.0000,-0.025443,0.022464,-0.018439,-0.0055,0.0025,0.0021,-180.0000,-0.0000,0.0000
102,1.0200,-0.1090,-0.1437,0.0771,0.1961,0.0000,0.0000,0.0000,20.0000,3.9822,3.1897,43.8905,35.8229,0.0597,0.000527,0.1816,0.5048,0.1114,-0.6162,0.1816,-0.0018,-8.4398,-3.5152,-1.4345,-0.0000,-0.024339,0.026489,-0.017081,-0.0066,0.0025,0.0021,-180.0000,-0.0000,0.0000
103,1.0300,-0.1043,-0.1659,0.0699,0.2081,0.0000,0.0000,0.0000,20.0000,4.1657,3.2384,47.8222,36.3748,0.0615,0.000620,0.1816,0.5048,0.1114,-0.6162,0.1816,-0.0018,-8.4398,-3.5152,-1.4345,-0.0000,-0.023213,0.030885,-0.015575,-0.0046,0.0027,0.0016,-180.0000,-0.0000,0.0000
104,1.0400,-0.0935,-0.1727,0.0676,0.2077,0.0000,0.0000,0.0000,20.0000,4.2680,3.2922,36.8117,36.7017,0.0633,0.000509,0.1816,0.5048,0.1114,-0.6162,0.1816,-0.0018,-8.4398,-3.5152,-1.4345,-0.0000,-0.021462,0.033932,-0.014478,-0.0043,0.0027,0.0017,-180.0000,-0.0000,0.0000
105,1.0500,-0.0815,-0.1631,0.0674,0.1944,0.0000,0.0000,0.0000,20.0000,4.1935,3.3438,23.9672,36.3545,0.0650,0.000645,0.1816,0.5048,0.1114,-0.6162,0.1816,-0.0018,-8.4398,-3.5152,-1.4345,-0.0000,-0.019253,0.034594,-0.013825,-0.0024,0.0027,0.0014,-180.0000,-0.0000,0.0000
106,1.0600,-0.0703,-0.1394,0.0694,0.1708,0.0000,0.0000,0.0000,20.0000,3.9087,3.3827,31.6728,35.8850,0.0666,0.000553,0.1816,0.5048,0.1114,-0.6162,0.1816,-0.0018,-8.4398,-3.5152,-1.4345,-0.0000,-0.016870,0.032516,-0.013635,-0.0001,0.0012,0.0009,-180.0000,-0.0000,0.0000
107,1.0700,-0.0571,-0.1050,0.0775,0.1425,0.0000,0.0000,0.0000,20.0000,3.4395,3.3988,54.0707,36.2693,0.0681,0.000815,0.1816,0.5048,0.1114,-0.6162,0.1816,-0.0018,-8.4398,-3.5152,-1.4345,-0.0000,-0.014200,0.027864,-0.014316,0.0004,0.0005,0.0003,-180.0000,-0.0000,0.0000
108,1.0800,-0.0466,-0.0720,0.0900,0.1243,0.0000,0.0000,0.0000,20.0000,2.9495,3.3875,66.5217,37.5910,0.0695,0.000663,0.1816,0.5048,0.1114,-0.6162,0.1816,-0.0018,-8.4398,-3.5152,-1.4345,-0.0000,-0.011647,0.021932,-0.015914,-0.0006,0.0008,-0.0001,-180.0000,-0.0000,0.0000
109,1.0900,-0.0428,-0.0501,0.1040,0.1231,0.0000,0.0000,0.0000,20.0000,2.6390,3.3549,62.2326,39.0644,0.0708,0.000738,0.1816,0.5048,0.1114,-0.6162,0.1816,-0.0018,-8.4398,-3.5152,-1.4345,-0.0000,-0.009827,0.016425,-0.018169,-0.0011,-0.0001,-0.0011,-180.0000,-0.0000,0.0000
110,1.1000,-0.0431,-0.0392,0.1255,0.1384,0.0000,0.0000,0.0000,20.0000,2.6298,3.3153,54.4742,40.1255,0.0722,0.000722,0.1816,0.5048,0.1114,-0.6162,0.1816,-0.0018,-8.4398,-3.5152,-1.4345,-0.0000,-0.008830,0.012254,-0.021528,-0.0034,-0.0005,-0.0007,-180.0000,-0.0000,0.0000
111,1.1100,-0.0442,-0.0276,0.1539,0.1625,0.0000,0.0000,0.0000,20.0000,2.8851,3.2846,58.3139,41.0204,0.0736,0.000662,0.1816,0.5048,0.1114,-0.6162,0.1816,-0.0018,-8.4398,-3.5152,-1.4345,-0.0000,-0.008378,0.008766,-0.026179,-0.0041,0.0003,-0.0004,-180.0000,-0.0000,0.0000
112,1.1200,-0.0501,-0.0127,0.1764,0.1838,0.0000,0.0000,0.0000,20.0000,3.2581,3.2729,58.8565,41.9866,0.0752,0.000775,0.1816,0.5048,0.1114,-0.6162,0.1816,-0.0018,-8.4398,-3.5152,-1.4345,-0.0000,-0.008694,0.005326,-0.030945,-0.0034,0.0013,-0.0010,-180.0000,-0.0000,0.0000
113,1.1300,-0.0600,-0.0020,0.1858,0.1953,0.0000,0.0000,0.0000,20.0000,3.5916,3.2812,47.4879,42.6019,0.0769,0.000736,0.1816,0.5048,0.1114,-0.6162,0.1816,-0.0018,-8.4398,-3.5152,-1.4345,-0.0000,-0.009849,0.002349,-0.034460,-0.0031,0.0019,-0.0010,-180.0000,-0.0000,0.0000
114,1.1400,-0.0678,0.0061,0.1811,0.1934,0.0000,0.0000,0.0000,20.0000,3.8634,3.3058,36.5875,42.5709,0.0787,0.000709,0.2534,0.6827,0.1392,-0.8219,0.2534,0.0077,-9.0096,-3.4829,-1.2977,0.0000,-0.011947,0.000401,-0.036738,-0.0032,0.0015,-0.0001,-180.0000,0.0000,0.0000
115,1.1500,-0.0694,0.0168,0.1626,0.1776,0.0000,0.0000,0.0000,20.0000,3.8470,3.3360,25.9623,41.9495,0.0806,0.000741,0.2534,0.6827,0.1392,-0.8219,0.2534,0.0077,-9.0096,-3.4829,-1.2977,0.0000,-0.013246,-0.001747,-0.036075,-0.0022,0.0013,0.0005,-180.0000,0.0000,0.0000
116,1.1600,-0.0651,0.0209,0.1337,0.1502,0.0000,0.0000,0.0000,20.0000,3.5580,3.3562,37.0276,41.3744,0.0823,0.000632,0.2534,0.6827,0.1392,-0.8219,0.2534,0.0077,-9.0096,-3.4829,-1.2977,0.0000,-0.013508,-0.003345,-0.032746,-0.0016,0.0014,0.0013,-180.0000,0.0000,0.0000
117,1.1700,-0.0514,0.0171,0.1067,0.1197,0.0000,0.0000,0.0000,20.0000,3.0933,3.3545,47.9692,41.4362,0.0838,0.000715,0.2534,0.6827,0.1392,-0.8219,0.2534,0.0077,-9.0096,-3.4829,-1.2977,0.0000,-0.012253,-0.003839,-0.028142,-0.0013,0.0000,0.0018,-180.0000,0.0000,0.0000
118,1.1800,-0.0289,0.0088,0.0895,0.0945,0.0000,0.0000,0.0000,20.0000,2.5778,3.3259,52.7056,41.9259,0.0851,0.000767,0.2534,0.6827,0.1392,-0.8219,0.2534,0.0077,-9.0096,-3.4829,-1.2977,0.0000,-0.009283,-0.003269,-0.023826,-0.0013,-0.0012,0.0015,-180.0000,0.0000,0.0000
119,1.1900,-0.0012,-0.0053,0.0778,0.0780,0.0000,0.0000,0.0000,20.0000,2.0853,3.2712,59.6294,42.7093,0.0861,0.000645,0.2534,0.6827,0.1392,-0.8219,0.2534,0.0077,-9.0096,-3.4829,-1.2977,0.0000,-0.004856,-0.001547,-0.020221,-0.0003,-0.0011,0.0012,-180.0000,0.0000,0.0000
120,1.2000,0.0251,-0.0234,0.0706,0.0785,0.0000,0.0000,0.0000,20.0000,1.7508,3.1968,64.1291,43.7638,0.0868,0.000576,0.2534,0.6827,0.1392,-0.8219,0.2534,0.0077,-9.0096,-3.4829,-1.2977,0.0000,0.000231,0.001219,-0.017464,-0.0001,-0.0016,0.0015,-180.0000,0.0000,0.0000
121,1.2100,0.0381,-0.0370,0.0695,0.0875,0.0000,0.0000,0.0000,20.0000,1.6893,3.1156,52.9349,44.5761,0.0874,0.000641,0.2534,0.6827,0.1392,-0.8219,0.2534,0.0077,-9.0096,-3.4829,-1.2977,0.0000,0.004344,0.004106,-0.015800,-0.0000,-0.0009,0.0010,-180.0000,0.0000,0.0000
122,1.2200,0.0383,-0.0389,0.0691,0.0881,0.0000,0.0000,0.0000,20.0000,1.7256,3.0381,30.6814,44.4239,0.0880,0.000671,0.2534,0.6827,0.1392,-0.8219,0.2534,0.0077,-9.0096,-3.4829,-1.2977,0.0000,0.006633,0.005889,-0.014802,0.0003,-0.0005,0.0010,-180.0000,0.0000,0.0000
123,1.2300,0.0327,-0.0276,0.0646,0.0775,0.0000,0.0000,0.0000,20.0000,1.6616,2.9641,12.5441,43.1691,0.0884,0.000642,0.2534,0.6827,0.1392,-0.8219,0.2534,0.0077,-9.0096,-3.4829,-1.2977,0.0000,0.007325,0.005732,-0.013768,0.0017,0.0001,0.0019,-180.0000,0.0000,0.0000
124,1.2400,0.0136,-0.0096,0.0620,0.0642,0.0000,0.0000,0.0000,20.0000,1.4660,2.8871,25.9300,41.8526,0.0889,0.000621,0.2534,0.6827,0.1392,-0.8219,0.2534,0.0077,-9.0096,-3.4829,-1.2977,0.0000,0.005777,0.003834,-0.012916,0.0010,0.0003,0.0013,-180.0000,0.0000,0.0000
125,1.2500,-0.0197,0.0060,0.0677,0.0707,0.0000,0.0000,0.0000,20.0000,1.3138,2.8048,49.4105,41.6226,0.0894,0.000532,0.2534,0.6827,0.1392,-0.8219,0.2534,0.0077,-9.0096,-3.4829,-1.2977,0.0000,0.001585,0.001219,-0.012985,-0.0007,0.0017,0.0007,-180.0000,0.0000,0.0000
126,1.2600,-0.0474,0.0227,0.0787,0.0946,0.0000,0.0000,0.0000,20.0000,1.4653,2.7269,60.7182,42.3620,0.0901,0.000507,0.2534,0.6827,0.1392,-0.8219,0.2534,0.0077,-9.0096,-3.4829,-1.2977,0.0000,-0.003505,-0.001898,-0.014100,-0.0010,0.0009,0.0008,-180.0000,0.0000,0.0000
127,1.2700,-0.0656,0.0325,0.0912,0.1170,0.0000,0.0000,0.0000,20.0000,1.8478,2.6680,56.6574,43.2600,0.0910,0.000679,0.2534,0.6827,0.1392,-0.8219,0.2534,0.0077,-9.0096,-3.4829,-1.2977,0.0000,-0.008131,-0.004600,-0.015943,-0.0022,0.0015,0.0004,-180.0000,0.0000,0.0000
128,1.2800,-0.0786,0.0302,0.1076,0.1366,0.0000,0.0000,0.0000,20.0000,2.2850,2.6349,48.1568,43.7632,0.0921,0.000606,0.2534,0.6827,0.1392,-0.8219,0.2534,0.0077,-9.0096,-3.4829,-1.2977,0.0000,-0.011974,-0.005853,-0.018561,-0.0033,0.0010,-0.0010,-180.0000,0.0000,0.0000
129,1.2900,-0.0844,0.0270,0.1275,0.1552,0.0000,0.0000,0.0000,20.0000,2.7125,2.6274,43.4719,43.8760,0.0935,0.000554,0.2534,0.6827,0.1392,-0.8219,0.2534,0.0077,-9.0096,-3.4829,-1.2977,0.0000,-0.014659,-0.006214,-0.021961,-0.0030,0.0010,-0.0007,-180.0000,0.0000,0.0000
130,1.3000,-0.0802,0.0289,0.1413,0.1650,0.0000,0.0000,0.0000,20.0000,3.0395,2.6411,34.0470,43.5946,0.0951,0.000533,0.2534,0.6827,0.1392,-0.8219,0.2534,0.0077,-9.0096,-3.4829,-1.2977,0.0000,-0.015689,-0.006591,-0.025184,-0.0012,-0.0001,-0.0010,-180.0000,0.0000,0.0000
131,1.3100,-0.0750,0.0286,0.1487,0.1690,0.0000,0.0000,0.0000,20.0000,3.2516,2.6689,24.7484,42.8136,0.0968,0.000563,0.2534,0.6827,0.1392,-0.8219,0.2534,0.0077,-9.0096,-3.4829,-1.2977,0.0000,-0.015712,-0.006762,-0.027653,-0.0008,-0.0015,-0.0007,-180.0000,0.0000,0.0000
132,1.3200,-0.0804,0.0223,0.1531,0.1743,0.0000,0.0000,0.0000,20.0000,3.4151,2.7054,19.0216,41.6624,0.0986,0.000524,0.2534,0.6827,0.1392,-0.8219,0.2534,0.0077,-9.0096,-3.4829,-1.2977,0.0000,-0.016230,-0.006212,-0.029399,-0.0007,-0.0015,-0.0003,-180.0000,0.0000,0.0000
133,1.3300,-0.0879,0.0202,0.1533,0.1779,0.0000,0.0000,0.0000,20.0000,3.5343,2.7477,14.6813,40.2976,0.1006,0.000595,0.2534,0.6827,0.1392,-0.8219,0.2534,0.0077,-9.0096,-3.4829,-1.2977,0.0000,-0.017236,-0.005684,-0.030328,0.0004,-0.0007,0.0006,-180.0000,0.0000,0.0000
134,1.3400,-0.0862,0.0236,0.1474,0.1724,0.0000,0.0000,0.0000,20.0000,3.6480,2.7941,12.2649,38.8220,0.1026,0.000568,0.2891,0.9201,0.1337,-1.0538,0.2891,-0.0034,-8.8742,-3.4479,-1.1895,0.0000,-0.018017,-0.005460,-0.031247,-0.0000,-0.0015,0.0009,-180.0000,-0.0000,-0.0000
135,1.3500,-0.0800,0.0268,0.1338,0.1581,0.0000,0.0000,0.0000,20.0000,3.5613,2.8387,9.6295,37.2887,0.1046,0.000552,0.2891,0.9201,0.1337,-1.0538,0.2891,-0.0034,-8.8742,-3.4479,-1.1895,0.0000,-0.017791,-0.005646,-0.030329,-0.0008,-0.0013,0.0005,-180.0000,-0.0000,-0.0000
136,1.3600,-0.0752,0.0256,0.1146,0.1394,0.0000,0.0000,0.0000,20.0000,3.3184,2.8718,25.6765,36.2086,0.1065,0.000511,0.2891,0.9201,0.1337,-1.0538,0.2891,-0.0034,-8.8742,-3.4479,-1.1895,0.0000,-0.017159,-0.005623,-0.027841,-0.0030,0.0004,-0.0002,-180.0000,-0.0000,-0.0000
137,1.3700,-0.0731,0.0218,0.0955,0.1222,0.0000,0.0000,0.0000,20.0000,3.0029,2.8877,34.1531,35.8624,0.1083,0.000437,0.2891,0.9201,0.1337,-1.0538,0.2891,-0.0034,-8.8742,-3.4479,-1.1895,0.0000,-0.016557,-0.005214,-0.024504,-0.0027,0.0007,-0.0015,-180.0000,-0.0000,-0.0000
138,1.3800,-0.0787,0.0215,0.0803,0.1145,0.0000,0.0000,0.0000,20.0000,2.7390,2.8867,34.2530,35.7711,0.1099,0.000414,0.2891,0.9201,0.1337,-1.0538,0.2891,-0.0034,-8.8742,-3.4479,-1.1895,0.0000,-0.016755,-0.004948,-0.021095,-0.0032,0.0004,-0.0024,-180.0000,-0.0000,-0.0000
139,1.3900,-0.0945,0.0241,0.0663,0.1179,0.0000,0.0000,0.0000,20.0000,2.6073,2.8750,37.2459,35.7699,0.1114,0.000541,0.2891,0.9201,0.1337,-1.0538,0.2891,-0.0034,-8.8742,-3.4479,-1.1895,0.0000,-0.018409,-0.005049,-0.017759,-0.0030,0.0014,-0.0033,-180.0000,-0.0000,-0.0000
140,1.4000,-0.1106,0.0267,0.0523,0.1252,0.0000,0.0000,0.0000,20.0000,2.5988,2.8600,41.2323,35.9607,0.1128,0.000420,0.2891,0.9201,0.1337,-1.0538,0.2891,-0.0034,-8.8742,-3.4479,-1.1895,0.0000,-0.020900,-0.005357,-0.014488,-0.0033,0.0014,-0.0027,-180.0000,-0.0000,-0.0000
141,1.4100,-0.1165,0.0255,0.0422,0.1265,0.0000,0.0000,0.0000,20.0000,2.6176,2.8462,34.3626,36.0618,0.1142,0.000533,0.2891,0.9201,0.1337,-1.0538,0.2891,-0.0034,-8.8742,-3.4479,-1.1895,0.0000,-0.022818,-0.005396,-0.011637,-0.0019,0.0005,-0.0025,-180.0000,-0.0000,-0.0000
142,1.4200,-0.1127,0.0204,0.0319,0.1189,0.0000,0.0000,0.0000,20.0000,2.5599,2.8320,27.4613,35.7785,0.1155,0.000563,0.2891,0.9201,0.1337,-1.0538,0.2891,-0.0034,-8.8742,-3.4479,-1.1895,0.0000,-0.023454,-0.004897,-0.009013,-0.0024,0.0005,-0.0016,-180.0000,-0.0000,-0.0000
143,1.4300,-0.1019,0.0057,0.0224,0.1045,0.0000,0.0000,0.0000,20.0000,2.3832,2.8122,30.8526,35.4142,0.1167,0.000559,0.2891,0.9201,0.1337,-1.0538,0.2891,-0.0034,-8.8742,-3.4479,-1.1895,0.0000,-0.022685,-0.003146,-0.006592,-0.0036,0.0001,0.0001,-180.0000,-0.0000,-0.0000
144,1.4400,-0.0815,-0.0176,0.0208,0.0859,0.0000,0.0000,0.0000,20.0000,2.0803,2.7803,44.1957,35.5303,0.1178,0.000475,0.2891,0.9201,0.1337,-1.0538,0.2891,-0.0034,-8.8742,-3.4479,-1.1895,0.0000,-0.020172,0.000162,-0.005083,-0.0043,-0.0003,0.0013,-180.0000,-0.0000,-0.0000
145,1.4500,-0.0590,-0.0366,0.0322,0.0766,0.0000,0.0000,0.0000,20.0000,1.7780,2.7334,52.4694,36.2345,0.1188,0.000650,0.2891,0.9201,0.1337,-1.0538,0.2891,-0.0034,-8.8742,-3.4479,-1.1895,0.0000,-0.016495,0.003893,-0.005376,-0.0048,-0.0007,0.0012,-180.0000,-0.0000,-0.0000
146,1.4600,-0.0456,-0.0489,0.0535,0.0856,0.0000,0.0000,0.0000,20.0000,1.6766,2.6781,52.4841,37.1280,0.1199,0.000538,0.2891,0.9201,0.1337,-1.0538,0.2891,-0.0034,-8.8742,-3.4479,-1.1895,0.0000,-0.013084,0.007170,-0.007651,-0.0052,-0.0008,0.0028,-180.0000,-0.0000,-0.0000
147,1.4700,-0.0408,-0.0524,0.0738,0.0993,0.0000,0.0000,0.0000,20.0000,1.7906,2.6261,45.8966,37.7915,0.1211,0.000591,0.2891,0.9201,0.1337,-1.0538,0.2891,-0.0034,-8.8742,-3.4479,-1.1895,0.0000,-0.010694,0.009322,-0.010925,-0.0048,-0.0007,0.0026,-180.0000,-0.0000,-0.0000
148,1.4800,-0.0441,-0.0437,0.0872,0.1070,0.0000,0.0000,0.0000,20.0000,1.9591,2.5848,33.0093,37.8829,0.1224,0.000628,0.2891,0.9201,0.1337,-1.0538,0.2891,-0.0034,-8.8742,-3.4479,-1.1895,0.0000,-0.009685,0.009619,-0.014054,-0.0027,0.0007,0.0022,-180.0000,-0.0000,-0.0000
149,1.4900,-0.0540,-0.0334,0.0932,0.1128,0.0000,0.0000,0.0000,20.0000,2.1116,2.5546,25.0288,37.3953,0.1239,0.000422,0.2891,0.9201,0.1337,-1.0538,0.2891,-0.0034,-8.8742,-3.4479,-1.1895,0.0000,-0.010092,0.008738,-0.016361,-0.0023,0.0012,0.0023,-180.0000,-0.0000,-0.0000
150,1.5000,-0.0641,-0.0327,0.0905,0.1156,0.0000,0.0000,0.0000,20.0000,2.2246,2.5333,16.6282,36.4840,0.1254,0.000464,0.2891,0.9201,0.1337,-1.0538,0.2891,-0.0034,-8.8742,-3.4479,-1.1895,0.0000,-0.011314,0.008160,-0.017329,-0.0024,0.0019,0.0026,-180.0000,-0.0000,-0.0000
151,1.5100,-0.0674,-0.0324,0.0832,0.1119,0.0000,0.0000,0.0000,20.0000,2.2456,2.5169,10.6844,35.2283,0.1270,0.000444,0.2891,0.9201,0.1337,-1.0538,0.2891,-0.0034,-8.8742,-3.4479,-1.1895,0.0000,-0.012292,0.007797,-0.017099,-0.0017,0.0033,0.0003,-180.0000,-0.0000,-0.0000
152,1.5200,-0.0684,-0.0258,0.0794,0.1080,0.0000,0.0000,0.0000,20.0000,2.2110,2.5010,12.0476,33.9157,0.1286,0.000491,0.2891,0.9201,0.1337,-1.0538,0.2891,-0.0034,-8.8742,-3.4479,-1.1895,0.0000,-0.012913,0.006915,-0.016562,-0.0020,0.0041,-0.0005,-180.0000,-0.0000,-0.0000
153,1.5300,-0.0773,-0.0261,0.0787,0.1133,0.0000,0.0000,0.0000,20.0000,2.2400,2.4859,13.4805,32.7522,0.1302,0.000511,0.2891,0.9201,0.1337,-1.0538,0.2891,-0.0034,-8.8742,-3.4479,-1.1895,0.0000,-0.014111,0.006450,-0.016156,-0.0031,0.0039,-0.0012,-180.0000,-0.0000,-0.0000
154,1.5400,-0.0853,-0.0298,0.0818,0.1219,0.0000,0.0000,0.0000,20.0000,2.4371,2.4778,22.7141,31.9460,0.1320,0.000554,0.2815,1.0752,0.1625,-1.2376,0.2815,0.0015,-9.0035,-3.4121,-1.4894,0.0000,-0.016225,0.006494,-0.016986,-0.0027,0.0036,-0.0009,-180.0000,-0.0000,0.0000
155,1.5500,-0.0867,-0.0248,0.0947,0.1308,0.0000,0.0000,0.0000,20.0000,2.6303,2.4809,21.9126,31.4162,0.1339,0.000487,0.2815,1.0752,0.1625,-1.2376,0.2815,0.0015,-9.0035,-3.4121,-1.4894,0.0000,-0.017504,0.005998,-0.018695,-0.0018,0.0041,-0.0003,-180.0000,-0.0000,0.0000
156,1.5600,-0.0884,-0.0208,0.1136,0.1455,0.0000,0.0000,0.0000,20.0000,2.8756,2.4958,30.0204,31.1164,0.1360,0.000552,0.2815,1.0752,0.1625,-1.2376,0.2815,0.0015,-9.0035,-3.4121,-1.4894,0.0000,-0.018346,0.005317,-0.021495,-0.0020,0.0030,0.0003,-180.0000,-0.0000,0.0000
157,1.5700,-0.0827,-0.0255,0.1299,0.1560,0.0000,0.0000,0.0000,20.0000,3.1091,2.5231,31.3544,31.0928,0.1383,0.000672,0.2815,1.0752,0.1625,-1.2376,0.2815,0.0015,-9.0035,-3.4121,-1.4894,0.0000,-0.018197,0.005393,-0.024626,-0.0012,0.0013,0.0017,-180.0000,-0.0000,0.0000
158,1.5800,-0.0672,-0.0279,0.1425,0.1600,0.0000,0.0000,0.0000,20.0000,3.2643,2.5596,33.9701,31.1791,0.1407,0.000594,0.2815,1.0752,0.1625,-1.2376,0.2815,0.0015,-9.0035,-3.4121,-1.4894,0.0000,-0.016529,0.005665,-0.027573,-0.0022,0.0002,0.0022,-180.0000,-0.0000,0.0000
159,1.5900,-0.0535,-0.0323,0.1495,0.1620,0.0000,0.0000,0.0000,20.0000,3.3638,2.6011,32.9783,31.3054,0.1431,0.000472,0.2815,1.0752,0.1625,-1.2376,0.2815,0.0015,-9.0035,-3.4121,-1.4894,0.0000,-0.014209,0.006249,-0.029843,-0.0031,0.0000,0.0025,-180.0000,-0.0000,0.0000
160,1.6000,-0.0445,-0.0448,0.1486,0.1615,0.0000,0.0000,0.0000,20.0000,3.4102,2.6444,29.2443,31.2947,0.1456,0.000596,0.2815,1.0752,0.1625,-1.2376,0.2815,0.0015,-9.0035,-3.4121,-1.4894,0.0000,-0.011996,0.007805,-0.030953,-0.0031,-0.0006,0.0023,-180.0000,-0.0000,0.0000
161,1.6100,-0.0441,-0.0528,0.1436,0.1592,0.0000,0.0000,0.0000,20.0000,3.4130,2.6866,20.9149,30.9528,0.1481,0.000768,0.2815,1.0752,0.1625,-1.2376,0.2815,0.0015,-9.0035,-3.4121,-1.4894,0.0000,-0.010704,0.009449,-0.030999,-0.0030,-0.0002,0.0013,-180.0000,-0.0000,0.0000
162,1.6200,-0.0555,-0.0558,0.1362,0.1573,0.0000,0.0000,0.0000,20.0000,3.3915,2.7259,14.8224,30.2331,0.1506,0.000593,0.2815,1.0752,0.1625,-1.2376,0.2815,0.0015,-9.0035,-3.4121,-1.4894,0.0000,-0.011111,0.010645,-0.030223,-0.0026,0.0012,0.0005,-180.0000,-0.0000,0.0000
163,1.6300,-0.0700,-0.0577,0.1314,0.1597,0.0000,0.0000,0.0000,20.0000,3.3921,2.7626,20.9362,29.5535,0.1532,0.000610,0.2815,1.0752,0.1625,-1.2376,0.2815,0.0015,-9.0035,-3.4121,-1.4894,0.0000,-0.012772,0.011475,-0.029254,-0.0011,0.0015,0.0007,-180.0000,-0.0000,0.0000
164,1.6400,-0.0845,-0.0564,0.1356,0.1694,0.0000,0.0000,0.0000,20.0000,3.4821,2.7997,23.5986,29.1527,0.1559,0.000530,0.2815,1.0752,0.1625,-1.2376,0.2815,0.0015,-9.0035,-3.4121,-1.4894,0.0000,-0.015105,0.011779,-0.029080,-0.0018,0.0017,-0.0007,-180.0000,-0.0000,0.0000
165,1.6500,-0.0962,-0.0534,0.1446,0.1817,0.0000,0.0000,0.0000,20.0000,3.6504,2.8418,25.5493,28.9009,0.1587,0.000548,0.2815,1.0752,0.1625,-1.2376,0.2815,0.0015,-9.0035,-3.4121,-1.4894,0.0000,-0.017543,0.011620,-0.029829,-0.0011,0.0016,-0.0008,-180.0000,-0.0000,0.0000
166,1.6600,-0.0972,-0.0556,0.1516,0.1885,0.0000,0.0000,0.0000,20.0000,3.8087,2.8907,17.6272,28.4986,0.1618,0.000532,0.2815,1.0752,0.1625,-1.2376,0.2815,0.0015,-9.0035,-3.4121,-1.4894,0.0000,-0.018950,0.011734,-0.030884,-0.0008,0.0001,0.0006,-180.0000,-0.0000,0.0000
167,1.6700,-0.0861,-0.0646,0.1584,0.1915,0.0000,0.0000,0.0000,20.0000,3.9178,2.9442,15.6272,27.8456,0.1649,0.000771,0.2815,1.0752,0.1625,-1.2376,0.2815,0.0015,-9.0035,-3.4121,-1.4894,0.0000,-0.018581,0.012671,-0.032079,-0.0016,-0.0010,0.0018,-180.0000,-0.0000,0.0000
168,1.6800,-0.0689,-0.0767,0.1612,0.1913,0.0000,0.0000,0.0000,20.0000,3.9609,2.9989,27.3581,27.4961,0.1681,0.000625,0.2815,1.0752,0.1625,-1.2376,0.2815,0.0015,-9.0035,-3.4121,-1.4894,0.0000,-0.016624,0.014371,-0.032954,-0.0017,-0.0014,0.0015,-180.0000,-0.0000,0.0000
169,1.6900,-0.0539,-0.0832,0.1547,0.1838,0.0000,0.0000,0.0000,20.0000,3.9007,3.0502,30.5773,27.5771,0.1712,0.000634,0.2815,1.0752,0.1625,-1.2376,0.2815,0.0015,-9.0035,-3.4121,-1.4894,0.0000,-0.014008,0.015938,-0.032731,0.0002,-0.0020,0.0012,-180.0000,-0.0000,0.0000
170,1.7000,-0.0480,-0.0781,0.1430,0.1699,0.0000,0.0000,0.0000,20.0000,3.7296,3.0923,24.9961,27.5886,0.1741,0.000554,0.2815,1.0752,0.1625,-1.2376,0.2815,0.0015,-9.0035,-3.4121,-1.4894,0.0000,-0.011938,0.016263,-0.031369,0.0003,-0.0021,0.0004,-180.0000,-0.0000,0.0000
171,1.7100,-0.0495,-0.0618,0.1305,0.1527,0.0000,0.0000,0.0000,20.0000,3.4589,3.1199,27.3831,27.5117,0.1769,0.000632,0.2815,1.0752,0.1625,-1.2376,0.2815,0.0015,-9.0035,-3.4121,-1.4894,0.0000,-0.010924,0.014776,-0.029305,0.0004,-0.0010,0.0007,-180.0000,-0.0000,0.0000
172,1.7200,-0.0571,-0.0381,0.1206,0.1388,0.0000,0.0000,0.0000,20.0000,3.1496,3.1300,38.9677,27.8232,0.1795,0.000665,0.2815,1.0752,0.1625,-1.2376,0.2815,0.0015,-9.0035,-3.4121,-1.4894,0.0000,-0.011099,0.011557,-0.027116,0.0004,-0.0001,-0.0003,-180.0000,-0.0000,0.0000
173,1.7300,-0.0739,-0.0134,0.1143,0.1368,0.0000,0.0000,0.0000,20.0000,2.9228,3.1249,49.9836,28.7392,0.1819,0.000807,0.2815,1.0752,0.1625,-1.2376,0.2815,0.0015,-9.0035,-3.4121,-1.4894,0.0000,-0.012855,0.007278,-0.025221,0.0002,0.0007,-0.0005,-180.0000,-0.0000,0.0000
174,1.7400,-0.0943,0.0038,0.1107,0.1454,0.0000,0.0000,0.0000,20.0000,2.9771,3.1152,51.9937,29.9631,0.1844,0.000633,0.3244,1.2640,0.1724,-1.4363,0.3244,0.0060,-8.8644,-3.3736,-1.1468,-0.0000,-0.016358,0.003482,-0.024629,0.0008,0.0008,-0.0009,-180.0000,-0.0000,0.0000
175,1.7500,-0.1134,0.0090,0.1067,0.1559,0.0000,0.0000,0.0000,20.0000,3.1252,3.1117,46.9105,31.0352,0.1870,0.000629,0.3244,1.2640,0.1724,-1.4363,0.3244,0.0060,-8.8644,-3.3736,-1.1468,-0.0000,-0.020169,0.000858,-0.023857,0.0008,0.0021,-0.0011,-180.0000,-0.0000,0.0000
176,1.7600,-0.1334,0.0002,0.1026,0.1683,0.0000,0.0000,0.0000,20.0000,3.3396,3.1183,42.0934,31.7760,0.1898,0.000589,0.3244,1.2640,0.1724,-1.4363,0.3244,0.0060,-8.8644,-3.3736,-1.1468,-0.0000,-0.024244,0.000291,-0.022966,0.0009,0.0022,-0.0017,-180.0000,-0.0000,0.0000
177,1.7700,-0.1500,-0.0217,0.0992,0.1811,0.0000,0.0000,0.0000,20.0000,3.5809,3.1372,43.7596,32.3893,0.1927,0.000677,0.3244,1.2640,0.1724,-1.4363,0.3244,0.0060,-8.8644,-3.3736,-1.1468,-0.0000,-0.028099,0.002168,-0.022091,0.0006,0.0017,-0.0016,-180.0000,-0.0000,0.0000
178,1.7800,-0.1558,-0.0441,0.0972,0.1888,0.0000,0.0000,0.0000,20.0000,3.7842,3.1672,42.7575,32.9872,0.1959,0.000731,0.3244,1.2640,0.1724,-1.4363,0.3244,0.0060,-8.8644,-3.3736,-1.1468,-0.0000,-0.030754,0.005441,-0.021369,0.0011,0.0011,-0.0017,-180.0000,-0.0000,0.0000
179,1.7900,-0.1524,-0.0587,0.0968,0.1899,0.0000,0.0000,0.0000,20.0000,3.9048,3.2044,34.6276,33.3011,0.1991,0.000678,0.3244,1.2640,0.1724,-1.4363,0.3244,0.0060,-8.8644,-3.3736,-1.1468,-0.0000,-0.031826,0.008698,-0.020885,-0.0002,0.0012,-0.0011,-180.0000,-0.0000,0.0000
180,1.8000,-0.1421,-0.0706,0.1009,0.1881,0.0000,0.0000,0.0000,20.0000,3.9472,3.2441,30.1982,33.2522,0.2025,0.000612,0.3244,1.2640,0.1724,-1.4363,0.3244,0.0060,-8.8644,-3.3736,-1.1468,-0.0000,-0.031326,0.011674,-0.020986,-0.0015,0.0006,0.0002,-180.0000,-0.0000,0.0000
181,1.8100,-0.1245,-0.0825,0.1095,0.1852,0.0000,0.0000,0.0000,20.0000,3.9261,3.2822,36.1053,33.2467,0.2059,0.000582,0.3244,1.2640,0.1724,-1.4363,0.3244,0.0060,-8.8644,-3.3736,-1.1468,-0.0000,-0.029223,0.014477,-0.021859,-0.0014,0.0001,0.0001,-180.0000,-0.0000,0.0000
182,1.8200,-0.1049,-0.0839,0.1174,0.1784,0.0000,0.0000,0.0000,20.0000,3.8363,3.3152,37.9586,33.4549,0.2093,0.000543,0.3244,1.2640,0.1724,-1.4363,0.3244,0.0060,-8.8644,-3.3736,-1.1468,-0.0000,-0.026041,0.016140,-0.023089,-0.0013,0.0004,-0.0008,-180.0000,-0.0000,0.0000
183,1.8300,-0.0971,-0.0838,0.1208,0.1762,0.0000,0.0000,0.0000,20.0000,3.7666,3.3419,29.0171,33.4567,0.2127,0.000564,0.3244,1.2640,0.1724,-1.4363,0.3244,0.0060,-8.8644,-3.3736,-1.1468,-0.0000,-0.023453,0.017024,-0.024060,-0.0015,0.0017,-0.0013,-180.0000,-0.0000,0.0000
184,1.8400,-0.1016,-0.0942,0.1222,0.1847,0.0000,0.0000,0.0000,20.0000,3.8144,3.3666,19.2036,32.9426,0.2162,0.000548,0.3244,1.2640,0.1724,-1.4363,0.3244,0.0060,-8.8644,-3.3736,-1.1468,-0.0000,-0.022421,0.018519,-0.024684,-0.0015,0.0027,-0.0015,-180.0000,-0.0000,0.0000
185,1.8500,-0.1077,-0.1068,0.1199,0.1933,0.0000,0.0000,0.0000,20.0000,3.9217,3.3942,20.4075,32.2199,0.2197,0.000580,0.3244,1.2640,0.1724,-1.4363,0.3244,0.0060,-8.8644,-3.3736,-1.1468,-0.0000,-0.022423,0.020558,-0.024750,-0.0018,0.0022,-0.0021,-180.0000,-0.0000,0.0000
186,1.8600,-0.1175,-0.1066,0.1152,0.1960,0.0000,0.0000,0.0000,20.0000,4.0029,3.4254,14.9880,31.4211,0.2233,0.000517,0.3244,1.2640,0.1724,-1.4363,0.3244,0.0060,-8.8644,-3.3736,-1.1468,-0.0000,-0.023352,0.021632,-0.024270,-0.0028,0.0030,-0.0017,-180.0000,-0.0000,0.0000
187,1.8700,-0.1319,-0.0927,0.1129,0.1968,0.0000,0.0000,0.0000,20.0000,4.0411,3.4582,21.5718,30.6982,0.2270,0.000576,0.3244,1.2640,0.1724,-1.4363,0.3244,0.0060,-8.8644,-3.3736,-1.1468,-0.0000,-0.025261,0.020788,-0.023724,-0.0023,0.0043,0.0003,-180.0000,-0.0000,0.0000
188,1.8800,-0.1420,-0.0714,0.1110,0.1939,0.0000,0.0000,0.0000,20.0000,4.0141,3.4896,33.6453,30.5283,0.2307,0.000581,0.3244,1.2640,0.1724,-1.4363,0.3244,0.0060,-8.8644,-3.3736,-1.1468,-0.0000,-0.027279,0.018149,-0.023189,-0.0020,0.0043,0.0011,-180.0000,-0.0000,0.0000
189,1.8900,-0.1391,-0.0470,0.1082,0.1824,0.0000,0.0000,0.0000,20.0000,3.8705,3.5145,40.5383,30.8893,0.2343,0.000570,0.3244,1.2640,0.1724,-1.4363,0.3244,0.0060,-8.8644,-3.3736,-1.1468,-0.0000,-0.028051,0.014219,-0.022563,-0.0025,0.0030,0.0019,-180.0000,-0.0000,0.0000
190,1.9000,-0.1295,-0.0217,0.1087,0.1705,0.0000,0.0000,0.0000,20.0000,3.6582,3.5282,47.8063,31.6200,0.2378,0.000587,0.3244,1.2640,0.1724,-1.4363,0.3244,0.0060,-8.8644,-3.3736,-1.1468,-0.0000,-0.027463,0.009487,-0.022227,-0.0022,0.0030,0.0013,-180.0000,-0.0000,0.0000
191,1.9100,-0.1163,0.0013,0.1113,0.1610,0.0000,0.0000,0.0000,20.0000,3.4342,3.5292,52.2358,32.6322,0.2410,0.000628,0.3244,1.2640,0.1724,-1.4363,0.3244,0.0060,-8.8644,-3.3736,-1.1468,-0.0000,-0.025758,0.004549,-0.022253,-0.0017,0.0017,0.0019,-180.0000,-0.0000,0.0000
192,1.9200,-0.0969,0.0129,0.1112,0.1481,0.0000,0.0000,0.0000,20.0000,3.1857,3.5171,48.7583,33.6149,0.2440,0.000558,0.3244,1.2640,0.1724,-1.4363,0.3244,0.0060,-8.8644,-3.3736,-1.1468,-0.0000,-0.022825,0.000655,-0.022215,-0.0016,0.0005,0.0012,-180.0000,-0.0000,0.0000
193,1.9300,-0.0730,0.0209,0.1107,0.1343,0.0000,0.0000,0.0000,20.0000,3.0299,3.4946,41.9750,34.2614,0.2468,0.000494,0.3839,1.4560,0.2055,-1.6615,0.3839,0.0024,-9.1060,-3.3235,-1.1199,-0.0000,-0.019584,-0.001882,-0.023042,-0.0014,-0.0009,0.0014,-180.0000,-0.0000,0.0000
194,1.9400,-0.0462,0.0344,0.1086,0.1229,0.0000,0.0000,0.0000,20.0000,2.8082,3.4630,52.9161,34.9866,0.2493,0.000695,0.3839,1.4560,0.2055,-1.6615,0.3839,0.0024,-9.1060,-3.3235,-1.1199,-0.0000,-0.015070,-0.004636,-0.023238,0.0004,-0.0006,0.0016,-180.0000,-0.0000,0.0000
195,1.9500,-0.0173,0.0475,0.1039,0.1155,0.0000,0.0000,0.0000,20.0000,2.5886,3.4209,61.1391,36.1990,0.2514,0.000536,0.3839,1.4560,0.2055,-1.6615,0.3839,0.0024,-9.1060,-3.3235,-1.1199,-0.0000,-0.009659,-0.007452,-0.022831,0.0008,-0.0009,0.0031,-180.0000,-0.0000,0.0000
196,1.9600,0.0147,0.0510,0.0963,0.1100,0.0000,0.0000,0.0000,20.0000,2.3973,3.3699,65.7565,37.6979,0.2530,0.000684,0.3839,1.4560,0.2055,-1.6615,0.3839,0.0024,-9.1060,-3.3235,-1.1199,-0.0000,-0.003446,-0.009348,-0.021805,0.0006,-0.0015,0.0034,-180.0000,-0.0000,0.0000
197,1.9700,0.0424,0.0352,0.0877,0.1036,0.0000,0.0000,0.0000,20.0000,2.2326,3.3118,64.0531,39.1945,0.2541,0.000710,0.3839,1.4560,0.2055,-1.6615,0.3839,0.0024,-9.1060,-3.3235,-1.1199,-0.0000,0.002763,-0.008794,-0.020335,-0.0005,-0.0023,0.0051,-180.0000,-0.0000,0.0000
198,1.9800,0.0626,0.0071,0.0807,0.1024,0.0000,0.0000,0.0000,20.0000,2.1262,3.2495,64.7763,40.5818,0.2549,0.000725,0.3839,1.4560,0.2055,-1.6615,0.3839,0.0024,-9.1060,-3.3235,-1.1199,-0.0000,0.008217,-0.005667,-0.018773,-0.0012,-0.0020,0.0059,-180.0000,-0.0000,0.0000
199,1.9900,0.0688,-0.0228,0.0806,0.1084,0.0000,0.0000,0.0000,20.0000,2.1450,3.1883,60.2327,41.7877,0.2556,0.000681,0.3839,1.4560,0.2055,-1.6615,0.3839,0.0024,-9.1060,-3.3235,-1.1199,-0.0000,0.011831,-0.000934,-0.017868,-0.0047,-0.0025,0.0055,-180.0000,-0.0000,0.0000
200,2.0000,0.0570,-0.0497,0.0890,0.1168,0.0000,0.0000,0.0000,20.0000,2.2559,3.1339,53.7794,42.6249,0.2564,0.000704,0.3839,1.4560,0.2055,-1.6615,0.3839,0.0024,-9.1060,-3.3235,-1.1199,-0.0000,0.012629,0.004376,-0.018173,-0.0050,-0.0011,0.0052,-180.0000,-0.0000,0.0000
201,2.0100,0.0374,-0.0617,0.1018,0.1248,0.0000,0.0000,0.0000,20.0000,2.4054,3.0897,46.2473,43.0313,0.2575,0.000573,0.3839,1.4560,0.2055,-1.6615,0.3839,0.0024,-9.1060,-3.3235,-1.1199,-0.0000,0.011080,0.008498,-0.019586,-0.0037,-0.0002,0.0040,-180.0000,-0.0000,0.0000
202,2.0200,0.0195,-0.0565,0.1170,0.1314,0.0000,0.0000,0.0000,20.0000,2.5553,3.0562,39.0837,43.0112,0.2590,0.000639,0.3839,1.4560,0.2055,-1.6615,0.3839,0.0024,-9.1060,-3.3235,-1.1199,-0.0000,0.008412,0.010243,-0.021847,-0.0024,0.0004,0.0038,-180.0000,-0.0000,0.0000
203,2.0300,0.0027,-0.0481,0.1271,0.1360,0.0000,0.0000,0.0000,20.0000,2.6714,3.0318,38.7352,42.7856,0.2609,0.000638,0.3839,1.4560,0.2055,-1.6615,0.3839,0.0024,-9.1060,-3.3235,-1.1199,-0.0000,0.005238,0.010348,-0.024065,-0.0007,0.0020,0.0037,-180.0000,-0.0000,0.0000
204,2.0400,-0.0124,-0.0383,0.1275,0.1337,0.0000,0.0000,0.0000,20.0000,2.7043,3.0129,36.1125,42.4906,0.2630,0.000651,0.3839,1.4560,0.2055,-1.6615,0.3839,0.0024,-9.1060,-3.3235,-1.1199,-0.0000,0.001970,0.009406,-0.025277,0.0022,0.0027,0.0022,-180.0000,-0.0000,0.0000
205,2.0500,-0.0285,-0.0322,0.1203,0.1278,0.0000,0.0000,0.0000,20.0000,2.6538,2.9946,36.1206,42.1400,0.2654,0.000615,0.3839,1.4560,0.2055,-1.6615,0.3839,0.0024,-9.1060,-3.3235,-1.1199,-0.0000,-0.001454,0.008260,-0.025178,0.0018,0.0024,0.0008,-180.0000,-0.0000,0.0000
206,2.0600,-0.0500,-0.0376,0.1064,0.1234,0.0000,0.0000,0.0000,20.0000,2.5639,2.9733,43.1039,42.0010,0.2678,0.000685,0.3839,1.4560,0.2055,-1.6615,0.3839,0.0024,-9.1060,-3.3235,-1.1199,-0.0000,-0.005495,0.008141,-0.023683,0.0003,0.0027,-0.0011,-180.0000,-0.0000,0.0000
207,2.0700,-0.0714,-0.0478,0.0874,0.1226,0.0000,0.0000,0.0000,20.0000,2.4839,2.9486,52.5158,42.3205,0.2703,0.000617,0.3839,1.4560,0.2055,-1.6615,0.3839,0.0024,-9.1060,-3.3235,-1.1199,-0.0000,-0.009858,0.009079,-0.020913,-0.0004,0.0021,-0.0030,-180.0000,-0.0000,0.0000
208,2.0800,-0.0878,-0.0642,0.0710,0.1298,0.0000,0.0000,0.0000,20.0000,2.5136,2.9239,55.7925,42.9714,0.2729,0.000674,0.3839,1.4560,0.2055,-1.6615,0.3839,0.0024,-9.1060,-3.3235,-1.1199,-0.0000,-0.013883,0.011219,-0.017698,-0.0027,0.0010,-0.0025,-180.0000,-0.0000,0.0000
209,2.0900,-0.0965,-0.0843,0.0606,0.1418,0.0000,0.0000,0.0000,20.0000,2.6740,2.9057,52.5974,43.5888,0.2756,0.000543,0.3839,1.4560,0.2055,-1.6615,0.3839,0.0024,-9.1060,-3.3235,-1.1199,-0.0000,-0.016955,0.014395,-0.014844,-0.0037,0.0005,-0.0013,-180.0000,-0.0000,0.0000
210,2.1000,-0.0930,-0.0977,0.0554,0.1458,0.0000,0.0000,0.0000,20.0000,2.8292,2.8972,39.5747,43.7262,0.2782,0.000591,0.3839,1.4560,0.2055,-1.6615,0.3839,0.0024,-9.1060,-3.3235,-1.1199,-0.0000,-0.018267,0.017464,-0.012718,-0.0036,0.0002,0.0004,-180.0000,-0.0000,0.0000
211,2.1100,-0.0773,-0.0954,0.0562,0.1351,0.0000,0.0000,0.0000,20.0000,2.8176,2.8932,20.1793,42.9644,0.2808,0.000549,0.3839,1.4560,0.2055,-1.6615,0.3839,0.0024,-9.1060,-3.3235,-1.1199,-0.0000,-0.017389,0.018895,-0.011598,-0.0023,0.0002,0.0009,-180.0000,-0.0000,0.0000
212,2.1200,-0.0652,-0.0844,0.0628,0.1238,0.0000,0.0000,0.0000,20.0000,2.6908,2.8855,17.6766,41.6422,0.2832,0.000589,0.3839,1.4560,0.2055,-1.6615,0.3839,0.0024,-9.1060,-3.3235,-1.1199,-0.0000,-0.015656,0.018548,-0.011615,-0.0027,0.0016,0.0012,-180.0000,-0.0000,0.0000
213,2.1300,-0.0603,-0.0737,0.0706,0.1185,0.0000,0.0000,0.0000,20.0000,2.6425,2.8735,23.2240,40.4765,0.2858,0.000649,0.4211,1.6849,0.1975,-1.8824,0.4211,0.0010,-9.0335,-3.2993,-1.2943,0.0000,-0.014580,0.017505,-0.013390,-0.0020,0.0020,0.0002,-180.0000,-0.0000,0.0000
214,2.1400,-0.0594,-0.0607,0.0718,0.1113,0.0000,0.0000,0.0000,20.0000,2.5393,2.8579,23.0058,39.5214,0.2883,0.000605,0.4211,1.6849,0.1975,-1.8824,0.4211,0.0010,-9.0335,-3.2993,-1.2943,0.0000,-0.013869,0.015598,-0.014463,-0.0013,0.0026,0.0008,-180.0000,-0.0000,0.0000
215,2.1500,-0.0645,-0.0458,0.0625,0.1009,0.0000,0.0000,0.0000,20.0000,2.3730,2.8358,26.0201,38.6958,0.2907,0.000674,0.4211,1.6849,0.1975,-1.8824,0.4211,0.0010,-9.0335,-3.2993,-1.2943,0.0000,-0.013956,0.013023,-0.014096,-0.0006,0.0030,0.0001,-180.0000,-0.0000,0.0000
216,2.1600,-0.0742,-0.0379,0.0435,0.0940,0.0000,0.0000,0.0000,20.0000,2.1971,2.8055,32.4520,38.1755,0.2930,0.000633,0.4211,1.6849,0.1975,-1.8824,0.4211,0.0010,-9.0335,-3.2993,-1.2943,0.0000,-0.014942,0.010785,-0.011964,-0.0000,0.0033,0.0006,-180.0000,-0.0000,0.0000
217,2.1700,-0.0789,-0.0357,0.0233,0.0897,0.0000,0.0000,0.0000,20.0000,2.0415,2.7678,36.7965,37.9801,0.2950,0.000679,0.4211,1.6849,0.1975,-1.8824,0.4211,0.0010,-9.0335,-3.2993,-1.2943,0.0000,-0.015930,0.009305,-0.008743,0.0005,0.0030,-0.0001,-180.0000,-0.0000,0.0000
218,2.1800,-0.0749,-0.0333,0.0101,0.0826,0.0000,0.0000,0.0000,20.0000,1.8889,2.7236,32.9917,37.8104,0.2967,0.000595,0.4211,1.6849,0.1975,-1.8824,0.4211,0.0010,-9.0335,-3.2993,-1.2943,0.0000,-0.016045,0.008229,-0.005626,-0.0002,0.0029,0.0010,-180.0000,-0.0000,0.0000
219,2.1900,-0.0718,-0.0375,0.0095,0.0816,0.0000,0.0000,0.0000,20.0000,1.8106,2.6756,18.3061,37.1414,0.2983,0.000687,0.4211,1.6849,0.1975,-1.8824,0.4211,0.0010,-9.0335,-3.2993,-1.2943,0.0000,-0.015766,0.008039,-0.003827,-0.0023,0.0029,0.0006,-180.0000,-0.0000,0.0000
220,2.2000,-0.0718,-0.0482,0.0206,0.0889,0.0000,0.0000,0.0000,20.0000,1.8410,2.6288,9.7088,35.8688,0.2999,0.000572,0.4211,1.6849,0.1975,-1.8824,0.4211,0.0010,-9.0335,-3.2993,-1.2943,0.0000,-0.015578,0.008985,-0.003939,-0.0030,0.0021,0.0008,-180.0000,-0.0000,0.0000
221,2.2100,-0.0667,-0.0499,0.0387,0.0918,0.0000,0.0000,0.0000,20.0000,1.8704,2.5863,20.8123,34.7352,0.3016,0.000468,0.4211,1.6849,0.1975,-1.8824,0.4211,0.0010,-9.0335,-3.2993,-1.2943,0.0000,-0.014932,0.009655,-0.005800,-0.0031,0.0023,0.0004,-180.0000,-0.0000,0.0000
222,2.2200,-0.0636,-0.0469,0.0556,0.0967,0.0000,0.0000,0.0000,20.0000,1.9224,2.5484,27.9706,34.1662,0.3035,0.000594,0.4211,1.6849,0.1975,-1.8824,0.4211,0.0010,-9.0335,-3.2993,-1.2943,0.0000,-0.014241,0.009714,-0.008510,-0.0034,0.0013,0.0010,-180.0000,-0.0000,0.0000
223,2.2300,-0.0696,-0.0433,0.0669,0.1058,0.0000,0.0000,0.0000,20.0000,2.0481,2.5174,26.4186,33.7827,0.3057,0.000554,0.4211,1.6849,0.1975,-1.8824,0.4211,0.0010,-9.0335,-3.2993,-1.2943,0.0000,-0.014423,0.009366,-0.011122,-0.0031,0.0009,0.0015,-180.0000,-0.0000,0.0000
224,2.2400,-0.0708,-0.0341,0.0746,0.1084,0.0000,0.0000,0.0000,20.0000,2.1420,2.4941,24.7330,33.3313,0.3080,0.000559,0.4211,1.6849,0.1975,-1.8824,0.4211,0.0010,-9.0335,-3.2993,-1.2943,0.0000,-0.014623,0.008233,-0.013312,-0.0022,0.0006,0.0021,-180.0000,-0.0000,0.0000
225,2.2500,-0.0699,-0.0312,0.0804,0.1110,0.0000,0.0000,0.0000,20.0000,2.2224,2.4770,19.9120,32.7257,0.3105,0.000619,0.4211,1.6849,0.1975,-1.8824,0.4211,0.0010,-9.0335,-3.2993,-1.2943,0.0000,-0.014608,0.007303,-0.015073,-0.0016,0.0013,0.0016,-180.0000,-0.0000,0.0000
226,2.2600,-0.0724,-0.0426,0.0866,0.1206,0.0000,0.0000,0.0000,20.0000,2.3642,2.4669,16.8684,31.9372,0.3131,0.000550,0.4211,1.6849,0.1975,-1.8824,0.4211,0.0010,-9.0335,-3.2993,-1.2943,0.0000,-0.014824,0.007908,-0.016633,-0.0018,0.0008,0.0029,-180.0000,-0.0000,0.0000
227,2.2700,-0.0737,-0.0668,0.0975,0.1393,0.0000,0.0000,0.0000,20.0000,2.6156,2.4681,33.5787,31.5678,0.3160,0.000629,0.4211,1.6849,0.1975,-1.8824,0.4211,0.0010,-9.0335,-3.2993,-1.2943,0.0000,-0.015042,0.010648,-0.018560,-0.0022,0.0020,0.0041,-180.0000,-0.0000,0.0000
228,2.2800,-0.0738,-0.0948,0.1109,0.1635,0.0000,0.0000,0.0000,20.0000,2.9837,2.4864,49.0208,32.1032,0.3193,0.000607,0.4211,1.6849,0.1975,-1.8824,0.4211,0.0010,-9.0335,-3.2993,-1.2943,0.0000,-0.015138,0.014942,-0.020924,-0.0019,0.0020,0.0040,-180.0000,-0.0000,0.0000
229,2.2900,-0.0752,-0.1169,0.1174,0.1820,0.0000,0.0000,0.0000,20.0000,3.3707,2.5244,49.4516,33.0456,0.3230,0.000592,0.4211,1.6849,0.1975,-1.8824,0.4211,0.0010,-9.0335,-3.2993,-1.2943,0.0000,-0.015305,0.019496,-0.022843,-0.0006,0.0021,0.0040,-180.0000,-0.0000,0.0000
230,2.3000,-0.0732,-0.1325,0.1172,0.1914,0.0000,0.0000,0.0000,20.0000,3.6769,2.5794,41.5750,33.7315,0.3268,0.000629,0.4211,1.6849,0.1975,-1.8824,0.4211,0.0010,-9.0335,-3.2993,-1.2943,0.0000,-0.015165,0.023531,-0.023839,-0.0020,0.0014,0.0040,-180.0000,-0.0000,0.0000
231,2.3100,-0.0691,-0.1487,0.1146,0.2000,0.0000,0.0000,0.0000,20.0000,3.9261,2.6466,38.4957,34.0782,0.3309,0.000624,0.4211,1.6849,0.1975,-1.8824,0.4211,0.0010,-9.0335,-3.2993,-1.2943,0.0000,-0.014646,0.027338,-0.024074,-0.0030,0.0012,0.0031,-180.0000,-0.0000,0.0000
232,2.3200,-0.0642,-0.1551,0.1131,0.2025,0.0000,0.0000,0.0000,20.0000,4.0867,2.7214,28.1198,34.0358,0.3350,0.000657,0.4211,1.6849,0.1975,-1.8824,0.4211,0.0010,-9.0335,-3.2993,-1.2943,0.0000,-0.013847,0.030033,-0.024008,-0.0020,-0.0001,0.0033,-180.0000,-0.0000,0.0000
233,2.3300,-0.0580,-0.1528,0.1156,0.2002,0.0000,0.0000,0.0000,20.0000,4.2316,2.8005,18.6240,33.4492,0.3392,0.000694,0.4886,1.7761,0.2293,-2.0054,0.4886,-0.0010,-6.4910,-3.2707,-0.9931,0.0000,-0.013332,0.031702,-0.024654,-0.0020,-0.0003,0.0023,-180.0000,0.0000,0.0000
234,2.3400,-0.0549,-0.1563,0.1222,0.2059,0.0000,0.0000,0.0000,20.0000,4.3608,2.8827,16.7267,32.5816,0.3435,0.000767,0.4886,1.7761,0.2293,-2.0054,0.4886,-0.0010,-6.4910,-3.2707,-0.9931,0.0000,-0.012713,0.032913,-0.025628,-0.0025,-0.0008,0.0022,-180.0000,0.0000,0.0000
235,2.3500,-0.0604,-0.1596,0.1286,0.2136,0.0000,0.0000,0.0000,20.0000,4.5023,2.9679,14.6741,31.6530,0.3481,0.000748,0.4886,1.7761,0.2293,-2.0054,0.4886,-0.0010,-6.4910,-3.2707,-0.9931,0.0000,-0.012896,0.033843,-0.026748,-0.0018,-0.0010,0.0024,-180.0000,0.0000,0.0000
236,2.3600,-0.0745,-0.1614,0.1276,0.2189,0.0000,0.0000,0.0000,20.0000,4.6220,3.0556,16.8263,30.7782,0.3528,0.000690,0.4886,1.7761,0.2293,-2.0054,0.4886,-0.0010,-6.4910,-3.2707,-0.9931,0.0000,-0.014383,0.034478,-0.027216,-0.0002,-0.0015,0.0036,-180.0000,0.0000,0.0000
237,2.3700,-0.0870,-0.1686,0.1188,0.2238,0.0000,0.0000,0.0000,20.0000,4.7247,3.1446,23.6897,30.1995,0.3577,0.000737,0.4886,1.7761,0.2293,-2.0054,0.4886,-0.0010,-6.4910,-3.2707,-0.9931,0.0000,-0.016424,0.035471,-0.026539,-0.0006,-0.0011,0.0023,-180.0000,0.0000,0.0000
238,2.3800,-0.0967,-0.1752,0.1056,0.2263,0.0000,0.0000,0.0000,20.0000,4.7929,3.2334,29.4110,29.9988,0.3627,0.000726,0.4886,1.7761,0.2293,-2.0054,0.4886,-0.0010,-6.4910,-3.2707,-0.9931,0.0000,-0.018496,0.036613,-0.024791,0.0002,-0.0011,0.0018,-180.0000,0.0000,0.0000
239,2.3900,-0.1072,-0.1782,0.0893,0.2263,0.0000,0.0000,0.0000,20.0000,4.8173,3.3199,35.1920,30.1254,0.3676,0.000770,0.4886,1.7761,0.2293,-2.0054,0.4886,-0.0010,-6.4910,-3.2707,-0.9931,0.0000,-0.020652,0.037467,-0.022144,0.0006,-0.0013,0.0012,-180.0000,0.0000,0.0000
240,2.4000,-0.1099,-0.1767,0.0735,0.2207,0.0000,0.0000,0.0000,20.0000,4.7677,3.4009,34.0919,30.3739,0.3725,0.000686,0.4886,1.7761,0.2293,-2.0054,0.4886,-0.0010,-6.4910,-3.2707,-0.9931,0.0000,-0.022071,0.037721,-0.019055,0.0016,-0.0011,0.0012,-180.0000,0.0000,0.0000
241,2.4100,-0.0988,-0.1586,0.0623,0.1970,0.0000,0.0000,0.0000,20.0000,4.5028,3.4688,33.6884,30.5673,0.3770,0.000609,0.4886,1.7761,0.2293,-2.0054,0.4886,-0.0010,-6.4910,-3.2707,-0.9931,0.0000,-0.021703,0.035974,-0.016198,0.0009,-0.0006,-0.0004,-180.0000,0.0000,0.0000
242,2.4200,-0.0858,-0.1284,0.0518,0.1629,0.0000,0.0000,0.0000,20.0000,4.0098,3.5121,50.9732,31.2144,0.3810,0.000521,0.4886,1.7761,0.2293,-2.0054,0.4886,-0.0010,-6.4910,-3.2707,-0.9931,0.0000,-0.020153,0.031916,-0.013530,0.0008,0.0006,-0.0002,-180.0000,0.0000,0.0000
243,2.4300,-0.0752,-0.1018,0.0387,0.1323,0.0000,0.0000,0.0000,20.0000,3.4235,3.5234,60.3661,32.5596,0.3844,0.000568,0.4886,1.7761,0.2293,-2.0054,0.4886,-0.0010,-6.4910,-3.2707,-0.9931,0.0000,-0.018194,0.026948,-0.010715,0.0000,0.0015,0.0000,-180.0000,0.0000,0.0000
244,2.4400,-0.0583,-0.0779,0.0344,0.1032,0.0000,0.0000,0.0000,20.0000,2.8040,3.5008,62.2825,34.1419,0.3873,0.000572,0.4886,1.7761,0.2293,-2.0054,0.4886,-0.0010,-6.4910,-3.2707,-0.9931,0.0000,-0.015386,0.021763,-0.008710,-0.0017,0.0021,-0.0002,-180.0000,0.0000,0.0000
245,2.4500,-0.0433,-0.0576,0.0445,0.0847,0.0000,0.0000,0.0000,20.0000,2.2540,3.4474,58.3201,35.5809,0.3897,0.000635,0.4886,1.7761,0.2293,-2.0054,0.4886,-0.0010,-6.4910,-3.2707,-0.9931,0.0000,-0.012300,0.016816,-0.008601,-0.0019,0.0021,-0.0013,-180.0000,0.0000,0.0000
246,2.4600,-0.0401,-0.0506,0.0620,0.0895,0.0000,0.0000,0.0000,20.0000,1.9722,3.3740,43.5424,36.4253,0.3920,0.000630,0.4886,1.7761,0.2293,-2.0054,0.4886,-0.0010,-6.4910,-3.2707,-0.9931,0.0000,-0.010258,0.013351,-0.010270,-0.0026,0.0020,-0.0008,-180.0000,0.0000,0.0000
247,2.4700,-0.0442,-0.0461,0.0809,0.1031,0.0000,0.0000,0.0000,20.0000,1.9526,3.2963,37.5349,36.6515,0.3944,0.000585,0.4886,1.7761,0.2293,-2.0054,0.4886,-0.0010,-6.4910,-3.2707,-0.9931,0.0000,-0.009516,0.010956,-0.013064,-0.0024,0.0010,-0.0015,-180.0000,0.0000,0.0000
248,2.4800,-0.0467,-0.0317,0.0958,0.1112,0.0000,0.0000,0.0000,20.0000,2.0299,3.2245,41.0336,36.7964,0.3969,0.000538,0.4886,1.7761,0.2293,-2.0054,0.4886,-0.0010,-6.4910,-3.2707,-0.9931,0.0000,-0.009333,0.008168,-0.016069,-0.0015,-0.0005,-0.0021,-180.0000,0.0000,0.0000
249,2.4900,-0.0506,-0.0155,0.1013,0.1143,0.0000,0.0000,0.0000,20.0000,2.1220,3.1613,38.5821,36.9620,0.3995,0.000686,0.4886,1.7761,0.2293,-2.0054,0.4886,-0.0010,-6.4910,-3.2707,-0.9931,0.0000,-0.009604,0.004997,-0.018250,-0.0009,-0.0002,-0.0026,-180.0000,0.0000,0.0000
250,2.5000,-0.0580,-0.0040,0.1027,0.1180,0.0000,0.0000,0.0000,20.0000,2.2287,3.1071,33.0881,36.9000,0.4022,0.000625,0.4886,1.7761,0.2293,-2.0054,0.4886,-0.0010,-6.4910,-3.2707,-0.9931,0.0000,-0.010478,0.002087,-0.019559,-0.0011,0.0004,-0.0023,-180.0000,0.0000,0.0000
251,2.5100,-0.0586,0.0118,0.1093,0.1246,0.0000,0.0000,0.0000,20.0000,2.3646,3.0625,35.1070,36.7459,0.4049,0.000563,0.4886,1.7761,0.2293,-2.0054,0.4886,-0.0010,-6.4910,-3.2707,-0.9931,0.0000,-0.010998,-0.001114,-0.020903,0.0004,0.0007,-0.0015,-180.0000,0.0000,0.0000
252,2.5200,-0.0495,0.0220,0.1211,0.1326,0.0000,0.0000,0.0000,20.0000,2.5324,3.0288,34.1698,36.6299,0.4076,0.000680,0.4886,1.7761,0.2293,-2.0054,0.4886,-0.0010,-6.4910,-3.2707,-0.9931,0.0000,-0.010350,-0.003894,-0.022782,0.0004,0.0003,-0.0003,-180.0000,0.0000,0.0000
253,2.5300,-0.0404,0.0131,0.1353,0.1419,0.0000,0.0000,0.0000,20.0000,2.7857,3.0084,32.1631,36.4394,0.4106,0.000668,0.6199,1.9240,0.2463,-2.1703,0.6199,-0.8478,-8.7123,-3.2348,-1.3081,0.0146,-0.009607,-0.003603,-0.025898,-0.0016,0.0016,0.0010,-180.0000,-0.0000,0.0000
254,2.5400,-0.0356,0.0012,0.1470,0.1512,0.0000,0.0000,0.0000,20.0000,3.0103,3.0023,32.7469,36.2203,0.4139,0.000630,0.6199,1.9240,0.2463,-2.1703,0.6199,-0.8478,-8.7123,-3.2348,-1.3081,0.0146,-0.008688,-0.002248,-0.028734,-0.0004,0.0013,0.0013,-180.0000,-0.0000,0.0000
255,2.5500,-0.0366,-0.0025,0.1462,0.1508,0.0000,0.0000,0.0000,20.0000,3.1299,3.0061,18.6916,35.6426,0.4174,0.000673,0.6199,1.9240,0.2463,-2.1703,0.6199,-0.8478,-8.7123,-3.2348,-1.3081,0.0146,-0.008269,-0.001122,-0.030166,-0.0005,0.0011,0.0013,-180.0000,-0.0000,0.0000
256,2.5600,-0.0533,-0.0074,0.1328,0.1433,0.0000,0.0000,0.0000,20.0000,3.1100,3.0123,19.0758,34.7207,0.4210,0.000628,0.6199,1.9240,0.2463,-2.1703,0.6199,-0.8478,-8.7123,-3.2348,-1.3081,0.0146,-0.009690,-0.000007,-0.029552,-0.0023,0.0016,-0.0004,-180.0000,-0.0000,0.0000
257,2.5700,-0.0767,-0.0147,0.1164,0.1401,0.0000,0.0000,0.0000,20.0000,3.0372,3.0157,39.5124,34.4222,0.4247,0.000588,0.6199,1.9240,0.2463,-2.1703,0.6199,-0.8478,-8.7123,-3.2348,-1.3081,0.0146,-0.012795,0.001339,-0.027513,-0.0028,0.0018,-0.0012,-180.0000,-0.0000,0.0000
258,2.5800,-0.1002,-0.0193,0.1026,0.1447,0.0000,0.0000,0.0000,20.0000,3.0212,3.0164,49.2908,34.9712,0.4285,0.000606,0.6199,1.9240,0.2463,-2.1703,0.6199,-0.8478,-8.7123,-3.2348,-1.3081,0.0146,-0.016836,0.002539,-0.024957,-0.0021,0.0026,-0.0017,-180.0000,-0.0000,0.0000
259,2.5900,-0.1268,-0.0323,0.0928,0.1604,0.0000,0.0000,0.0000,20.0000,3.1586,3.0205,57.8128,35.9933,0.4325,0.000762,0.6199,1.9240,0.2463,-2.1703,0.6199,-0.8478,-8.7123,-3.2348,-1.3081,0.0146,-0.021696,0.004494,-0.022512,-0.0025,0.0036,-0.0001,-180.0000,-0.0000,0.0000
260,2.6000,-0.1418,-0.0491,0.0894,0.1747,0.0000,0.0000,0.0000,20.0000,3.3938,3.0346,52.6868,37.0525,0.4368,0.000623,0.6199,1.9240,0.2463,-2.1703,0.6199,-0.8478,-8.7123,-3.2348,-1.3081,0.0146,-0.025841,0.007244,-0.020775,-0.0008,0.0039,0.0012,-180.0000,-0.0000,0.0000
261,2.6100,-0.1481,-0.0534,0.0887,0.1807,0.0000,0.0000,0.0000,20.0000,3.6012,3.0600,36.2509,37.4605,0.4413,0.000642,0.6199,1.9240,0.2463,-2.1703,0.6199,-0.8478,-8.7123,-3.2348,-1.3081,0.0146,-0.028711,0.009182,-0.019704,0.0012,0.0046,0.0013,-180.0000,-0.0000,0.0000
262,2.6200,-0.1615,-0.0468,0.0841,0.1880,0.0000,0.0000,0.0000,20.0000,3.7885,3.0949,30.9283,37.2476,0.4460,0.000790,0.6199,1.9240,0.2463,-2.1703,0.6199,-0.8478,-8.7123,-3.2348,-1.3081,0.0146,-0.031578,0.009577,-0.018612,0.0029,0.0041,0.0010,-180.0000,-0.0000,0.0000
263,2.6300,-0.1716,-0.0337,0.0763,0.1908,0.0000,0.0000,0.0000,20.0000,3.9125,3.1365,31.1219,36.9053,0.4507,0.000601,0.6199,1.9240,0.2463,-2.1703,0.6199,-0.8478,-8.7123,-3.2348,-1.3081,0.0146,-0.034112,0.008464,-0.017190,0.0041,0.0022,-0.0002,-180.0000,-0.0000,0.0000
264,2.6400,-0.1781,-0.0107,0.0717,0.1923,0.0000,0.0000,0.0000,20.0000,3.9829,3.1811,37.5605,36.7642,0.4553,0.000644,0.6199,1.9240,0.2463,-2.1703,0.6199,-0.8478,-8.7123,-3.2348,-1.3081,0.0146,-0.036090,0.005537,-0.015914,0.0052,0.0010,-0.0022,-180.0000,-0.0000,0.0000
265,2.6500,-0.1872,0.0089,0.0690,0.1997,0.0000,0.0000,0.0000,20.0000,4.0889,3.2281,42.0826,36.9324,0.4598,0.000606,0.6199,1.9240,0.2463,-2.1703,0.6199,-0.8478,-8.7123,-3.2348,-1.3081,0.0146,-0.038027,0.001941,-0.014902,0.0050,0.0017,-0.0008,-180.0000,-0.0000,0.0000
266,2.6600,-0.1899,0.0076,0.0643,0.2007,0.0000,0.0000,0.0000,20.0000,4.1658,3.2776,24.8335,36.7413,0.4643,0.000510,0.6199,1.9240,0.2463,-2.1703,0.6199,-0.8478,-8.7123,-3.2348,-1.3081,0.0146,-0.039290,0.000083,-0.013844,0.0030,0.0013,0.0017,-180.0000,-0.0000,0.0000
267,2.6700,-0.1845,-0.0029,0.0574,0.1932,0.0000,0.0000,0.0000,20.0000,4.1317,3.3255,12.9855,35.7604,0.4687,0.000632,0.6199,1.9240,0.2463,-2.1703,0.6199,-0.8478,-8.7123,-3.2348,-1.3081,0.0146,-0.039365,0.000109,-0.012547,0.0019,0.0023,0.0019,-180.0000,-0.0000,0.0000
268,2.6800,-0.1797,-0.0121,0.0462,0.1859,0.0000,0.0000,0.0000,20.0000,4.0305,3.3671,21.4438,34.7402,0.4729,0.000530,0.6199,1.9240,0.2463,-2.1703,0.6199,-0.8478,-8.7123,-3.2348,-1.3081,0.0146,-0.038850,0.001034,-0.010683,-0.0003,0.0024,0.0037,-180.0000,-0.0000,0.0000
269,2.6900,-0.1697,-0.0195,0.0332,0.1740,0.0000,0.0000,0.0000,20.0000,3.8465,3.3985,29.9999,34.2441,0.4768,0.000380,0.6199,1.9240,0.2463,-2.1703,0.6199,-0.8478,-8.7123,-3.2348,-1.3081,0.0146,-0.037484,0.002289,-0.008325,-0.0011,0.0022,0.0040,-180.0000,-0.0000,0.0000
270,2.7000,-0.1565,-0.0243,0.0261,0.1605,0.0000,0.0000,0.0000,20.0000,3.6059,3.4166,31.7677,34.0593,0.4805,0.000585,0.6199,1.9240,0.2463,-2.1703,0.6199,-0.8478,-8.7123,-3.2348,-1.3081,0.0146,-0.035337,0.003456,-0.006295,-0.0031,0.0010,0.0022,-180.0000,-0.0000,0.0000
271,2.7100,-0.1517,-0.0229,0.0261,0.1556,0.0000,0.0000,0.0000,20.0000,3.4221,3.4219,21.3496,33.6467,0.4840,0.000815,0.6199,1.9240,0.2463,-2.1703,0.6199,-0.8478,-8.7123,-3.2348,-1.3081,0.0146,-0.033597,0.003956,-0.005164,-0.0025,0.0006,0.0013,-180.0000,-0.0000,0.0000
272,2.7200,-0.1475,-0.0161,0.0328,0.1520,0.0000,0.0000,0.0000,20.0000,3.2766,3.4179,15.0000,32.7956,0.4873,0.000726,0.6199,1.9240,0.2463,-2.1703,0.6199,-0.8478,-8.7123,-3.2348,-1.3081,0.0146,-0.032155,0.003545,-0.005204,-0.0027,-0.0011,0.0015,-180.0000,-0.0000,0.0000
273,2.7300,-0.1383,-0.0116,0.0491,0.1473,0.0000,0.0000,0.0000,20.0000,3.2279,3.4088,26.7955,32.1411,0.4908,0.000761,0.6525,2.0912,0.2844,-2.3756,0.6525,-0.0000,-9.4078,-3.2059,-1.1104,0.0000,-0.031203,0.003087,-0.007666,-0.0020,-0.0011,0.0010,-180.0000,0.0000,0.0000
274,2.7400,-0.1316,-0.0108,0.0687,0.1488,0.0000,0.0000,0.0000,20.0000,3.2006,3.3981,35.6140,32.0896,0.4946,0.000796,0.6525,2.0912,0.2844,-2.3756,0.6525,-0.0000,-9.4078,-3.2059,-1.1104,0.0000,-0.029939,0.002741,-0.010978,-0.0020,-0.0003,0.0024,-180.0000,0.0000,0.0000
275,2.7500,-0.1279,-0.0078,0.0819,0.1521,0.0000,0.0000,0.0000,20.0000,3.2157,3.3877,33.5744,32.2274,0.4986,0.000661,0.6525,2.0912,0.2844,-2.3756,0.6525,-0.0000,-9.4078,-3.2059,-1.1104,0.0000,-0.028813,0.002244,-0.014101,-0.0001,-0.0002,0.0034,-180.0000,0.0000,0.0000
276,2.7600,-0.1254,-0.0081,0.0902,0.1547,0.0000,0.0000,0.0000,20.0000,3.2527,3.3792,27.0194,32.1212,0.5027,0.000638,0.6525,2.0912,0.2844,-2.3756,0.6525,-0.0000,-9.4078,-3.2059,-1.1104,0.0000,-0.027885,0.001997,-0.016627,-0.0006,0.0006,0.0025,-180.0000,0.0000,0.0000
277,2.7700,-0.1204,-0.0233,0.0967,0.1562,0.0000,0.0000,0.0000,20.0000,3.2832,3.3731,26.7208,31.8324,0.5071,0.000620,0.6525,2.0912,0.2844,-2.3756,0.6525,-0.0000,-9.4078,-3.2059,-1.1104,0.0000,-0.026812,0.003381,-0.018645,-0.0007,0.0025,0.0027,-180.0000,0.0000,0.0000
278,2.7800,-0.1125,-0.0479,0.0958,0.1554,0.0000,0.0000,0.0000,20.0000,3.2758,3.3679,36.5840,31.8225,0.5117,0.000532,0.6525,2.0912,0.2844,-2.3756,0.6525,-0.0000,-9.4078,-3.2059,-1.1104,0.0000,-0.025379,0.006599,-0.019633,-0.0005,0.0026,0.0025,-180.0000,0.0000,0.0000
279,2.7900,-0.1095,-0.0707,0.0892,0.1579,0.0000,0.0000,0.0000,20.0000,3.2860,3.3632,42.0776,32.2355,0.5163,0.000651,0.6525,2.0912,0.2844,-2.3756,0.6525,-0.0000,-9.4078,-3.2059,-1.1104,0.0000,-0.024229,0.010643,-0.019479,0.0001,0.0029,0.0023,-180.0000,0.0000,0.0000
280,2.8000,-0.1049,-0.0861,0.0826,0.1588,0.0000,0.0000,0.0000,20.0000,3.3010,3.3593,40.0030,32.7198,0.5209,0.000654,0.6525,2.0912,0.2844,-2.3756,0.6525,-0.0000,-9.4078,-3.2059,-1.1104,0.0000,-0.023085,0.014396,-0.018695,-0.0001,0.0027,0.0029,-180.0000,0.0000,0.0000
281,2.8100,-0.0874,-0.0899,0.0780,0.1476,0.0000,0.0000,0.0000,20.0000,3.2019,3.3534,35.5449,32.9978,0.5254,0.000576,0.6525,2.0912,0.2844,-2.3756,0.6525,-0.0000,-9.4078,-3.2059,-1.1104,0.0000,-0.020660,0.016821,-0.017761,0.0002,0.0020,0.0037,-180.0000,0.0000,0.0000
282,2.8200,-0.0639,-0.0786,0.0771,0.1273,0.0000,0.0000,0.0000,20.0000,2.9475,3.3381,37.8454,33.2012,0.5295,0.000500,0.6525,2.0912,0.2844,-2.3756,0.6525,-0.0000,-9.4078,-3.2059,-1.1104,0.0000,-0.016933,0.016993,-0.017126,0.0009,0.0010,0.0041,-180.0000,0.0000,0.0000
283,2.8300,-0.0474,-0.0573,0.0780,0.1078,0.0000,0.0000,0.0000,20.0000,2.6076,3.3072,42.8733,33.5950,0.5332,0.000597,0.6525,2.0912,0.2844,-2.3756,0.6525,-0.0000,-9.4078,-3.2059,-1.1104,0.0000,-0.013186,0.014930,-0.016828,0.0013,0.0013,0.0036,-180.0000,0.0000,0.0000
284,2.8400,-0.0343,-0.0343,0.0758,0.0900,0.0000,0.0000,0.0000,20.0000,2.2272,3.2583,48.8354,34.2693,0.5363,0.000570,0.6525,2.0912,0.2844,-2.3756,0.6525,-0.0000,-9.4078,-3.2059,-1.1104,0.0000,-0.009775,0.011461,-0.016405,0.0018,0.0004,0.0034,-180.0000,0.0000,0.0000
285,2.8500,-0.0260,-0.0152,0.0741,0.0800,0.0000,0.0000,0.0000,20.0000,1.9040,3.1927,47.4488,35.0324,0.5390,0.000618,0.6525,2.0912,0.2844,-2.3756,0.6525,-0.0000,-9.4078,-3.2059,-1.1104,0.0000,-0.007044,0.007606,-0.015970,0.0009,0.0009,0.0016,-180.0000,0.0000,0.0000
286,2.8600,-0.0297,-0.0042,0.0753,0.0811,0.0000,0.0000,0.0000,20.0000,1.7435,3.1174,34.4765,35.3587,0.5414,0.000589,0.6525,2.0912,0.2844,-2.3756,0.6525,-0.0000,-9.4078,-3.2059,-1.1104,0.0000,-0.005893,0.004359,-0.015819,0.0002,0.0002,0.0009,-180.0000,0.0000,0.0000
287,2.8700,-0.0409,-0.0001,0.0767,0.0870,0.0000,0.0000,0.0000,20.0000,1.7213,3.0412,22.6075,34.9837,0.5438,0.000595,0.6525,2.0912,0.2844,-2.3756,0.6525,-0.0000,-9.4078,-3.2059,-1.1104,0.0000,-0.006364,0.002148,-0.015848,-0.0006,-0.0003,0.0006,-180.0000,0.0000,0.0000
288,2.8800,-0.0433,0.0085,0.0845,0.0953,0.0000,0.0000,0.0000,20.0000,1.7963,2.9706,22.6927,34.3052,0.5462,0.000520,0.6525,2.0912,0.2844,-2.3756,0.6525,-0.0000,-9.4078,-3.2059,-1.1104,0.0000,-0.006848,0.000065,-0.016606,-0.0007,-0.0007,0.0008,-180.0000,0.0000,0.0000
289,2.8900,-0.0377,0.0211,0.0968,0.1060,0.0000,0.0000,0.0000,20.0000,1.9506,2.9103,29.2092,33.8457,0.5486,0.000446,0.6525,2.0912,0.2844,-2.3756,0.6525,-0.0000,-9.4078,-3.2059,-1.1104,0.0000,-0.006545,-0.002348,-0.018225,-0.0018,-0.0002,-0.0006,-180.0000,0.0000,0.0000
290,2.9000,-0.0356,0.0263,0.1019,0.1111,0.0000,0.0000,0.0000,20.0000,2.0964,2.8615,23.3525,33.4296,0.5511,0.000576,0.6525,2.0912,0.2844,-2.3756,0.6525,-0.0000,-9.4078,-3.2059,-1.1104,0.0000,-0.006152,-0.004196,-0.019597,-0.0017,0.0001,-0.0010,-180.0000,0.0000,0.0000
291,2.9100,-0.0437,0.0173,0.0992,0.1098,0.0000,0.0000,0.0000,20.0000,2.1578,2.8211,7.4140,32.4369,0.5536,0.000651,0.6525,2.0912,0.2844,-2.3756,0.6525,-0.0000,-9.4078,-3.2059,-1.1104,0.0000,-0.006733,-0.004308,-0.020043,-0.0022,0.0020,-0.0010,-180.0000,0.0000,0.0000
292,2.9200,-0.0571,-0.0010,0.0946,0.1105,0.0000,0.0000,0.0000,20.0000,2.2561,2.7873,33.3254,31.7731,0.5566,0.000473,0.6894,2.1988,0.3461,-2.5448,0.6894,0.0016,-9.1953,-3.1906,-1.2703,0.0000,-0.009360,-0.002288,-0.020400,-0.0036,0.0027,-0.0018,-180.0000,0.0000,0.0000
293,2.9300,-0.0736,-0.0286,0.0913,0.1207,0.0000,0.0000,0.0000,20.0000,2.3800,2.7615,49.6831,32.3084,0.5600,0.000672,0.6894,2.1988,0.3461,-2.5448,0.6894,0.0016,-9.1953,-3.1906,-1.2703,0.0000,-0.012450,0.001598,-0.020221,-0.0049,0.0041,-0.0020,-180.0000,0.0000,0.0000
294,2.9400,-0.0900,-0.0595,0.0931,0.1425,0.0000,0.0000,0.0000,20.0000,2.6574,2.7482,61.9604,33.6018,0.5640,0.000675,0.6894,2.1988,0.3461,-2.5448,0.6894,0.0016,-9.1953,-3.1906,-1.2703,0.0000,-0.015775,0.006827,-0.020266,-0.0041,0.0043,-0.0017,-180.0000,0.0000,0.0000
295,2.9500,-0.0942,-0.0896,0.1036,0.1663,0.0000,0.0000,0.0000,20.0000,3.0653,2.7544,63.8320,35.2132,0.5686,0.000604,0.6894,2.1988,0.3461,-2.5448,0.6894,0.0016,-9.1953,-3.1906,-1.2703,0.0000,-0.018000,0.012719,-0.021303,-0.0040,0.0046,-0.0005,-180.0000,0.0000,0.0000
296,2.9600,-0.0849,-0.1159,0.1208,0.1877,0.0000,0.0000,0.0000,20.0000,3.5116,2.7838,62.7717,36.7583,0.5737,0.000550,0.6894,2.1988,0.3461,-2.5448,0.6894,0.0016,-9.1953,-3.1906,-1.2703,0.0000,-0.018263,0.018574,-0.023550,-0.0036,0.0039,-0.0012,-180.0000,0.0000,0.0000
297,2.9700,-0.0656,-0.1231,0.1396,0.1973,0.0000,0.0000,0.0000,20.0000,3.8537,2.8332,53.0664,37.9223,0.5793,0.000682,0.6894,2.1988,0.3461,-2.5448,0.6894,0.0016,-9.1953,-3.1906,-1.2703,0.0000,-0.016438,0.022495,-0.026625,-0.0017,0.0033,-0.0002,-180.0000,0.0000,0.0000
298,2.9800,-0.0485,-0.1118,0.1534,0.1959,0.0000,0.0000,0.0000,20.0000,4.0225,2.8940,42.0925,38.4536,0.5850,0.000564,0.6894,2.1988,0.3461,-2.5448,0.6894,0.0016,-9.1953,-3.1906,-1.2703,0.0000,-0.013684,0.023489,-0.029649,-0.0009,0.0028,-0.0005,-180.0000,0.0000,0.0000
299,2.9900,-0.0317,-0.0971,0.1578,0.1880,0.0000,0.0000,0.0000,20.0000,4.0270,2.9562,39.4538,38.5812,0.5907,0.000522,0.6894,2.1988,0.3461,-2.5448,0.6894,0.0016,-9.1953,-3.1906,-1.2703,0.0000,-0.010455,0.022526,-0.031701,-0.0006,0.0023,0.0011,-180.0000,0.0000,0.0000
300,3.0000,-0.0116,-0.0805,0.1616,0.1809,0.0000,0.0000,0.0000,20.0000,3.9433,3.0128,46.5947,38.8256,0.5961,0.000645,0.6894,2.1988,0.3461,-2.5448,0.6894,0.0016,-9.1953,-3.1906,-1.2703,0.0000,-0.006640,0.020283,-0.033158,-0.0004,0.0009,0.0005,-180.0000,0.0000,0.0000
301,3.0100,0.0042,-0.0495,0.1676,0.1748,0.0000,0.0000,0.0000,20.0000,3.8097,3.0603,58.8291,39.5894,0.6011,0.000609,0.6894,2.1988,0.3461,-2.5448,0.6894,0.0016,-9.1953,-3.1906,-1.2703,0.0000,-0.002942,0.015906,-0.034493,0.0010,0.0007,0.0005,-180.0000,0.0000,0.0000
302,3.0200,0.0107,-0.0149,0.1743,0.1752,0.0000,0.0000,0.0000,20.0000,3.7197,3.0991,66.4211,40.8566,0.6057,0.000571,0.6894,2.1988,0.3461,-2.5448,0.6894,0.0016,-9.1953,-3.1906,-1.2703,0.0000,-0.000237,0.009989,-0.035830,0.0018,0.0010,-0.0005,-180.0000,0.0000,0.0000
303,3.0300,0.0136,0.0063,0.1836,0.1842,0.0000,0.0000,0.0000,20.0000,3.7743,3.1347,59.0960,42.0613,0.6101,0.000611,0.6894,2.1988,0.3461,-2.5448,0.6894,0.0016,-9.1953,-3.1906,-1.2703,0.0000,0.001541,0.004586,-0.037431,0.0026,0.0004,0.0009,-180.0000,0.0000,0.0000
304,3.0400,0.0104,0.0156,0.1960,0.1969,0.0000,0.0000,0.0000,20.0000,3.9544,3.1748,44.8137,42.6056,0.6145,0.000619,0.6894,2.1988,0.3461,-2.5448,0.6894,0.0016,-9.1953,-3.1906,-1.2703,0.0000,0.002207,0.000655,-0.039477,0.0018,0.0006,0.0008,-180.0000,0.0000,0.0000
305,3.0500,-0.0009,0.0257,0.2032,0.2048,0.0000,0.0000,0.0000,20.0000,4.1358,3.2227,37.2122,42.5180,0.6191,0.000586,0.6894,2.1988,0.3461,-2.5448,0.6894,0.0016,-9.1953,-3.1906,-1.2703,0.0000,0.001441,-0.002523,-0.041256,0.0024,0.0014,0.0025,-180.0000,0.0000,0.0000
306,3.0600,-0.0106,0.0293,0.2019,0.2043,0.0000,0.0000,0.0000,20.0000,4.2279,3.2755,26.4967,41.9314,0.6238,0.000659,0.6894,2.1988,0.3461,-2.5448,0.6894,0.0016,-9.1953,-3.1906,-1.2703,0.0000,0.000048,-0.004642,-0.042023,0.0005,0.0012,0.0041,-180.0000,0.0000,0.0000
307,3.0700,-0.0200,0.0174,0.1981,0.1999,0.0000,0.0000,0.0000,20.0000,4.2275,3.3278,17.1738,40.8259,0.6286,0.000592,0.6894,2.1988,0.3461,-2.5448,0.6894,0.0016,-9.1953,-3.1906,-1.2703,0.0000,-0.001669,-0.004609,-0.041989,-0.0006,0.0008,0.0053,-180.0000,0.0000,0.0000
308,3.0800,-0.0309,-0.0002,0.1922,0.1947,0.0000,0.0000,0.0000,20.0000,4.1553,3.3753,27.9463,39.8212,0.6338,0.000518,0.6894,2.1988,0.3461,-2.5448,0.6894,0.0016,-9.1953,-3.1906,-1.2703,0.0000,-0.003699,-0.002819,-0.041292,-0.0022,0.0017,0.0056,-180.0000,0.0000,0.0000
309,3.0900,-0.0410,-0.0124,0.1864,0.1913,0.0000,0.0000,0.0000,20.0000,4.0669,3.4158,32.4403,39.2916,0.6391,0.000571,0.6894,2.1988,0.3461,-2.5448,0.6894,0.0016,-9.1953,-3.1906,-1.2703,0.0000,-0.005829,-0.000608,-0.040245,-0.0028,0.0023,0.0037,-180.0000,0.0000,0.0000
310,3.1000,-0.0544,-0.0194,0.1809,0.1899,0.0000,0.0000,0.0000,20.0000,3.9940,3.4496,33.8161,38.9525,0.6446,0.000481,0.6894,2.1988,0.3461,-2.5448,0.6894,0.0016,-9.1953,-3.1906,-1.2703,0.0000,-0.008333,0.001319,-0.039039,-0.0035,0.0024,0.0031,-180.0000,0.0000,0.0000
311,3.1100,-0.0719,-0.0259,0.1726,0.1888,0.0000,0.0000,0.0000,20.0000,3.9293,3.4778,38.9185,38.8103,0.6504,0.000666,0.6894,2.1988,0.3461,-2.5448,0.6894,0.0016,-9.1953,-3.1906,-1.2703,0.0000,-0.011455,0.003027,-0.037464,-0.0024,0.0031,0.0013,-180.0000,0.0000,0.0000
312,3.1200,-0.0891,-0.0335,0.1609,0.1869,0.0000,0.0000,0.0000,20.0000,3.9756,3.5039,43.5239,38.9429,0.6565,0.000532,0.7295,2.4481,0.3258,-2.7740,0.7295,-0.0024,-9.1242,-3.1318,-1.1394,-0.0000,-0.015181,0.005009,-0.036401,-0.0030,0.0032,0.0005,-180.0000,-0.0000,0.0000
313,3.1300,-0.1030,-0.0404,0.1504,0.1867,0.0000,0.0000,0.0000,20.0000,3.9944,3.5304,42.2058,39.1587,0.6628,0.000631,0.7295,2.4481,0.3258,-2.7740,0.7295,-0.0024,-9.1242,-3.1318,-1.1394,-0.0000,-0.018609,0.006778,-0.034688,-0.0024,0.0027,-0.0004,-180.0000,-0.0000,0.0000
314,3.1400,-0.1125,-0.0515,0.1401,0.1869,0.0000,0.0000,0.0000,20.0000,4.0032,3.5561,40.4649,39.2784,0.6693,0.000569,0.7295,2.4481,0.3258,-2.7740,0.7295,-0.0024,-9.1242,-3.1318,-1.1394,-0.0000,-0.021413,0.008859,-0.032643,-0.0024,0.0026,0.0012,-180.0000,-0.0000,0.0000
315,3.1500,-0.1182,-0.0615,0.1295,0.1859,0.0000,0.0000,0.0000,20.0000,3.9956,3.5805,37.3312,39.2575,0.6759,0.000659,0.7295,2.4481,0.3258,-2.7740,0.7295,-0.0024,-9.1242,-3.1318,-1.1394,-0.0000,-0.023494,0.010991,-0.030394,-0.0042,0.0032,0.0018,-180.0000,-0.0000,0.0000
316,3.1600,-0.1205,-0.0583,0.1210,0.1804,0.0000,0.0000,0.0000,20.0000,3.9410,3.6019,26.7030,38.8592,0.6824,0.000723,0.7295,2.4481,0.3258,-2.7740,0.7295,-0.0024,-9.1242,-3.1318,-1.1394,-0.0000,-0.024825,0.011822,-0.028233,-0.0036,0.0032,0.0019,-180.0000,-0.0000,0.0000
317,3.1700,-0.1191,-0.0438,0.1128,0.1698,0.0000,0.0000,0.0000,20.0000,3.8014,3.6167,23.6922,38.1077,0.6886,0.000755,0.7295,2.4481,0.3258,-2.7740,0.7295,-0.0024,-9.1242,-3.1318,-1.1394,-0.0000,-0.025372,0.010806,-0.026164,-0.0024,0.0032,0.0016,-180.0000,-0.0000,0.0000
318,3.1800,-0.1257,-0.0297,0.1065,0.1674,0.0000,0.0000,0.0000,20.0000,3.6884,3.6237,28.5036,37.4471,0.6946,0.000772,0.7295,2.4481,0.3258,-2.7740,0.7295,-0.0024,-9.1242,-3.1318,-1.1394,-0.0000,-0.026277,0.008815,-0.024335,-0.0015,0.0033,-0.0003,-180.0000,-0.0000,0.0000
319,3.1900,-0.1414,-0.0273,0.1064,0.1791,0.0000,0.0000,0.0000,20.0000,3.7390,3.6287,26.5510,36.9014,0.7007,0.000710,0.7295,2.4481,0.3258,-2.7740,0.7295,-0.0024,-9.1242,-3.1318,-1.1394,-0.0000,-0.028299,0.007463,-0.023271,-0.0026,0.0027,-0.0009,-180.0000,-0.0000,0.0000
320,3.2000,-0.1514,-0.0417,0.1139,0.1940,0.0000,0.0000,0.0000,20.0000,3.9180,3.6397,21.7363,36.1996,0.7070,0.000721,0.7295,2.4481,0.3258,-2.7740,0.7295,-0.0024,-9.1242,-3.1318,-1.1394,-0.0000,-0.030363,0.008132,-0.023388,-0.0025,0.0013,-0.0018,-180.0000,-0.0000,0.0000
321,3.2100,-0.1539,-0.0671,0.1274,0.2108,0.0000,0.0000,0.0000,20.0000,4.1696,3.6619,34.6861,35.7602,0.7138,0.000801,0.7295,2.4481,0.3258,-2.7740,0.7295,-0.0024,-9.1242,-3.1318,-1.1394,-0.0000,-0.031689,0.011032,-0.024753,-0.0033,0.0002,-0.0018,-180.0000,-0.0000,0.0000
322,3.2200,-0.1518,-0.0941,0.1452,0.2301,0.0000,0.0000,0.0000,20.0000,4.4829,3.6984,49.6731,36.1133,0.7212,0.000712,0.7295,2.4481,0.3258,-2.7740,0.7295,-0.0024,-9.1242,-3.1318,-1.1394,-0.0000,-0.032146,0.015309,-0.027238,-0.0045,-0.0009,-0.0021,-180.0000,-0.0000,0.0000
323,3.2300,-0.1428,-0.1072,0.1607,0.2403,0.0000,0.0000,0.0000,20.0000,4.7480,3.7489,46.9646,36.7847,0.7292,0.000721,0.7295,2.4481,0.3258,-2.7740,0.7295,-0.0024,-9.1242,-3.1318,-1.1394,-0.0000,-0.031439,0.018958,-0.030109,-0.0051,-0.0013,-0.0006,-180.0000,-0.0000,0.0000
324,3.2400,-0.1293,-0.1055,0.1713,0.2391,0.0000,0.0000,0.0000,20.0000,4.8763,3.8074,36.2757,37.0507,0.7375,0.000725,0.7295,2.4481,0.3258,-2.7740,0.7295,-0.0024,-9.1242,-3.1318,-1.1394,-0.0000,-0.029636,0.020760,-0.032689,-0.0054,-0.0014,-0.0005,-180.0000,-0.0000,0.0000
325,3.2500,-0.1181,-0.0982,0.1784,0.2354,0.0000,0.0000,0.0000,20.0000,4.9020,3.8669,30.1810,36.8404,0.7459,0.000851,0.7295,2.4481,0.3258,-2.7740,0.7295,-0.0024,-9.1242,-3.1318,-1.1394,-0.0000,-0.027457,0.020988,-0.034765,-0.0041,-0.0011,-0.0000,-180.0000,-0.0000,0.0000
326,3.2600,-0.1101,-0.0832,0.1757,0.2234,0.0000,0.0000,0.0000,20.0000,4.7891,3.9207,26.2275,36.3654,0.7541,0.000650,0.7295,2.4481,0.3258,-2.7740,0.7295,-0.0024,-9.1242,-3.1318,-1.1394,-0.0000,-0.025399,0.019575,-0.035571,-0.0024,0.0002,-0.0000,-180.0000,-0.0000,0.0000
327,3.2700,-0.1039,-0.0698,0.1624,0.2051,0.0000,0.0000,0.0000,20.0000,4.5369,3.9615,29.7193,35.9038,0.7620,0.000646,0.7295,2.4481,0.3258,-2.7740,0.7295,-0.0024,-9.1242,-3.1318,-1.1394,-0.0000,-0.023591,0.017417,-0.034619,-0.0017,0.0009,0.0015,-180.0000,-0.0000,0.0000
328,3.2800,-0.1004,-0.0726,0.1523,0.1963,0.0000,0.0000,0.0000,20.0000,4.3051,3.9868,23.3301,35.3878,0.7695,0.000696,0.7295,2.4481,0.3258,-2.7740,0.7295,-0.0024,-9.1242,-3.1318,-1.1394,-0.0000,-0.022195,0.016468,-0.033008,-0.0014,0.0005,0.0017,-180.0000,-0.0000,0.0000
329,3.2900,-0.1017,-0.0790,0.1484,0.1965,0.0000,0.0000,0.0000,20.0000,4.1702,4.0006,15.1086,34.4984,0.7768,0.000547,0.7295,2.4481,0.3258,-2.7740,0.7295,-0.0024,-9.1242,-3.1318,-1.1394,-0.0000,-0.021506,0.016548,-0.031666,-0.0006,0.0015,0.0010,-180.0000,-0.0000,0.0000
330,3.3000,-0.1077,-0.0730,0.1458,0.1954,0.0000,0.0000,0.0000,20.0000,4.0756,4.0073,12.3202,33.3552,0.7840,0.000680,0.7295,2.4481,0.3258,-2.7740,0.7295,-0.0024,-9.1242,-3.1318,-1.1394,-0.0000,-0.021682,0.015957,-0.030599,-0.0008,0.0023,0.0004,-180.0000,-0.0000,0.0000
331,3.3100,-0.1137,-0.0639,0.1508,0.1994,0.0000,0.0000,0.0000,20.0000,4.0519,4.0104,14.3413,32.2536,0.7911,0.000701,0.7295,2.4481,0.3258,-2.7740,0.7295,-0.0024,-9.1242,-3.1318,-1.1394,-0.0000,-0.022335,0.014689,-0.030450,-0.0014,0.0026,0.0003,-180.0000,-0.0000,0.0000
332,3.3200,-0.1150,-0.0498,0.1643,0.2067,0.0000,0.0000,0.0000,20.0000,4.2423,4.0180,32.2989,31.7622,0.7987,0.000611,0.7802,2.7144,0.3380,-3.0524,0.7802,0.0048,-9.1090,-3.0957,-1.2816,0.0000,-0.023535,0.012898,-0.032855,-0.0019,0.0021,-0.0013,-180.0000,-0.0000,-0.0000
333,3.3300,-0.1057,-0.0277,0.1759,0.2071,0.0000,0.0000,0.0000,20.0000,4.3325,4.0328,40.5225,32.0179,0.8064,0.000645,0.7802,2.7144,0.3380,-3.0524,0.7802,0.0048,-9.1090,-3.0957,-1.2816,0.0000,-0.023218,0.009666,-0.035278,-0.0022,0.0012,-0.0017,-180.0000,-0.0000,-0.0000
334,3.3400,-0.0839,-0.0097,0.1754,0.1946,0.0000,0.0000,0.0000,20.0000,4.2448,4.0469,44.9473,32.6075,0.8139,0.000609,0.7802,2.7144,0.3380,-3.0524,0.7802,0.0048,-9.1090,-3.0957,-1.2816,0.0000,-0.020815,0.006067,-0.036493,-0.0012,-0.0002,-0.0010,-180.0000,-0.0000,-0.0000
335,3.3500,-0.0618,0.0006,0.1636,0.1748,0.0000,0.0000,0.0000,20.0000,3.9950,4.0509,47.2824,33.3505,0.8207,0.000622,0.7802,2.7144,0.3380,-3.0524,0.7802,0.0048,-9.1090,-3.0957,-1.2816,0.0000,-0.017238,0.003030,-0.035912,-0.0004,-0.0007,-0.0006,-180.0000,-0.0000,-0.0000
336,3.3600,-0.0482,0.0077,0.1455,0.1535,0.0000,0.0000,0.0000,20.0000,3.6460,4.0382,46.8462,34.1048,0.8268,0.000643,0.7802,2.7144,0.3380,-3.0524,0.7802,0.0048,-9.1090,-3.0957,-1.2816,0.0000,-0.013862,0.000638,-0.033716,-0.0005,-0.0011,-0.0007,-180.0000,-0.0000,-0.0000
337,3.3700,-0.0390,0.0060,0.1241,0.1302,0.0000,0.0000,0.0000,20.0000,3.2249,4.0051,45.7729,34.7762,0.8321,0.000577,0.7802,2.7144,0.3380,-3.0524,0.7802,0.0048,-9.1090,-3.0957,-1.2816,0.0000,-0.011050,-0.000515,-0.030293,-0.0012,-0.0016,0.0012,-180.0000,-0.0000,-0.0000
338,3.3800,-0.0353,0.0012,0.1041,0.1099,0.0000,0.0000,0.0000,20.0000,2.7876,3.9501,44.0974,35.3350,0.8367,0.000551,0.7802,2.7144,0.3380,-3.0524,0.7802,0.0048,-9.1090,-3.0957,-1.2816,0.0000,-0.009105,-0.000676,-0.026338,-0.0006,0.0003,0.0021,-180.0000,-0.0000,-0.0000
339,3.3900,-0.0401,-0.0029,0.0891,0.0977,0.0000,0.0000,0.0000,20.0000,2.4144,3.8759,38.0371,35.6503,0.8407,0.000614,0.7802,2.7144,0.3380,-3.0524,0.7802,0.0048,-9.1090,-3.0957,-1.2816,0.0000,-0.008490,-0.000349,-0.022599,-0.0026,0.0014,0.0025,-180.0000,-0.0000,-0.0000
340,3.4000,-0.0442,-0.0080,0.0781,0.0901,0.0000,0.0000,0.0000,20.0000,2.1188,3.7874,32.8755,35.6397,0.8443,0.000716,0.7802,2.7144,0.3380,-3.0524,0.7802,0.0048,-9.1090,-3.0957,-1.2816,0.0000,-0.008544,0.000346,-0.019386,-0.0024,0.0010,0.0031,-180.0000,-0.0000,-0.0000
341,3.4100,-0.0441,-0.0164,0.0690,0.0835,0.0000,0.0000,0.0000,20.0000,1.8795,3.6890,29.7977,35.4030,0.8476,0.000567,0.7802,2.7144,0.3380,-3.0524,0.7802,0.0048,-9.1090,-3.0957,-1.2816,0.0000,-0.008545,0.001565,-0.016667,-0.0021,0.0010,0.0038,-180.0000,-0.0000,-0.0000
342,3.4200,-0.0517,-0.0222,0.0591,0.0816,0.0000,0.0000,0.0000,20.0000,1.7145,3.5849,29.2026,35.0783,0.8507,0.000651,0.7802,2.7144,0.3380,-3.0524,0.7802,0.0048,-9.1090,-3.0957,-1.2816,0.0000,-0.009286,0.002816,-0.014135,-0.0008,0.0031,0.0021,-180.0000,-0.0000,-0.0000
343,3.4300,-0.0698,-0.0223,0.0482,0.0877,0.0000,0.0000,0.0000,20.0000,1.6712,3.4809,34.1914,34.8923,0.8538,0.000588,0.7802,2.7144,0.3380,-3.0524,0.7802,0.0048,-9.1090,-3.0957,-1.2816,0.0000,-0.011489,0.003516,-0.011616,-0.0013,0.0025,0.0018,-180.0000,-0.0000,-0.0000
344,3.4400,-0.0867,-0.0166,0.0436,0.0984,0.0000,0.0000,0.0000,20.0000,1.7682,3.3840,34.4185,34.8600,0.8568,0.000574,0.7802,2.7144,0.3380,-3.0524,0.7802,0.0048,-9.1090,-3.0957,-1.2816,0.0000,-0.014373,0.003321,-0.009747,-0.0007,0.0019,0.0006,-180.0000,-0.0000,-0.0000
345,3.4500,-0.0965,-0.0035,0.0465,0.1072,0.0000,0.0000,0.0000,20.0000,1.9251,3.2994,30.1718,34.7189,0.8600,0.000527,0.7802,2.7144,0.3380,-3.0524,0.7802,0.0048,-9.1090,-3.0957,-1.2816,0.0000,-0.016921,0.001896,-0.008983,-0.0003,0.0017,-0.0006,-180.0000,-0.0000,-0.0000
346,3.4600,-0.0986,0.0136,0.0482,0.1106,0.0000,0.0000,0.0000,20.0000,2.0459,3.2271,29.7201,34.4563,0.8632,0.000561,0.7802,2.7144,0.3380,-3.0524,0.7802,0.0048,-9.1090,-3.0957,-1.2816,0.0000,-0.018503,-0.000605,-0.008710,0.0013,0.0006,-0.0012,-180.0000,-0.0000,-0.0000
347,3.4700,-0.0857,0.0266,0.0450,0.1004,0.0000,0.0000,0.0000,20.0000,2.0107,3.1612,27.6277,34.1382,0.8661,0.000497,0.7802,2.7144,0.3380,-3.0524,0.7802,0.0048,-9.1090,-3.0957,-1.2816,0.0000,-0.018052,-0.003287,-0.008223,0.0011,-0.0007,-0.0009,-180.0000,-0.0000,-0.0000
348,3.4800,-0.0610,0.0293,0.0384,0.0778,0.0000,0.0000,0.0000,20.0000,1.7676,3.0912,33.9334,33.9535,0.8684,0.000534,0.7802,2.7144,0.3380,-3.0524,0.7802,0.0048,-9.1090,-3.0957,-1.2816,0.0000,-0.015301,-0.005035,-0.007278,0.0005,-0.0006,-0.0005,-180.0000,-0.0000,-0.0000
349,3.4900,-0.0351,0.0258,0.0275,0.0515,0.0000,0.0000,0.0000,20.0000,1.3717,3.0075,44.9571,34.2556,0.8701,0.000548,0.7802,2.7144,0.3380,-3.0524,0.7802,0.0048,-9.1090,-3.0957,-1.2816,0.0000,-0.011156,-0.005641,-0.005648,0.0002,-0.0003,-0.0003,-180.0000,-0.0000,-0.0000
350,3.5000,-0.0141,0.0135,0.0151,0.0247,0.0000,0.0000,0.0000,20.0000,0.8949,2.9044,49.9341,34.9812,0.8710,0.000641,0.7802,2.7144,0.3380,-3.0524,0.7802,0.0048,-9.1090,-3.0957,-1.2816,0.0000,-0.006743,-0.004733,-0.003493,-0.0004,-0.0002,0.0003,-180.0000,-0.0000,-0.0000
351,3.5100,-0.0045,0.0012,0.0104,0.0114,0.0000,0.0000,0.0000,20.0000,0.4833,2.7826,41.7902,35.5797,0.8715,0.000565,0.7802,2.7144,0.3380,-3.0524,0.7802,0.0048,-9.1090,-3.0957,-1.2816,0.0000,-0.003332,-0.002988,-0.001825,-0.0022,0.0010,-0.0008,-180.0000,-0.0000,-0.0000
352,3.5200,-0.0122,-0.0051,0.0197,0.0237,0.0000,0.0000,0.0000,20.0000,0.4307,2.6546,21.8341,35.3725,0.8721,0.000609,0.8196,2.9510,0.3562,-3.3072,0.8196,-0.0020,-9.6886,-3.0497,-1.2190,0.0000,-0.002973,-0.001126,-0.002907,-0.0025,0.0022,-0.0010,-180.0000,0.0000,-0.0000
353,3.5300,-0.0287,-0.0082,0.0413,0.0509,0.0000,0.0000,0.0000,20.0000,0.7178,2.5402,33.8236,34.9575,0.8734,0.000610,0.8196,2.9510,0.3562,-3.3072,0.8196,-0.0020,-9.6886,-3.0497,-1.2190,0.0000,-0.004411,0.000216,-0.005658,-0.0007,0.0028,-0.0023,-180.0000,0.0000,-0.0000
354,3.5400,-0.0451,-0.0097,0.0705,0.0843,0.0000,0.0000,0.0000,20.0000,1.2246,2.4539,51.3810,35.3780,0.8757,0.000612,0.8196,2.9510,0.3562,-3.3072,0.8196,-0.0020,-9.6886,-3.0497,-1.2190,0.0000,-0.006843,0.001112,-0.010095,0.0003,0.0029,-0.0023,-180.0000,0.0000,-0.0000
355,3.5500,-0.0647,-0.0061,0.1002,0.1194,0.0000,0.0000,0.0000,20.0000,1.8547,2.4036,63.1637,36.5824,0.8790,0.000554,0.8196,2.9510,0.3562,-3.3072,0.8196,-0.0020,-9.6886,-3.0497,-1.2190,0.0000,-0.010127,0.001242,-0.015489,0.0011,0.0034,-0.0033,-180.0000,0.0000,-0.0000
356,3.5600,-0.0895,-0.0055,0.1254,0.1541,0.0000,0.0000,0.0000,20.0000,2.5465,2.3924,69.4595,38.2177,0.8836,0.000597,0.8196,2.9510,0.3562,-3.3072,0.8196,-0.0020,-9.6886,-3.0497,-1.2190,0.0000,-0.014402,0.001251,-0.020963,0.0009,0.0038,-0.0027,-180.0000,0.0000,-0.0000
357,3.5700,-0.1132,-0.0052,0.1417,0.1814,0.0000,0.0000,0.0000,20.0000,3.1953,2.4188,65.9370,39.8394,0.8894,0.000564,0.8196,2.9510,0.3562,-3.3072,0.8196,-0.0020,-9.6886,-3.0497,-1.2190,0.0000,-0.019111,0.001225,-0.025579,0.0011,0.0035,-0.0025,-180.0000,0.0000,-0.0000
358,3.5800,-0.1313,0.0061,0.1469,0.1971,0.0000,0.0000,0.0000,20.0000,3.7007,2.4754,54.3887,40.9574,0.8961,0.000613,0.8196,2.9510,0.3562,-3.3072,0.8196,-0.0020,-9.6886,-3.0497,-1.2190,0.0000,-0.023489,0.000082,-0.028597,0.0009,0.0042,-0.0019,-180.0000,0.0000,-0.0000
359,3.5900,-0.1470,0.0199,0.1428,0.2059,0.0000,0.0000,0.0000,20.0000,4.0546,2.5525,45.8302,41.4608,0.9033,0.000562,0.8196,2.9510,0.3562,-3.3072,0.8196,-0.0020,-9.6886,-3.0497,-1.2190,0.0000,-0.027427,-0.001930,-0.029800,0.0001,0.0058,-0.0019,-180.0000,0.0000,-0.0000
360,3.6000,-0.1527,0.0340,0.1279,0.2021,0.0000,0.0000,0.0000,20.0000,4.1991,2.6391,37.9522,41.4845,0.9105,0.000616,0.8196,2.9510,0.3562,-3.3072,0.8196,-0.0020,-9.6886,-3.0497,-1.2190,0.0000,-0.030122,-0.004452,-0.028916,-0.0018,0.0072,-0.0006,-180.0000,0.0000,-0.0000
361,3.6100,-0.1385,0.0542,0.1049,0.1820,0.0000,0.0000,0.0000,20.0000,4.0607,2.7211,44.3178,41.4652,0.9172,0.000531,0.8196,2.9510,0.3562,-3.3072,0.8196,-0.0020,-9.6886,-3.0497,-1.2190,0.0000,-0.030125,-0.007852,-0.026073,-0.0033,0.0073,-0.0000,-180.0000,0.0000,-0.0000
362,3.6200,-0.1138,0.0724,0.0835,0.1586,0.0000,0.0000,0.0000,20.0000,3.7316,2.7858,58.5004,42.0122,0.9228,0.000576,0.8196,2.9510,0.3562,-3.3072,0.8196,-0.0020,-9.6886,-3.0497,-1.2190,0.0000,-0.027599,-0.011544,-0.022304,-0.0070,0.0080,-0.0001,-180.0000,0.0000,-0.0000
363,3.6300,-0.0932,0.0870,0.0672,0.1441,0.0000,0.0000,0.0000,20.0000,3.3904,2.8284,62.0692,43.0174,0.9274,0.000577,0.8196,2.9510,0.3562,-3.3072,0.8196,-0.0020,-9.6886,-3.0497,-1.2190,0.0000,-0.024088,-0.015015,-0.018542,-0.0096,0.0085,-0.0005,-180.0000,0.0000,-0.0000
364,3.6400,-0.0755,0.1057,0.0512,0.1396,0.0000,0.0000,0.0000,20.0000,3.1401,2.8524,64.8451,44.1417,0.9308,0.000668,0.8196,2.9510,0.3562,-3.3072,0.8196,-0.0020,-9.6886,-3.0497,-1.2190,0.0000,-0.020329,-0.018780,-0.014834,-0.0112,0.0086,-0.0007,-180.0000,0.0000,-0.0000
365,3.6500,-0.0567,0.1223,0.0390,0.1403,0.0000,0.0000,0.0000,20.0000,3.0085,2.8646,63.7112,45.2494,0.9330,0.000613,0.8196,2.9510,0.3562,-3.3072,0.8196,-0.0020,-9.6886,-3.0497,-1.2190,0.0000,-0.016333,-0.022482,-0.011530,-0.0101,0.0073,-0.0007,-180.0000,0.0000,-0.0000
366,3.6600,-0.0380,0.1313,0.0284,0.1396,0.0000,0.0000,0.0000,20.0000,2.9463,2.8708,58.1248,46.1113,0.9343,0.000648,0.8196,2.9510,0.3562,-3.3072,0.8196,-0.0020,-9.6886,-3.0497,-1.2190,0.0000,-0.012220,-0.025384,-0.008624,-0.0086,0.0081,-0.0008,-180.0000,0.0000,-0.0000
367,3.6700,-0.0204,0.1332,0.0111,0.1352,0.0000,0.0000,0.0000,20.0000,2.8815,2.8732,55.4391,46.6983,0.9345,0.000647,0.8196,2.9510,0.3562,-3.3072,0.8196,-0.0020,-9.6886,-3.0497,-1.2190,0.0000,-0.008165,-0.027127,-0.005269,-0.0050,0.0095,-0.0002,-180.0000,0.0000,-0.0000
368,3.6800,-0.0034,0.1286,-0.0123,0.1293,0.0000,0.0000,0.0000,20.0000,2.7915,2.8712,57.9917,47.2493,0.9336,0.000664,0.8196,2.9510,0.3562,-3.3072,0.8196,-0.0020,-9.6886,-3.0497,-1.2190,0.0000,-0.004200,-0.027577,-0.001061,-0.0024,0.0110,0.0010,-180.0000,0.0000,-0.0000
369,3.6900,0.0176,0.1229,-0.0348,0.1290,0.0000,0.0000,0.0000,20.0000,2.7427,2.8655,62.8704,47.9744,0.9316,0.000615,0.8196,2.9510,0.3562,-3.3072,0.8196,-0.0020,-9.6886,-3.0497,-1.2190,0.0000,0.000097,-0.027201,0.003513,-0.0010,0.0130,0.0027,-180.0000,0.0000,-0.0000
370,3.7000,0.0408,0.1111,-0.0520,0.1293,0.0000,0.0000,0.0000,20.0000,2.7327,2.8584,64.9637,48.8514,0.9285,0.000640,0.8196,2.9510,0.3562,-3.3072,0.8196,-0.0020,-9.6886,-3.0497,-1.2190,0.0000,0.004795,-0.025759,0.007761,-0.0001,0.0152,0.0039,-180.0000,0.0000,-0.0000
371,3.7100,0.0557,0.0783,-0.0824,0.1266,0.0000,0.0000,0.0000,20.0000,2.6812,2.8501,78.9974,50.1237,0.9244,0.000649,0.8196,2.9510,0.3562,-3.3072,0.8196,-0.0020,-9.6886,-3.0497,-1.2190,0.0000,0.008867,-0.021632,0.013127,0.0063,0.0183,0.0040,-180.0000,0.0000,-0.0000
