GerardoEmirSanchez/Integraci-n-de-xArm5-5-DOF-en-NVIDIA-Isaac-Sim-con-ROS-2-Humble-para-pHRI/mediciones/2026.04.28_VIC_pHRI_tanh_2026-04-28_13-57-04.csv
Index,Time_s,Fx,Fy,Fz,F_Amp,Psi_Imp,Psi_Int,Beta,K_Stiffness,Vel_Raw,Vel_Filt,Acc_Raw,Acc_Filt,Lyapunov_V_Nmm,Loop_Duration_s,q1,q2,q3,q4,q5,tau1,tau2,tau3,tau4,tau5,deltaXcmd,deltaYcmd,deltaZcmd,Tx_EE,Ty_EE,Tz_EE,Roll,Pitch,Yaw
0,0.0000,-0.0815,-0.0751,-0.0444,0.1194,0.0000,0.0000,0.0000,20.0000,2.0959,0.2419,51.4435,10.1321,0.0000,0.000900,358.7853,-60.5656,-23.2323,83.7979,358.7853,-0.0000,0.6290,-11.2446,-0.9926,5.1371,-0.012321,0.014898,0.008095,-0.0038,0.0000,-0.0004,-180.0000,0.0000,0.0000
1,0.0100,-0.1096,-0.0704,-0.0416,0.1367,0.0000,0.0000,0.0000,20.0000,2.4868,0.3546,54.3247,12.4838,0.0001,0.000790,358.7853,-60.5656,-23.2323,83.7979,358.7853,-0.0000,0.6290,-11.2446,-0.9926,5.1371,-0.017724,0.015184,0.008585,-0.0036,0.0012,-0.0015,-180.0000,0.0000,0.0000
2,0.0200,-0.1315,-0.0651,-0.0342,0.1507,0.0000,0.0000,0.0000,20.0000,2.8405,0.4816,51.7904,14.7157,0.0001,0.000804,358.7853,-60.5656,-23.2323,83.7979,358.7853,-0.0000,0.6290,-11.2446,-0.9926,5.1371,-0.022865,0.014778,0.008103,-0.0036,0.0013,-0.0011,-180.0000,0.0000,0.0000
3,0.0300,-0.1383,-0.0561,-0.0208,0.1507,0.0000,0.0000,0.0000,20.0000,3.0357,0.6168,40.0862,16.4332,0.0002,0.000850,358.7853,-60.5656,-23.2323,83.7979,358.7853,-0.0000,0.6290,-11.2446,-0.9926,5.1371,-0.026343,0.013625,0.006478,-0.0030,0.0001,-0.0004,-180.0000,0.0000,0.0000
4,0.0400,-0.1353,-0.0447,0.0006,0.1425,0.0000,0.0000,0.0000,20.0000,3.0502,0.7502,38.6867,17.6958,0.0003,0.000835,358.7853,-60.5656,-23.2323,83.7979,358.7853,-0.0000,0.6290,-11.2446,-0.9926,5.1371,-0.027907,0.011824,0.003432,-0.0026,-0.0003,0.0000,-180.0000,0.0000,0.0000
5,0.0500,-0.1223,-0.0282,0.0253,0.1280,0.0000,0.0000,0.0000,20.0000,2.8910,0.8724,49.6742,19.1526,0.0004,0.000766,358.7853,-60.5656,-23.2323,83.7979,358.7853,-0.0000,0.6290,-11.2446,-0.9926,5.1371,-0.027413,0.009153,-0.000727,-0.0009,-0.0006,0.0005,-180.0000,0.0000,0.0000
6,0.0600,-0.0986,-0.0053,0.0496,0.1105,0.0000,0.0000,0.0000,20.0000,2.5880,0.9751,66.3264,21.2896,0.0004,0.000856,358.7853,-60.5656,-23.2323,83.7979,358.7853,-0.0000,0.6290,-11.2446,-0.9926,5.1371,-0.024721,0.005368,-0.005462,0.0009,-0.0023,0.0014,-180.0000,0.0000,0.0000
7,0.0700,-0.0854,0.0114,0.0677,0.1096,0.0000,0.0000,0.0000,20.0000,2.4043,1.0587,64.6676,23.7213,0.0005,0.000784,358.7853,-60.5656,-23.2323,83.7979,358.7853,-0.0000,0.6290,-11.2446,-0.9926,5.1371,-0.021866,0.001596,-0.009871,0.0014,-0.0015,0.0005,-180.0000,0.0000,0.0000
8,0.0800,-0.0841,0.0153,0.0737,0.1128,0.0000,0.0000,0.0000,20.0000,2.3900,1.1324,42.8306,25.3731,0.0006,0.000820,358.7853,-60.5656,-23.2323,83.7979,358.7853,-0.0000,0.6290,-11.2446,-0.9926,5.1371,-0.020107,-0.000880,-0.012890,0.0026,-0.0004,0.0008,-180.0000,0.0000,0.0000
9,0.0900,-0.0820,0.0122,0.0701,0.1086,0.0000,0.0000,0.0000,20.0000,2.3695,1.2010,20.6113,25.7223,0.0007,0.000806,358.7853,-60.5656,-23.2323,83.7979,358.7853,-0.0000,0.6290,-11.2446,-0.9926,5.1371,-0.018889,-0.001938,-0.014174,0.0022,-0.0003,0.0009,-180.0000,0.0000,0.0000
10,0.1000,-0.0817,0.0013,0.0567,0.0995,0.0000,0.0000,0.0000,20.0000,2.2674,1.2624,11.1265,25.1803,0.0008,0.000760,358.7853,-60.5656,-23.2323,83.7979,358.7853,-0.0000,0.6290,-11.2446,-0.9926,5.1371,-0.018148,-0.001431,-0.013517,0.0019,0.0002,0.0007,-180.0000,0.0000,0.0000
11,0.1100,-0.0783,-0.0189,0.0339,0.0874,0.0000,0.0000,0.0000,20.0000,2.0491,1.3117,36.1749,25.0961,0.0009,0.000756,358.7853,-60.5656,-23.2323,83.7979,358.7853,-0.0000,0.6290,-11.2446,-0.9926,5.1371,-0.017363,0.000879,-0.010846,0.0012,0.0000,-0.0003,-180.0000,0.0000,0.0000
12,0.1200,-0.0601,-0.0330,0.0077,0.0690,0.0000,0.0000,0.0000,20.0000,1.6881,1.3424,54.2467,26.2026,0.0009,0.001762,358.7853,-60.5656,-23.2323,83.7979,358.7853,-0.0000,0.6290,-11.2446,-0.9926,5.1371,-0.015069,0.003559,-0.006726,0.0021,0.0000,-0.0006,-180.0000,0.0000,0.0000
13,0.1300,-0.0317,-0.0365,-0.0179,0.0515,0.0000,0.0000,0.0000,20.0000,1.2525,1.3494,65.6982,28.0602,0.0010,0.000771,358.7993,-60.5894,-23.2253,83.8147,358.7993,-0.0000,0.6290,-11.2446,-0.9926,5.3575,-0.011104,0.005488,-0.001855,0.0004,-0.0011,-0.0022,-180.0000,-0.0000,-0.0000
14,0.1400,-0.0037,-0.0409,-0.0433,0.0597,0.0000,0.0000,0.0000,20.0000,0.9865,1.3367,73.9611,30.3579,0.0011,0.000767,358.7993,-60.5894,-23.2253,83.8147,358.7993,-0.0000,0.6290,-11.2446,-0.9926,5.3575,-0.006097,0.006980,0.003380,-0.0009,-0.0011,-0.0023,-180.0000,-0.0000,-0.0000
15,0.1500,0.0226,-0.0466,-0.0656,0.0836,0.0000,0.0000,0.0000,20.0000,1.1943,1.3232,75.7771,32.8063,0.0011,0.000827,358.7993,-60.5894,-23.2253,83.8147,358.7993,-0.0000,0.6290,-11.2446,-0.9926,5.3575,-0.000682,0.008366,0.008496,-0.0016,-0.0008,-0.0032,-180.0000,-0.0000,-0.0000
16,0.1600,0.0433,-0.0536,-0.0838,0.1085,0.0000,0.0000,0.0000,20.0000,1.6970,1.3299,70.1287,35.0147,0.0011,0.000808,358.7993,-60.5894,-23.2253,83.8147,358.7993,-0.0000,0.6290,-11.2446,-0.9926,5.3575,0.004376,0.009818,0.013132,-0.0022,-0.0004,-0.0020,-180.0000,-0.0000,-0.0000
17,0.1700,0.0488,-0.0646,-0.0982,0.1273,0.0000,0.0000,0.0000,20.0000,2.2117,1.3643,55.2545,36.5372,0.0011,0.000746,358.7993,-60.5894,-23.2253,83.8147,358.7993,-0.0000,0.6290,-11.2446,-0.9926,5.3575,0.007719,0.011701,0.017107,-0.0032,-0.0001,-0.0014,-180.0000,-0.0000,-0.0000
18,0.1800,0.0384,-0.0821,-0.1029,0.1371,0.0000,0.0000,0.0000,20.0000,2.5903,1.4213,38.9222,37.1176,0.0011,0.000827,358.7993,-60.5894,-23.2253,83.8147,358.7993,-0.0000,0.6290,-11.2446,-0.9926,5.3575,0.008505,0.014463,0.019735,-0.0041,0.0008,-0.0006,-180.0000,-0.0000,-0.0000
19,0.1900,0.0255,-0.0993,-0.0979,0.1418,0.0000,0.0000,0.0000,20.0000,2.8239,1.4920,34.5665,37.0970,0.0011,0.000785,358.7993,-60.5894,-23.2253,83.8147,358.7993,-0.0000,0.6290,-11.2446,-0.9926,5.3575,0.007637,0.017681,0.020653,-0.0036,0.0005,0.0005,-180.0000,-0.0000,-0.0000
20,0.2000,0.0169,-0.1061,-0.0877,0.1387,0.0000,0.0000,0.0000,20.0000,2.9110,1.5677,28.3090,36.7857,0.0012,0.000767,358.7993,-60.5894,-23.2253,83.8147,358.7993,-0.0000,0.6290,-11.2446,-0.9926,5.3575,0.006282,0.020103,0.020095,-0.0040,-0.0012,0.0017,-180.0000,-0.0000,-0.0000
21,0.2100,0.0124,-0.0975,-0.0737,0.1229,0.0000,0.0000,0.0000,20.0000,2.8008,1.6386,21.7165,36.1381,0.0013,0.000840,358.7993,-60.5894,-23.2253,83.8147,358.7993,-0.0000,0.6290,-11.2446,-0.9926,5.3575,0.005068,0.020544,0.018349,-0.0029,-0.0018,0.0013,-180.0000,-0.0000,-0.0000
22,0.2200,0.0187,-0.0769,-0.0591,0.0988,0.0000,0.0000,0.0000,20.0000,2.5033,1.6943,30.8713,35.5966,0.0014,0.001431,358.7993,-60.5894,-23.2253,83.8147,358.7993,-0.0000,0.6290,-11.2446,-0.9926,5.3575,0.005015,0.018689,0.015882,-0.0021,-0.0022,0.0008,-180.0000,-0.0000,-0.0000
23,0.2300,0.0349,-0.0516,-0.0487,0.0791,0.0000,0.0000,0.0000,20.0000,2.1268,1.7285,46.2020,35.7583,0.0015,0.000759,358.7993,-60.5894,-23.2253,83.8147,358.7993,-0.0000,0.6290,-11.2446,-0.9926,5.3575,0.006602,0.015099,0.013445,-0.0014,-0.0030,0.0007,-180.0000,-0.0000,-0.0000
24,0.2400,0.0442,-0.0314,-0.0418,0.0685,0.0000,0.0000,0.0000,20.0000,1.7955,1.7413,48.8040,36.4044,0.0015,0.000781,358.7993,-60.5894,-23.2253,83.8147,358.7993,-0.0000,0.6290,-11.2446,-0.9926,5.3575,0.008398,0.011056,0.011385,-0.0021,-0.0028,0.0009,-180.0000,-0.0000,-0.0000
25,0.2500,0.0371,-0.0226,-0.0378,0.0576,0.0000,0.0000,0.0000,20.0000,1.5309,1.7370,35.0871,36.7092,0.0016,0.000794,358.7993,-60.5894,-23.2253,83.8147,358.7993,-0.0000,0.6290,-11.2446,-0.9926,5.3575,0.008664,0.007924,0.009825,-0.0026,-0.0008,0.0004,-180.0000,-0.0000,-0.0000
26,0.2600,0.0164,-0.0200,-0.0382,0.0461,0.0000,0.0000,0.0000,20.0000,1.2680,1.7184,29.2019,36.4581,0.0016,0.000794,358.7993,-60.5894,-23.2253,83.8147,358.7993,-0.0000,0.6290,-11.2446,-0.9926,5.3575,0.006722,0.005914,0.008979,-0.0035,0.0005,-0.0002,-180.0000,-0.0000,-0.0000
27,0.2700,-0.0168,-0.0203,-0.0365,0.0450,0.0000,0.0000,0.0000,20.0000,0.9899,1.6860,45.8811,36.5177,0.0016,0.000805,358.7993,-60.5894,-23.2253,83.8147,358.7993,-0.0000,0.6290,-11.2446,-0.9926,5.3575,0.002313,0.004823,0.008330,-0.0033,0.0009,-0.0010,-180.0000,-0.0000,-0.0000
28,0.2800,-0.0521,-0.0294,-0.0333,0.0685,0.0000,0.0000,0.0000,20.0000,0.9895,1.6477,60.1755,37.4259,0.0017,0.000901,358.7993,-60.5894,-23.2253,83.8147,358.7993,-0.0000,0.6290,-11.2446,-0.9926,5.3575,-0.003657,0.005122,0.007635,-0.0038,0.0018,0.0000,-180.0000,-0.0000,-0.0000
29,0.2900,-0.0754,-0.0461,-0.0289,0.0930,0.0000,0.0000,0.0000,20.0000,1.3436,1.6212,59.7338,38.6652,0.0018,0.000916,358.7993,-60.5894,-23.2253,83.8147,358.7993,-0.0000,0.6290,-11.2446,-0.9926,5.3575,-0.009281,0.006949,0.006790,-0.0035,0.0015,-0.0010,-180.0000,-0.0000,-0.0000
30,0.3000,-0.0823,-0.0609,-0.0188,0.1041,0.0000,0.0000,0.0000,20.0000,1.6957,1.6156,47.5782,39.4898,0.0020,0.001443,358.7993,-60.5894,-23.2253,83.8147,358.7993,-0.0000,0.6290,-11.2446,-0.9926,5.3575,-0.013063,0.009422,0.005302,-0.0026,0.0005,-0.0008,-180.0000,-0.0000,-0.0000
31,0.3100,-0.0726,-0.0750,-0.0054,0.1045,0.0000,0.0000,0.0000,20.0000,1.8934,1.6255,36.7956,39.6382,0.0021,0.000782,358.7993,-60.5894,-23.2253,83.8147,358.7993,-0.0000,0.6290,-11.2446,-0.9926,5.3575,-0.014155,0.012181,0.003125,-0.0020,-0.0009,0.0007,-180.0000,-0.0000,-0.0000
32,0.3200,-0.0568,-0.0963,0.0044,0.1119,0.0000,0.0000,0.0000,20.0000,2.0590,1.6448,43.5698,39.6681,0.0023,0.000762,358.7993,-60.5894,-23.2253,83.8147,358.7993,-0.0000,0.6290,-11.2446,-0.9926,5.3575,-0.013153,0.015814,0.000939,-0.0032,-0.0002,0.0005,-180.0000,-0.0000,-0.0000
33,0.3300,-0.0512,-0.1171,0.0076,0.1280,0.0000,0.0000,0.0000,20.0000,2.3713,1.6761,47.1985,39.9825,0.0025,0.000778,358.8557,-60.6256,-23.2313,83.8570,358.8557,0.0031,0.6665,-11.2279,-0.9914,7.6463,-0.012299,0.020271,-0.000358,-0.0032,-0.0001,0.0001,-180.0000,-0.0000,-0.0000
34,0.3400,-0.0635,-0.1309,0.0037,0.1456,0.0000,0.0000,0.0000,20.0000,2.7388,1.7245,38.9064,40.1514,0.0028,0.000753,358.8557,-60.6256,-23.2313,83.8570,358.8557,0.0031,0.6665,-11.2279,-0.9914,7.6463,-0.013032,0.024079,-0.000678,-0.0035,0.0008,0.0001,-180.0000,-0.0000,-0.0000
35,0.3500,-0.0810,-0.1402,-0.0033,0.1619,0.0000,0.0000,0.0000,20.0000,3.1018,1.7903,37.0029,40.0306,0.0031,0.000742,358.8557,-60.6256,-23.2313,83.8570,358.8557,0.0031,0.6665,-11.2279,-0.9914,7.6463,-0.015157,0.027062,-0.000154,-0.0042,0.0008,-0.0013,-180.0000,-0.0000,-0.0000
36,0.3600,-0.0918,-0.1428,-0.0076,0.1699,0.0000,0.0000,0.0000,20.0000,3.3743,1.8699,29.8443,39.6671,0.0034,0.000779,358.8557,-60.6256,-23.2313,83.8570,358.8557,0.0031,0.6665,-11.2279,-0.9914,7.6463,-0.017385,0.028915,0.000562,-0.0034,0.0019,-0.0018,-180.0000,-0.0000,-0.0000
37,0.3700,-0.0903,-0.1287,-0.0087,0.1574,0.0000,0.0000,0.0000,20.0000,3.3934,1.9532,12.4774,38.6491,0.0038,0.003926,358.8557,-60.6256,-23.2313,83.8570,358.8557,0.0031,0.6665,-11.2279,-0.9914,7.6463,-0.018436,0.028469,0.001064,-0.0020,0.0008,-0.0002,-180.0000,-0.0000,-0.0000
38,0.3800,-0.0705,-0.0987,-0.0033,0.1213,0.0000,0.0000,0.0000,20.0000,3.0381,2.0226,36.0971,37.8591,0.0042,0.000753,358.8557,-60.6256,-23.2313,83.8570,358.8557,0.0031,0.6665,-11.2279,-0.9914,7.6463,-0.016994,0.025171,0.000798,-0.0018,0.0003,0.0002,-180.0000,-0.0000,-0.0000
39,0.3900,-0.0410,-0.0664,0.0089,0.0785,0.0000,0.0000,0.0000,20.0000,2.4033,2.0610,64.9626,38.5561,0.0045,0.000768,358.8557,-60.6256,-23.2313,83.8570,358.8557,0.0031,0.6665,-11.2279,-0.9914,7.6463,-0.013216,0.020065,-0.000566,-0.0019,0.0004,0.0003,-180.0000,-0.0000,-0.0000
40,0.4000,-0.0218,-0.0397,0.0214,0.0501,0.0000,0.0000,0.0000,20.0000,1.7379,2.0616,71.3700,40.1849,0.0047,0.000760,358.8557,-60.6256,-23.2313,83.8570,358.8557,0.0031,0.6665,-11.2279,-0.9914,7.6463,-0.009181,0.014530,-0.002571,-0.0026,0.0003,0.0006,-180.0000,-0.0000,-0.0000
41,0.4100,-0.0132,-0.0188,0.0339,0.0409,0.0000,0.0000,0.0000,20.0000,1.2188,2.0295,64.7960,41.7195,0.0049,0.000733,358.8557,-60.6256,-23.2313,83.8570,358.8557,0.0031,0.6665,-11.2279,-0.9914,7.6463,-0.006076,0.009351,-0.004920,-0.0033,-0.0010,0.0008,-180.0000,-0.0000,-0.0000
42,0.4200,-0.0088,-0.0078,0.0443,0.0459,0.0000,0.0000,0.0000,20.0000,0.9835,1.9784,50.9877,42.6091,0.0049,0.000812,358.8557,-60.6256,-23.2313,83.8570,358.8557,0.0031,0.6665,-11.2279,-0.9914,7.6463,-0.003904,0.005371,-0.007254,-0.0044,-0.0009,0.0001,-180.0000,-0.0000,-0.0000
43,0.4300,-0.0137,-0.0065,0.0480,0.0503,0.0000,0.0000,0.0000,20.0000,0.9924,1.9239,29.4500,42.4776,0.0050,0.000851,358.8557,-60.6256,-23.2313,83.8570,358.8557,0.0031,0.6665,-11.2279,-0.9914,7.6463,-0.003184,0.003035,-0.008896,-0.0037,-0.0003,-0.0014,-180.0000,-0.0000,-0.0000
44,0.4400,-0.0219,-0.0019,0.0459,0.0509,0.0000,0.0000,0.0000,20.0000,1.0309,1.8737,19.3268,41.4826,0.0050,0.000777,358.8557,-60.6256,-23.2313,83.8570,358.8557,0.0031,0.6665,-11.2279,-0.9914,7.6463,-0.003601,0.001275,-0.009576,-0.0025,-0.0008,-0.0023,-180.0000,-0.0000,-0.0000
45,0.4500,-0.0301,0.0061,0.0336,0.0455,0.0000,0.0000,0.0000,20.0000,0.9876,1.8262,22.3914,40.3481,0.0050,0.000785,358.8557,-60.6256,-23.2313,83.8570,358.8557,0.0031,0.6665,-11.2279,-0.9914,7.6463,-0.004644,-0.000504,-0.008702,-0.0012,0.0002,-0.0021,-180.0000,-0.0000,-0.0000
46,0.4600,-0.0420,0.0070,0.0093,0.0435,0.0000,0.0000,0.0000,20.0000,0.8760,1.7770,35.7328,39.7273,0.0050,0.000827,358.8557,-60.6256,-23.2313,83.8570,358.8557,0.0031,0.6665,-11.2279,-0.9914,7.6463,-0.006396,-0.001570,-0.005776,-0.0013,0.0005,-0.0027,-180.0000,-0.0000,-0.0000
47,0.4700,-0.0585,-0.0030,-0.0151,0.0605,0.0000,0.0000,0.0000,20.0000,0.9237,1.7287,48.4917,39.8585,0.0051,0.000830,358.8557,-60.6256,-23.2313,83.8570,358.8557,0.0031,0.6665,-11.2279,-0.9914,7.6463,-0.009004,-0.001155,-0.001709,-0.0020,0.0010,-0.0020,-180.0000,-0.0000,-0.0000
48,0.4800,-0.0723,-0.0180,-0.0323,0.0812,0.0000,0.0000,0.0000,20.0000,1.2035,1.6922,51.5987,40.4188,0.0052,0.000746,358.8557,-60.6256,-23.2313,83.8570,358.8557,0.0031,0.6665,-11.2279,-0.9914,7.6463,-0.011806,0.000576,0.002263,-0.0023,0.0014,-0.0008,-180.0000,-0.0000,-0.0000
49,0.4900,-0.0771,-0.0390,-0.0468,0.0983,0.0000,0.0000,0.0000,20.0000,1.5457,1.6747,51.6241,41.0345,0.0053,0.000785,358.8557,-60.6256,-23.2313,83.8570,358.8557,0.0031,0.6665,-11.2279,-0.9914,7.6463,-0.013814,0.003629,0.005910,-0.0028,0.0017,0.0001,-180.0000,-0.0000,-0.0000
50,0.5000,-0.0700,-0.0590,-0.0561,0.1074,0.0000,0.0000,0.0000,20.0000,1.8249,1.6753,47.2068,41.4955,0.0056,0.000813,358.8557,-60.6256,-23.2313,83.8570,358.8557,0.0031,0.6665,-11.2279,-0.9914,7.6463,-0.014192,0.007309,0.008843,-0.0023,0.0010,-0.0005,-180.0000,-0.0000,-0.0000
51,0.5100,-0.0577,-0.0710,-0.0525,0.1055,0.0000,0.0000,0.0000,20.0000,1.9629,1.6873,36.0662,41.5033,0.0059,0.000819,358.8557,-60.6256,-23.2313,83.8570,358.8557,0.0031,0.6665,-11.2279,-0.9914,7.6463,-0.013141,0.010525,0.010090,-0.0018,0.0015,0.0011,-180.0000,-0.0000,-0.0000
52,0.5200,-0.0465,-0.0768,-0.0360,0.0967,0.0000,0.0000,0.0000,20.0000,1.9460,1.7020,30.6732,41.0559,0.0062,0.000737,358.8557,-60.6256,-23.2313,83.8570,358.8557,0.0031,0.6665,-11.2279,-0.9914,7.6463,-0.011413,0.012862,0.009110,-0.0018,0.0021,0.0003,-180.0000,-0.0000,-0.0000
53,0.5300,-0.0378,-0.0745,-0.0193,0.0858,0.0000,0.0000,0.0000,20.0000,1.8900,1.7139,30.6826,40.4850,0.0065,0.000817,358.9353,-60.6824,-23.2149,83.8973,358.9353,-0.0012,0.6426,-11.2456,-0.9932,8.4601,-0.009978,0.014477,0.006932,-0.0026,0.0012,-0.0006,-180.0000,0.0000,0.0000
54,0.5400,-0.0326,-0.0623,-0.0078,0.0707,0.0000,0.0000,0.0000,20.0000,1.7169,1.7188,27.4312,39.8564,0.0067,0.000784,358.9353,-60.6824,-23.2149,83.8973,358.9353,-0.0012,0.6426,-11.2456,-0.9932,8.4601,-0.008644,0.014115,0.004562,-0.0018,0.0005,-0.0008,-180.0000,0.0000,0.0000
55,0.5500,-0.0326,-0.0539,0.0053,0.0632,0.0000,0.0000,0.0000,20.0000,1.5368,1.7137,29.3760,39.2264,0.0070,0.000805,358.9353,-60.6824,-23.2149,83.8973,358.9353,-0.0012,0.6426,-11.2456,-0.9932,8.4601,-0.007891,0.013046,0.001932,-0.0025,0.0013,-0.0005,-180.0000,0.0000,0.0000
56,0.5600,-0.0349,-0.0567,0.0177,0.0689,0.0000,0.0000,0.0000,20.0000,1.4873,1.7027,27.2333,38.6256,0.0072,0.000769,358.9353,-60.6824,-23.2149,83.8973,358.9353,-0.0012,0.6426,-11.2456,-0.9932,8.4601,-0.007690,0.012708,-0.000763,-0.0045,0.0002,-0.0011,-180.0000,0.0000,0.0000
57,0.5700,-0.0294,-0.0596,0.0205,0.0696,0.0000,0.0000,0.0000,20.0000,1.4806,1.6906,18.9711,37.7717,0.0074,0.000887,358.9353,-60.6824,-23.2149,83.8973,358.9353,-0.0012,0.6426,-11.2456,-0.9932,8.4601,-0.007012,0.012792,-0.002532,-0.0050,-0.0012,0.0000,-180.0000,0.0000,0.0000
58,0.5800,-0.0211,-0.0617,0.0209,0.0685,0.0000,0.0000,0.0000,20.0000,1.4690,1.6787,16.0442,36.6570,0.0077,0.000826,358.9353,-60.6824,-23.2149,83.8973,358.9353,-0.0012,0.6426,-11.2456,-0.9932,8.4601,-0.005794,0.013023,-0.003551,-0.0048,-0.0008,0.0005,-180.0000,0.0000,0.0000
59,0.5900,-0.0162,-0.0649,0.0283,0.0727,0.0000,0.0000,0.0000,20.0000,1.5019,1.6681,18.0250,35.5776,0.0079,0.000783,358.9353,-60.6824,-23.2149,83.8973,358.9353,-0.0012,0.6426,-11.2456,-0.9932,8.4601,-0.004617,0.013445,-0.004849,-0.0053,-0.0004,0.0004,-180.0000,0.0000,0.0000
60,0.6000,-0.0133,-0.0589,0.0372,0.0709,0.0000,0.0000,0.0000,20.0000,1.5009,1.6589,18.9794,34.6383,0.0081,0.000749,358.9353,-60.6824,-23.2149,83.8973,358.9353,-0.0012,0.6426,-11.2456,-0.9932,8.4601,-0.003668,0.013050,-0.006445,-0.0057,-0.0008,-0.0001,-180.0000,0.0000,0.0000
61,0.6100,-0.0177,-0.0434,0.0404,0.0619,0.0000,0.0000,0.0000,20.0000,1.4061,1.6476,21.5058,33.8464,0.0082,0.000763,358.9353,-60.6824,-23.2149,83.8973,358.9353,-0.0012,0.6426,-11.2456,-0.9932,8.4601,-0.003575,0.011258,-0.007630,-0.0039,0.0006,-0.0016,-180.0000,0.0000,0.0000
62,0.6200,-0.0357,-0.0315,0.0353,0.0593,0.0000,0.0000,0.0000,20.0000,1.3056,1.6316,28.1016,33.3490,0.0084,0.000776,358.9353,-60.6824,-23.2149,83.8973,358.9353,-0.0012,0.6426,-11.2456,-0.9932,8.4601,-0.005313,0.009054,-0.007764,-0.0030,0.0015,-0.0023,-180.0000,0.0000,0.0000
63,0.6300,-0.0560,-0.0198,0.0272,0.0654,0.0000,0.0000,0.0000,20.0000,1.2737,1.6128,39.0885,33.3626,0.0086,0.000803,358.9353,-60.6824,-23.2149,83.8973,358.9353,-0.0012,0.6426,-11.2456,-0.9932,8.4601,-0.008301,0.006649,-0.007008,-0.0019,0.0013,-0.0019,-180.0000,0.0000,0.0000
64,0.6400,-0.0700,-0.0117,0.0183,0.0733,0.0000,0.0000,0.0000,20.0000,1.3455,1.5961,39.4596,33.6877,0.0088,0.000762,358.9353,-60.6824,-23.2149,83.8973,358.9353,-0.0012,0.6426,-11.2456,-0.9932,8.4601,-0.011334,0.004496,-0.005691,-0.0016,0.0012,-0.0012,-180.0000,0.0000,0.0000
65,0.6500,-0.0794,-0.0174,0.0096,0.0818,0.0000,0.0000,0.0000,20.0000,1.5012,1.5866,31.1167,33.7758,0.0090,0.000834,358.9353,-60.6824,-23.2149,83.8973,358.9353,-0.0012,0.6426,-11.2456,-0.9932,8.4601,-0.013920,0.003867,-0.004079,-0.0008,0.0018,0.0005,-180.0000,0.0000,0.0000
66,0.6600,-0.0825,-0.0263,0.0010,0.0866,0.0000,0.0000,0.0000,20.0000,1.6407,1.5857,25.1475,33.4653,0.0092,0.000801,358.9353,-60.6824,-23.2149,83.8973,358.9353,-0.0012,0.6426,-11.2456,-0.9932,8.4601,-0.015636,0.004395,-0.002318,-0.0007,0.0021,0.0022,-180.0000,0.0000,0.0000
67,0.6700,-0.0778,-0.0237,-0.0048,0.0815,0.0000,0.0000,0.0000,20.0000,1.6700,1.5896,16.1965,32.7616,0.0095,0.000784,358.9353,-60.6824,-23.2149,83.8973,358.9353,-0.0012,0.6426,-11.2456,-0.9932,8.4601,-0.016086,0.004420,-0.000763,0.0003,0.0018,0.0023,-180.0000,0.0000,0.0000
68,0.6800,-0.0680,-0.0197,-0.0149,0.0723,0.0000,0.0000,0.0000,20.0000,1.5876,1.5917,20.6421,31.9726,0.0097,0.000753,358.9353,-60.6824,-23.2149,83.8973,358.9353,-0.0012,0.6426,-11.2456,-0.9932,8.4601,-0.015318,0.004022,0.001111,-0.0007,0.0021,0.0038,-180.0000,0.0000,0.0000
69,0.6900,-0.0585,-0.0232,-0.0334,0.0712,0.0000,0.0000,0.0000,20.0000,1.5056,1.5892,32.0702,31.6637,0.0100,0.000751,358.9353,-60.6824,-23.2149,83.8973,358.9353,-0.0012,0.6426,-11.2456,-0.9932,8.4601,-0.013912,0.004151,0.003990,-0.0014,0.0025,0.0031,-180.0000,0.0000,0.0000
70,0.7000,-0.0508,-0.0297,-0.0523,0.0787,0.0000,0.0000,0.0000,20.0000,1.5218,1.5851,38.8543,31.8726,0.0102,0.000722,358.9353,-60.6824,-23.2149,83.8973,358.9353,-0.0012,0.6426,-11.2456,-0.9932,8.4601,-0.012336,0.004861,0.007470,-0.0021,0.0017,0.0013,-180.0000,0.0000,0.0000
71,0.7100,-0.0476,-0.0402,-0.0662,0.0909,0.0000,0.0000,0.0000,20.0000,1.6709,1.5857,37.9088,32.2307,0.0105,0.000871,358.9353,-60.6824,-23.2149,83.8973,358.9353,-0.0012,0.6426,-11.2456,-0.9932,8.4601,-0.011123,0.006293,0.010764,-0.0026,0.0013,0.0001,-180.0000,0.0000,0.0000
72,0.7200,-0.0512,-0.0567,-0.0736,0.1061,0.0000,0.0000,0.0000,20.0000,1.9224,1.5973,35.2920,32.4711,0.0108,0.000740,358.9353,-60.6824,-23.2149,83.8973,358.9353,-0.0012,0.6426,-11.2456,-0.9932,8.4601,-0.010794,0.008723,0.013303,-0.0035,0.0014,-0.0012,-180.0000,0.0000,0.0000
73,0.7300,-0.0545,-0.0667,-0.0702,0.1111,0.0000,0.0000,0.0000,20.0000,2.1567,1.6216,29.6978,32.4724,0.0112,0.000774,358.9915,-60.7416,-23.1916,83.9332,358.9915,-0.0040,0.6729,-11.1958,-0.9879,8.8840,-0.011346,0.011457,0.014322,-0.0026,0.0008,-0.0021,-180.0000,-0.0000,0.0000
74,0.7400,-0.0567,-0.0575,-0.0541,0.0972,0.0000,0.0000,0.0000,20.0000,2.1462,1.6508,13.1500,31.8646,0.0116,0.004309,358.9915,-60.7416,-23.1916,83.9332,358.9915,-0.0040,0.6729,-11.1958,-0.9879,8.8840,-0.011852,0.012024,0.013250,-0.0017,0.0005,-0.0021,-180.0000,-0.0000,0.0000
75,0.7500,-0.0627,-0.0374,-0.0345,0.0808,0.0000,0.0000,0.0000,20.0000,1.9532,1.6727,32.1868,31.3588,0.0120,0.000788,358.9915,-60.7416,-23.1916,83.9332,358.9915,-0.0040,0.6729,-11.1958,-0.9879,8.8840,-0.012709,0.010305,0.010667,-0.0013,0.0006,-0.0011,-180.0000,-0.0000,0.0000
76,0.7600,-0.0611,-0.0208,-0.0166,0.0667,0.0000,0.0000,0.0000,20.0000,1.6820,1.6807,41.8628,31.6704,0.0124,0.000831,358.9915,-60.7416,-23.1916,83.9332,358.9915,-0.0040,0.6729,-11.1958,-0.9879,8.8840,-0.012997,0.007673,0.007425,-0.0013,-0.0002,0.0011,-180.0000,-0.0000,0.0000
77,0.7700,-0.0518,-0.0148,-0.0007,0.0539,0.0000,0.0000,0.0000,20.0000,1.4013,1.6731,40.5807,32.1958,0.0126,0.000851,358.9915,-60.7416,-23.1916,83.9332,358.9915,-0.0040,0.6729,-11.1958,-0.9879,8.8840,-0.012198,0.005596,0.004031,-0.0026,0.0002,0.0015,-180.0000,-0.0000,0.0000
78,0.7800,-0.0469,-0.0198,0.0110,0.0521,0.0000,0.0000,0.0000,20.0000,1.2319,1.6534,32.7155,32.4407,0.0129,0.000736,358.9915,-60.7416,-23.1916,83.9332,358.9915,-0.0040,0.6729,-11.1958,-0.9879,8.8840,-0.011243,0.004942,0.000971,-0.0030,-0.0003,0.0017,-180.0000,-0.0000,0.0000
79,0.7900,-0.0456,-0.0263,0.0151,0.0548,0.0000,0.0000,0.0000,20.0000,1.1836,1.6289,22.2598,32.1683,0.0131,0.000791,358.9915,-60.7416,-23.1916,83.9332,358.9915,-0.0040,0.6729,-11.1958,-0.9879,8.8840,-0.010562,0.005222,-0.001130,-0.0036,-0.0000,-0.0000,-180.0000,-0.0000,0.0000
80,0.8000,-0.0481,-0.0250,0.0115,0.0554,0.0000,0.0000,0.0000,20.0000,1.1815,1.6044,8.0847,31.2334,0.0134,0.000751,358.9915,-60.7416,-23.1916,83.9332,358.9915,-0.0040,0.6729,-11.1958,-0.9879,8.8840,-0.010418,0.005230,-0.001925,-0.0044,0.0011,-0.0012,-180.0000,-0.0000,0.0000
81,0.8100,-0.0531,-0.0140,0.0056,0.0552,0.0000,0.0000,0.0000,20.0000,1.1710,1.5808,11.8610,30.0639,0.0136,0.000758,358.9915,-60.7416,-23.1916,83.9332,358.9915,-0.0040,0.6729,-11.1958,-0.9879,8.8840,-0.010816,0.004124,-0.001772,-0.0037,0.0007,-0.0024,-180.0000,-0.0000,0.0000
82,0.8200,-0.0558,-0.0066,-0.0019,0.0562,0.0000,0.0000,0.0000,20.0000,1.1652,1.5581,16.5945,29.1928,0.0138,0.000727,358.9915,-60.7416,-23.1916,83.9332,358.9915,-0.0040,0.6729,-11.1958,-0.9879,8.8840,-0.011280,0.002767,-0.000937,-0.0027,0.0003,-0.0012,-180.0000,-0.0000,0.0000
83,0.8300,-0.0548,-0.0140,-0.0115,0.0577,0.0000,0.0000,0.0000,20.0000,1.1750,1.5368,14.3677,28.4385,0.0141,0.000810,358.9915,-60.7416,-23.1916,83.9332,358.9915,-0.0040,0.6729,-11.1958,-0.9879,8.8840,-0.011412,0.002755,0.000493,-0.0040,-0.0002,-0.0004,-180.0000,-0.0000,0.0000
84,0.8400,-0.0474,-0.0320,-0.0222,0.0613,0.0000,0.0000,0.0000,20.0000,1.1880,1.5172,26.6355,28.0019,0.0143,0.000804,358.9915,-60.7416,-23.1916,83.9332,358.9915,-0.0040,0.6729,-11.1958,-0.9879,8.8840,-0.010724,0.004542,0.002345,-0.0041,-0.0000,0.0001,-180.0000,-0.0000,0.0000
85,0.8500,-0.0327,-0.0526,-0.0371,0.0722,0.0000,0.0000,0.0000,20.0000,1.2629,1.5012,43.5848,28.3929,0.0146,0.000753,358.9915,-60.7416,-23.1916,83.9332,358.9915,-0.0040,0.6729,-11.1958,-0.9879,8.8840,-0.008860,0.007580,0.004853,-0.0028,-0.0013,0.0012,-180.0000,-0.0000,0.0000
86,0.8600,-0.0190,-0.0648,-0.0562,0.0878,0.0000,0.0000,0.0000,20.0000,1.4739,1.4939,49.9839,29.4046,0.0149,0.000809,358.9915,-60.7416,-23.1916,83.9332,358.9915,-0.0040,0.6729,-11.1958,-0.9879,8.8840,-0.006439,0.010465,0.008140,-0.0027,-0.0011,0.0014,-180.0000,-0.0000,0.0000
87,0.8700,-0.0037,-0.0678,-0.0733,0.0999,0.0000,0.0000,0.0000,20.0000,1.7343,1.4999,49.1605,30.5140,0.0153,0.000756,358.9915,-60.7416,-23.1916,83.9332,358.9915,-0.0040,0.6729,-11.1958,-0.9879,8.8840,-0.003560,0.012338,0.011657,-0.0024,-0.0025,0.0000,-180.0000,-0.0000,0.0000
88,0.8800,0.0144,-0.0620,-0.0874,0.1081,0.0000,0.0000,0.0000,20.0000,1.9687,1.5193,47.8270,31.5030,0.0156,0.000761,358.9915,-60.7416,-23.1916,83.9332,358.9915,-0.0040,0.6729,-11.1958,-0.9879,8.8840,-0.000149,0.012772,0.014981,-0.0006,-0.0017,-0.0012,-180.0000,-0.0000,0.0000
89,0.8900,0.0233,-0.0505,-0.1010,0.1153,0.0000,0.0000,0.0000,20.0000,2.1832,1.5499,43.2513,32.2751,0.0158,0.000779,358.9915,-60.7416,-23.1916,83.9332,358.9915,-0.0040,0.6729,-11.1958,-0.9879,8.8840,0.002632,0.011832,0.018158,0.0001,-0.0012,0.0003,-180.0000,-0.0000,0.0000
90,0.9000,0.0232,-0.0436,-0.1094,0.1201,0.0000,0.0000,0.0000,20.0000,2.3637,1.5897,32.2136,32.5753,0.0161,0.000767,358.9915,-60.7416,-23.1916,83.9332,358.9915,-0.0040,0.6729,-11.1958,-0.9879,8.8840,0.004151,0.010598,0.020716,0.0005,-0.0012,-0.0011,-180.0000,-0.0000,0.0000
91,0.9100,0.0208,-0.0428,-0.1083,0.1183,0.0000,0.0000,0.0000,20.0000,2.4527,1.6347,15.9789,32.1089,0.0163,0.000751,358.9915,-60.7416,-23.1916,83.9332,358.9915,-0.0040,0.6729,-11.1958,-0.9879,8.8840,0.004747,0.009811,0.021972,-0.0001,-0.0010,-0.0019,-180.0000,-0.0000,0.0000
92,0.9200,0.0138,-0.0347,-0.1064,0.1127,0.0000,0.0000,0.0000,20.0000,2.4400,1.6794,13.9747,31.1665,0.0165,0.000729,358.9915,-60.7416,-23.1916,83.9332,358.9915,-0.0040,0.6729,-11.1958,-0.9879,8.8840,0.004364,0.008549,0.022433,0.0002,0.0004,-0.0011,-180.0000,-0.0000,0.0000
93,0.9300,0.0022,-0.0233,-0.1038,0.1064,0.0000,0.0000,0.0000,20.0000,2.3818,1.7196,23.6959,30.4882,0.0168,0.000783,359.0308,-60.7908,-23.1936,83.9844,359.0308,0.0001,0.6750,-11.2426,-0.9930,7.7650,0.002601,0.006978,0.022624,-0.0010,-0.0005,-0.0008,-180.0000,-0.0000,0.0000
94,0.9400,-0.0046,-0.0201,-0.0926,0.0948,0.0000,0.0000,0.0000,20.0000,2.2345,1.7520,23.1132,30.0985,0.0170,0.000793,359.0308,-60.7908,-23.1936,83.9844,359.0308,0.0001,0.6750,-11.2426,-0.9930,7.7650,0.000932,0.005780,0.021565,-0.0014,-0.0022,-0.0014,-180.0000,-0.0000,0.0000
95,0.9500,-0.0072,-0.0213,-0.0781,0.0812,0.0000,0.0000,0.0000,20.0000,2.0176,1.7726,24.5353,29.7534,0.0173,0.000789,359.0308,-60.7908,-23.1936,83.9844,359.0308,0.0001,0.6750,-11.2426,-0.9930,7.7650,-0.000248,0.005224,0.019486,-0.0017,-0.0017,-0.0003,-180.0000,-0.0000,0.0000
96,0.9600,-0.0160,-0.0253,-0.0712,0.0773,0.0000,0.0000,0.0000,20.0000,1.8484,1.7814,24.1766,29.4565,0.0176,0.000768,359.0308,-60.7908,-23.1936,83.9844,359.0308,0.0001,0.6750,-11.2426,-0.9930,7.7650,-0.001778,0.005307,0.017616,-0.0011,-0.0013,-0.0004,-180.0000,-0.0000,0.0000
97,0.9700,-0.0259,-0.0329,-0.0719,0.0832,0.0000,0.0000,0.0000,20.0000,1.8062,1.7839,22.3192,29.1150,0.0179,0.000765,359.0308,-60.7908,-23.1936,83.9844,359.0308,0.0001,0.6750,-11.2426,-0.9930,7.7650,-0.003609,0.006097,0.016614,-0.0012,-0.0011,-0.0013,-180.0000,-0.0000,0.0000
98,0.9800,-0.0290,-0.0398,-0.0772,0.0915,0.0000,0.0000,0.0000,20.0000,1.8717,1.7869,17.3150,28.6035,0.0183,0.000771,359.0308,-60.7908,-23.1936,83.9844,359.0308,0.0001,0.6750,-11.2426,-0.9930,7.7650,-0.004925,0.007220,0.016551,-0.0011,-0.0009,-0.0016,-180.0000,-0.0000,0.0000
99,0.9900,-0.0274,-0.0402,-0.0939,0.1058,0.0000,0.0000,0.0000,20.0000,2.0535,1.7966,18.2082,28.0071,0.0187,0.000787,359.0308,-60.7908,-23.1936,83.9844,359.0308,0.0001,0.6750,-11.2426,-0.9930,7.7650,-0.005483,0.007865,0.018160,-0.0007,-0.0000,-0.0013,-180.0000,-0.0000,0.0000
100,1.0000,-0.0220,-0.0335,-0.1082,0.1154,0.0000,0.0000,0.0000,20.0000,2.2408,1.8159,23.2067,27.6056,0.0191,0.000751,359.0308,-60.7908,-23.1936,83.9844,359.0308,0.0001,0.6750,-11.2426,-0.9930,7.7650,-0.005244,0.007530,0.020444,-0.0014,-0.0004,-0.0019,-180.0000,-0.0000,0.0000
101,1.0100,-0.0100,-0.0268,-0.1097,0.1134,0.0000,0.0000,0.0000,20.0000,2.3137,1.8413,21.0850,27.3052,0.0195,0.000785,359.0308,-60.7908,-23.1936,83.9844,359.0308,0.0001,0.6750,-11.2426,-0.9930,7.7650,-0.003897,0.006659,0.021812,-0.0019,-0.0015,-0.0007,-180.0000,-0.0000,0.0000
102,1.0200,0.0002,-0.0313,-0.1026,0.1073,0.0000,0.0000,0.0000,20.0000,2.2895,1.8666,17.6523,26.8687,0.0199,0.000829,359.0308,-60.7908,-23.1936,83.9844,359.0308,0.0001,0.6750,-11.2426,-0.9930,7.7650,-0.002132,0.006617,0.021814,-0.0031,-0.0020,0.0001,-180.0000,-0.0000,0.0000
103,1.0300,0.0009,-0.0421,-0.0866,0.0963,0.0000,0.0000,0.0000,20.0000,2.1608,1.8863,22.1228,26.4847,0.0203,0.000747,359.0308,-60.7908,-23.1936,83.9844,359.0308,0.0001,0.6750,-11.2426,-0.9930,7.7650,-0.001078,0.007664,0.020175,-0.0031,-0.0013,0.0006,-180.0000,-0.0000,0.0000
104,1.0400,-0.0016,-0.0545,-0.0619,0.0825,0.0000,0.0000,0.0000,20.0000,1.9256,1.8949,38.7928,26.7032,0.0207,0.000783,359.0308,-60.7908,-23.1936,83.9844,359.0308,0.0001,0.6750,-11.2426,-0.9930,7.7650,-0.000741,0.009463,0.016755,-0.0043,-0.0016,0.0001,-180.0000,-0.0000,0.0000
105,1.0500,-0.0042,-0.0728,-0.0382,0.0823,0.0000,0.0000,0.0000,20.0000,1.7507,1.8918,51.3054,27.7124,0.0211,0.000817,359.0308,-60.7908,-23.1936,83.9844,359.0308,0.0001,0.6750,-11.2426,-0.9930,7.7650,-0.000811,0.012271,0.012461,-0.0049,-0.0019,0.0012,-180.0000,-0.0000,0.0000
106,1.0600,-0.0023,-0.0827,-0.0209,0.0853,0.0000,0.0000,0.0000,20.0000,1.6984,1.8826,48.4084,28.9305,0.0215,0.000783,359.0308,-60.7908,-23.1936,83.9844,359.0308,0.0001,0.6750,-11.2426,-0.9930,7.7650,-0.000662,0.014787,0.008329,-0.0055,-0.0026,0.0008,-180.0000,-0.0000,0.0000
107,1.0700,0.0101,-0.0777,-0.0097,0.0790,0.0000,0.0000,0.0000,20.0000,1.6421,1.8709,37.6055,29.7048,0.0219,0.000774,359.0308,-60.7908,-23.1936,83.9844,359.0308,0.0001,0.6750,-11.2426,-0.9930,7.7650,0.000659,0.015654,0.004916,-0.0058,-0.0040,0.0010,-180.0000,-0.0000,0.0000
108,1.0800,0.0294,-0.0756,-0.0143,0.0824,0.0000,0.0000,0.0000,20.0000,1.6600,1.8588,30.3251,29.9392,0.0222,0.000799,359.0308,-60.7908,-23.1936,83.9844,359.0308,0.0001,0.6750,-11.2426,-0.9930,7.7650,0.003318,0.015890,0.003477,-0.0057,-0.0048,0.0003,-180.0000,-0.0000,0.0000
109,1.0900,0.0404,-0.0768,-0.0313,0.0922,0.0000,0.0000,0.0000,20.0000,1.7694,1.8509,27.2191,29.8750,0.0225,0.000730,359.0308,-60.7908,-23.1936,83.9844,359.0308,0.0001,0.6750,-11.2426,-0.9930,7.7650,0.005879,0.016107,0.004371,-0.0052,-0.0036,-0.0005,-180.0000,-0.0000,0.0000
110,1.1000,0.0395,-0.0696,-0.0524,0.0956,0.0000,0.0000,0.0000,20.0000,1.8433,1.8485,29.8077,29.8001,0.0228,0.000796,359.0308,-60.7908,-23.1936,83.9844,359.0308,0.0001,0.6750,-11.2426,-0.9930,7.7650,0.007193,0.015474,0.006970,-0.0058,-0.0032,-0.0018,-180.0000,-0.0000,0.0000
111,1.1100,0.0319,-0.0550,-0.0728,0.0966,0.0000,0.0000,0.0000,20.0000,1.8595,1.8486,39.1986,30.0588,0.0231,0.000782,359.0308,-60.7908,-23.1936,83.9844,359.0308,0.0001,0.6750,-11.2426,-0.9930,7.7650,0.007146,0.013635,0.010431,-0.0062,-0.0027,-0.0040,-180.0000,-0.0000,0.0000
112,1.1200,0.0175,-0.0270,-0.0882,0.0939,0.0000,0.0000,0.0000,20.0000,1.7900,1.8473,53.6233,30.9583,0.0234,0.000912,359.0308,-60.7908,-23.1936,83.9844,359.0308,0.0001,0.6750,-11.2426,-0.9930,7.7650,0.005672,0.009792,0.013869,-0.0069,-0.0021,-0.0064,-180.0000,-0.0000,0.0000
113,1.1300,-0.0020,0.0270,-0.0946,0.0984,0.0000,0.0000,0.0000,20.0000,1.7443,1.8429,83.4571,33.0256,0.0237,0.000749,359.0769,-60.7811,-23.2490,84.0300,359.0769,0.0035,0.6718,-15.9120,-0.9920,7.7989,0.002894,0.002575,0.017007,-0.0116,-0.0039,-0.0085,-180.0000,-0.0000,0.0000
114,1.1400,-0.0228,0.1025,-0.0912,0.1391,0.0000,0.0000,0.0000,20.0000,2.0454,1.8458,121.7693,36.8535,0.0237,0.000792,359.0769,-60.7811,-23.2490,84.0300,359.0769,0.0035,0.6718,-15.9120,-0.9920,7.7989,-0.000726,-0.008972,0.018367,-0.0158,-0.0063,-0.0095,-180.0000,-0.0000,0.0000
115,1.1500,-0.0513,0.1822,-0.0934,0.2111,0.0000,0.0000,0.0000,20.0000,3.0771,1.8851,151.6217,42.3456,0.0236,0.000810,359.0769,-60.7811,-23.2490,84.0300,359.0769,0.0035,0.6718,-15.9120,-0.9920,7.7989,-0.005578,-0.023306,0.019302,-0.0224,-0.0075,-0.0093,-180.0000,-0.0000,0.0000
116,1.1600,-0.0878,0.2416,-0.1090,0.2792,0.0000,0.0000,0.0000,20.0000,4.4444,1.9883,153.3267,48.4035,0.0233,0.000772,359.0769,-60.7811,-23.2490,84.0300,359.0769,0.0035,0.6718,-15.9120,-0.9920,7.7989,-0.011895,-0.037128,0.021338,-0.0264,-0.0098,-0.0081,-180.0000,-0.0000,0.0000
117,1.1700,-0.1307,0.2619,-0.1279,0.3194,0.0000,0.0000,0.0000,20.0000,5.6218,2.1558,126.9499,53.4497,0.0230,0.000853,359.0769,-60.7811,-23.2490,84.0300,359.0769,0.0035,0.6718,-15.9120,-0.9920,7.7989,-0.019657,-0.046723,0.024312,-0.0273,-0.0100,-0.0065,-180.0000,-0.0000,0.0000
118,1.1800,-0.1734,0.2437,-0.1458,0.3328,0.0000,0.0000,0.0000,20.0000,6.3818,2.3673,97.7262,56.6890,0.0229,0.000763,359.0769,-60.7811,-23.2490,84.0300,359.0769,0.0035,0.6718,-15.9120,-0.9920,7.7989,-0.028172,-0.050117,0.027701,-0.0241,-0.0095,-0.0045,-180.0000,-0.0000,0.0000
119,1.1900,-0.2001,0.1900,-0.1602,0.3191,0.0000,0.0000,0.0000,20.0000,6.6199,2.5947,87.8547,58.6749,0.0232,0.000772,359.0769,-60.7811,-23.2490,84.0300,359.0769,0.0035,0.6718,-15.9120,-0.9920,7.7989,-0.035495,-0.046519,0.030959,-0.0206,-0.0096,-0.0021,-180.0000,-0.0000,0.0000
120,1.2000,-0.2070,0.1273,-0.1672,0.2950,0.0000,0.0000,0.0000,20.0000,6.4690,2.8120,98.7912,60.5808,0.0238,0.000841,359.0769,-60.7811,-23.2490,84.0300,359.0769,0.0035,0.6718,-15.9120,-0.9920,7.7989,-0.040165,-0.038161,0.033396,-0.0133,-0.0094,-0.0015,-180.0000,-0.0000,0.0000
121,1.2100,-0.2021,0.0746,-0.1703,0.2746,0.0000,0.0000,0.0000,20.0000,6.1625,3.0047,102.8345,62.7939,0.0247,0.000751,359.0769,-60.7811,-23.2490,84.0300,359.0769,0.0035,0.6718,-15.9120,-0.9920,7.7989,-0.042172,-0.028201,0.034982,-0.0099,-0.0078,-0.0006,-180.0000,-0.0000,0.0000
122,1.2200,-0.1890,0.0281,-0.1742,0.2586,0.0000,0.0000,0.0000,20.0000,5.8208,3.1690,102.8562,64.9971,0.0259,0.000747,359.0769,-60.7811,-23.2490,84.0300,359.0769,0.0035,0.6718,-15.9120,-0.9920,7.7989,-0.041895,-0.017990,0.036184,-0.0060,-0.0066,0.0009,-180.0000,-0.0000,0.0000
123,1.2300,-0.1661,0.0030,-0.1735,0.2403,0.0000,0.0000,0.0000,20.0000,5.4710,3.3053,85.9362,66.6142,0.0273,0.000787,359.0769,-60.7811,-23.2490,84.0300,359.0769,0.0035,0.6718,-15.9120,-0.9920,7.7989,-0.039366,-0.009794,0.036710,-0.0036,-0.0058,0.0012,-180.0000,-0.0000,0.0000
124,1.2400,-0.1412,-0.0029,-0.1662,0.2181,0.0000,0.0000,0.0000,20.0000,5.0840,3.4138,65.0987,67.1040,0.0287,0.000790,359.0769,-60.7811,-23.2490,84.0300,359.0769,0.0035,0.6718,-15.9120,-0.9920,7.7989,-0.035401,-0.004656,0.036191,-0.0044,-0.0047,0.0010,-180.0000,-0.0000,0.0000
125,1.2500,-0.1316,-0.0118,-0.1528,0.2020,0.0000,0.0000,0.0000,20.0000,4.7178,3.4956,52.1990,66.6389,0.0301,0.000762,359.0769,-60.7811,-23.2490,84.0300,359.0769,0.0035,0.6718,-15.9120,-0.9920,7.7989,-0.032178,-0.000919,0.034490,-0.0082,-0.0018,-0.0000,-180.0000,-0.0000,0.0000
126,1.2600,-0.1404,-0.0210,-0.1301,0.1926,0.0000,0.0000,0.0000,20.0000,4.4190,3.5546,45.4181,65.6581,0.0315,0.000780,359.0769,-60.7811,-23.2490,84.0300,359.0769,0.0035,0.6718,-15.9120,-0.9920,7.7989,-0.031213,0.002074,0.031213,-0.0103,0.0002,-0.0019,-180.0000,-0.0000,0.0000
127,1.2700,-0.1496,-0.0181,-0.1049,0.1836,0.0000,0.0000,0.0000,20.0000,4.1535,3.5948,46.0939,64.5633,0.0329,0.000809,359.0769,-60.7811,-23.2490,84.0300,359.0769,0.0035,0.6718,-15.9120,-0.9920,7.7989,-0.031529,0.003430,0.026819,-0.0138,0.0003,-0.0023,-180.0000,-0.0000,0.0000
128,1.2800,-0.1578,-0.0069,-0.0904,0.1820,0.0000,0.0000,0.0000,20.0000,3.9834,3.6209,40.6283,63.3970,0.0342,0.000770,359.0769,-60.7811,-23.2490,84.0300,359.0769,0.0035,0.6718,-15.9120,-0.9920,7.7989,-0.032463,0.003051,0.022883,-0.0175,0.0010,-0.0032,-180.0000,-0.0000,0.0000
129,1.2900,-0.1660,0.0147,-0.0886,0.1888,0.0000,0.0000,0.0000,20.0000,3.9479,3.6398,36.0731,62.0193,0.0355,0.000788,359.0769,-60.7811,-23.2490,84.0300,359.0769,0.0035,0.6718,-15.9120,-0.9920,7.7989,-0.033739,0.000673,0.020489,-0.0176,0.0003,-0.0022,-180.0000,-0.0000,0.0000
130,1.3000,-0.1578,0.0449,-0.0962,0.1902,0.0000,0.0000,0.0000,20.0000,3.9177,3.6560,43.7508,60.8032,0.0368,0.000790,359.0769,-60.7811,-23.2490,84.0300,359.0769,0.0035,0.6718,-15.9120,-0.9920,7.7989,-0.033557,-0.003656,0.019885,-0.0159,-0.0014,-0.0023,-180.0000,-0.0000,0.0000
131,1.3100,-0.1350,0.0691,-0.1152,0.1904,0.0000,0.0000,0.0000,20.0000,3.8692,3.6690,56.0417,60.2032,0.0380,0.000720,359.0769,-60.7811,-23.2490,84.0300,359.0769,0.0035,0.6718,-15.9120,-0.9920,7.7989,-0.031102,-0.008459,0.021406,-0.0145,-0.0028,-0.0019,-180.0000,-0.0000,0.0000
132,1.3200,-0.1133,0.0822,-0.1392,0.1974,0.0000,0.0000,0.0000,20.0000,3.9817,3.6831,65.7071,60.2401,0.0391,0.000825,359.0332,-60.8318,-23.2886,84.1205,359.0332,-0.0018,0.6823,-17.1054,-0.9879,6.4256,-0.027977,-0.012714,0.025318,-0.0117,-0.0031,-0.0027,-180.0000,-0.0000,0.0000
133,1.3300,-0.0977,0.0815,-0.1612,0.2053,0.0000,0.0000,0.0000,20.0000,4.1336,3.7037,58.9919,60.3562,0.0403,0.000788,359.0332,-60.8318,-23.2886,84.1205,359.0332,-0.0018,0.6823,-17.1054,-0.9879,6.4256,-0.024636,-0.014972,0.029624,-0.0098,-0.0027,-0.0023,-180.0000,-0.0000,0.0000
134,1.3400,-0.0956,0.0677,-0.1816,0.2161,0.0000,0.0000,0.0000,20.0000,4.3380,3.7330,48.4627,59.9915,0.0415,0.000740,359.0332,-60.8318,-23.2886,84.1205,359.0332,-0.0018,0.6823,-17.1054,-0.9879,6.4256,-0.022530,-0.014804,0.033986,-0.0085,-0.0004,-0.0033,-180.0000,-0.0000,0.0000
135,1.3500,-0.1099,0.0471,-0.1967,0.2302,0.0000,0.0000,0.0000,20.0000,4.5925,3.7733,44.3593,59.2445,0.0429,0.000755,359.0332,-60.8318,-23.2886,84.1205,359.0332,-0.0018,0.6823,-17.1054,-0.9879,6.4256,-0.022757,-0.012622,0.037841,-0.0077,0.0007,-0.0029,-180.0000,-0.0000,0.0000
136,1.3600,-0.1250,0.0264,-0.1970,0.2349,0.0000,0.0000,0.0000,20.0000,4.7686,3.8232,42.1987,58.3663,0.0445,0.000900,359.0332,-60.8318,-23.2886,84.1205,359.0332,-0.0018,0.6823,-17.1054,-0.9879,6.4256,-0.024347,-0.009318,0.039930,-0.0060,0.0003,-0.0017,-180.0000,-0.0000,0.0000
137,1.3700,-0.1353,0.0108,-0.1830,0.2279,0.0000,0.0000,0.0000,20.0000,4.7854,3.8757,38.8980,57.3861,0.0463,0.000784,359.0332,-60.8318,-23.2886,84.1205,359.0332,-0.0018,0.6823,-17.1054,-0.9879,6.4256,-0.026202,-0.005915,0.039603,-0.0046,0.0017,-0.0011,-180.0000,-0.0000,0.0000
138,1.3800,-0.1475,-0.0027,-0.1602,0.2178,0.0000,0.0000,0.0000,20.0000,4.6763,3.9227,46.6586,56.5826,0.0481,0.000805,359.0332,-60.8318,-23.2886,84.1205,359.0332,-0.0018,0.6823,-17.1054,-0.9879,6.4256,-0.028393,-0.002674,0.037060,-0.0031,0.0020,-0.0012,-180.0000,-0.0000,0.0000
139,1.3900,-0.1537,-0.0156,-0.1315,0.2029,0.0000,0.0000,0.0000,20.0000,4.4504,3.9579,56.1488,56.2977,0.0500,0.000786,359.0332,-60.8318,-23.2886,84.1205,359.0332,-0.0018,0.6823,-17.1054,-0.9879,6.4256,-0.030168,0.000408,0.032716,-0.0022,0.0007,-0.0009,-180.0000,-0.0000,0.0000
140,1.4000,-0.1466,-0.0290,-0.1046,0.1824,0.0000,0.0000,0.0000,20.0000,4.1162,3.9758,59.9286,56.3935,0.0518,0.000732,359.0332,-60.8318,-23.2886,84.1205,359.0332,-0.0018,0.6823,-17.1054,-0.9879,6.4256,-0.030380,0.003452,0.027558,-0.0029,0.0000,-0.0006,-180.0000,-0.0000,0.0000
141,1.4100,-0.1343,-0.0364,-0.0903,0.1659,0.0000,0.0000,0.0000,20.0000,3.7776,3.9742,51.0000,56.3424,0.0535,0.000754,359.0332,-60.8318,-23.2886,84.1205,359.0332,-0.0018,0.6823,-17.1054,-0.9879,6.4256,-0.029213,0.005869,0.023221,-0.0027,0.0006,-0.0000,-180.0000,-0.0000,0.0000
142,1.4200,-0.1241,-0.0336,-0.0869,0.1552,0.0000,0.0000,0.0000,20.0000,3.4941,3.9556,34.3879,55.5916,0.0551,0.000777,359.0332,-60.8318,-23.2886,84.1205,359.0332,-0.0018,0.6823,-17.1054,-0.9879,6.4256,-0.027486,0.006913,0.020437,-0.0034,0.0001,0.0000,-180.0000,-0.0000,0.0000
143,1.4300,-0.1096,-0.0227,-0.0848,0.1404,0.0000,0.0000,0.0000,20.0000,3.1855,3.9218,30.8798,54.3287,0.0566,0.000736,359.0332,-60.8318,-23.2886,84.1205,359.0332,-0.0018,0.6823,-17.1054,-0.9879,6.4256,-0.025029,0.006393,0.018640,-0.0034,-0.0015,-0.0005,-180.0000,-0.0000,0.0000
144,1.4400,-0.0890,-0.0095,-0.0824,0.1217,0.0000,0.0000,0.0000,20.0000,2.8097,3.8709,40.3445,53.2992,0.0579,0.000836,359.0332,-60.8318,-23.2886,84.1205,359.0332,-0.0018,0.6823,-17.1054,-0.9879,6.4256,-0.021560,0.004765,0.017375,-0.0037,-0.0026,-0.0017,-180.0000,-0.0000,0.0000
145,1.4500,-0.0672,0.0018,-0.0794,0.1040,0.0000,0.0000,0.0000,20.0000,2.4035,3.8014,47.3520,52.7793,0.0591,0.000796,359.0332,-60.8318,-23.2886,84.1205,359.0332,-0.0018,0.6823,-17.1054,-0.9879,6.4256,-0.017414,0.002726,0.016340,-0.0022,-0.0035,-0.0011,-180.0000,-0.0000,0.0000
146,1.4600,-0.0580,0.0014,-0.0723,0.0927,0.0000,0.0000,0.0000,20.0000,2.0720,3.7154,36.6476,52.1863,0.0600,0.000796,359.0332,-60.8318,-23.2886,84.1205,359.0332,-0.0018,0.6823,-17.1054,-0.9879,6.4256,-0.014172,0.001632,0.015027,-0.0013,-0.0031,-0.0018,-180.0000,-0.0000,0.0000
147,1.4700,-0.0735,-0.0152,-0.0629,0.0979,0.0000,0.0000,0.0000,20.0000,1.9439,3.6214,20.2456,50.8805,0.0610,0.000757,359.0332,-60.8318,-23.2886,84.1205,359.0332,-0.0018,0.6823,-17.1054,-0.9879,6.4256,-0.013896,0.002693,0.013324,-0.0017,-0.0036,-0.0017,-180.0000,-0.0000,0.0000
148,1.4800,-0.1084,-0.0354,-0.0543,0.1263,0.0000,0.0000,0.0000,20.0000,2.1363,3.5345,45.8671,49.9000,0.0620,0.000763,359.0332,-60.8318,-23.2886,84.1205,359.0332,-0.0018,0.6823,-17.1054,-0.9879,6.4256,-0.017208,0.005290,0.011501,-0.0028,-0.0035,-0.0015,-180.0000,-0.0000,0.0000
149,1.4900,-0.1578,-0.0394,-0.0476,0.1695,0.0000,0.0000,0.0000,20.0000,2.6833,3.4726,71.8195,50.3919,0.0633,0.000765,359.0332,-60.8318,-23.2886,84.1205,359.0332,-0.0018,0.6823,-17.1054,-0.9879,6.4256,-0.023943,0.007117,0.009804,-0.0036,-0.0038,-0.0004,-180.0000,-0.0000,0.0000
150,1.5000,-0.2246,-0.0183,-0.0478,0.2304,0.0000,0.0000,0.0000,20.0000,3.5934,3.4542,104.6365,52.4732,0.0649,0.000786,359.0332,-60.8318,-23.2886,84.1205,359.0332,-0.0018,0.6823,-17.1054,-0.9879,6.4256,-0.034304,0.006004,0.008857,-0.0048,-0.0052,-0.0007,-180.0000,-0.0000,0.0000
151,1.5100,-0.3067,0.0201,-0.0531,0.3119,0.0000,0.0000,0.0000,20.0000,4.8999,3.4978,145.6567,56.4708,0.0670,0.000787,359.0332,-60.8318,-23.2886,84.1205,359.0332,-0.0018,0.6823,-17.1054,-0.9879,6.4256,-0.048168,0.001537,0.008853,-0.0096,-0.0075,-0.0024,-180.0000,-0.0000,0.0000
152,1.5200,-0.3885,0.0692,-0.0616,0.3994,0.0000,0.0000,0.0000,20.0000,6.6130,3.6220,185.4714,62.4718,0.0697,0.000863,358.9972,-60.9576,-23.3279,84.2855,358.9972,0.0070,0.6477,-17.2125,-1.9259,-0.0000,-0.064972,-0.006089,0.010712,-0.0129,-0.0098,-0.0039,-180.0000,-0.0000,0.0000
153,1.5300,-0.4707,0.1247,-0.0755,0.4928,0.0000,0.0000,0.0000,20.0000,8.4883,3.8381,200.7357,69.6576,0.0731,0.000734,358.9972,-60.9576,-23.3279,84.2855,358.9972,0.0070,0.6477,-17.2125,-1.9259,-0.0000,-0.082356,-0.015837,0.013104,-0.0170,-0.0120,-0.0054,-180.0000,-0.0000,0.0000
154,1.5400,-0.5637,0.1870,-0.0925,0.6011,0.0000,0.0000,0.0000,20.0000,10.5989,4.1520,222.4550,77.4653,0.0774,0.000777,358.9972,-60.9576,-23.3279,84.2855,358.9972,0.0070,0.6477,-17.2125,-1.9259,-0.0000,-0.101104,-0.027429,0.016103,-0.0235,-0.0134,-0.0072,-180.0000,-0.0000,0.0000
155,1.5500,-0.6539,0.2548,-0.1075,0.7100,0.0000,0.0000,0.0000,20.0000,12.8386,4.5682,234.5216,85.7728,0.0827,0.000817,358.9972,-60.9576,-23.3279,84.2855,358.9972,0.0070,0.6477,-17.2125,-1.9259,-0.0000,-0.120284,-0.040558,0.019230,-0.0276,-0.0133,-0.0070,-180.0000,-0.0000,0.0000
156,1.5600,-0.7115,0.3295,-0.1183,0.7930,0.0000,0.0000,0.0000,20.0000,14.8789,5.0793,219.5588,93.5437,0.0889,0.000829,358.9972,-60.9576,-23.3279,84.2855,358.9972,0.0070,0.6477,-17.2125,-1.9259,-0.0000,-0.136408,-0.055202,0.021994,-0.0293,-0.0143,-0.0024,-180.0000,-0.0000,0.0000
157,1.5700,-0.7313,0.4124,-0.1214,0.8483,0.0000,0.0000,0.0000,20.0000,16.5198,5.6635,195.1494,99.8041,0.0960,0.000791,358.9972,-60.9576,-23.3279,84.2855,358.9972,0.0070,0.6477,-17.2125,-1.9259,-0.0000,-0.147021,-0.071480,0.023790,-0.0311,-0.0137,0.0021,-180.0000,-0.0000,0.0000
158,1.5800,-0.7189,0.4933,-0.1096,0.8788,0.0000,0.0000,0.0000,20.0000,17.6873,6.2928,174.9545,104.4935,0.1038,0.000788,358.9972,-60.9576,-23.3279,84.2855,358.9972,0.0070,0.6477,-17.2125,-1.9259,-0.0000,-0.151360,-0.088427,0.023557,-0.0321,-0.0129,0.0048,-180.0000,-0.0000,0.0000
159,1.5900,-0.6813,0.5547,-0.0700,0.8813,0.0000,0.0000,0.0000,20.0000,18.3168,6.9369,159.6879,107.9495,0.1117,0.000723,358.9972,-60.9576,-23.3279,84.2855,358.9972,0.0070,0.6477,-17.2125,-1.9259,-0.0000,-0.149691,-0.103759,0.019417,-0.0327,-0.0116,0.0076,-180.0000,-0.0000,0.0000
160,1.6000,-0.6213,0.5959,0.0053,0.8609,0.0000,0.0000,0.0000,20.0000,18.4061,7.5653,173.9849,111.1887,0.1196,0.000875,358.9972,-60.9576,-23.3279,84.2855,358.9972,0.0070,0.6477,-17.2125,-1.9259,-0.0000,-0.142466,-0.116147,0.009566,-0.0316,-0.0102,0.0099,-180.0000,-0.0000,0.0000
161,1.6100,-0.5517,0.6144,0.1143,0.8336,0.0000,0.0000,0.0000,20.0000,18.1098,8.1535,215.8070,115.7933,0.1267,0.000755,358.9972,-60.9576,-23.3279,84.2855,358.9972,0.0070,0.6477,-17.2125,-1.9259,-0.0000,-0.131236,-0.124608,-0.006805,-0.0303,-0.0061,0.0091,-180.0000,-0.0000,0.0000
162,1.6200,-0.4799,0.6052,0.2536,0.8130,0.0000,0.0000,0.0000,20.0000,17.6425,8.6883,269.4406,122.7700,0.1329,0.000738,358.9972,-60.9576,-23.3279,84.2855,358.9972,0.0070,0.6477,-17.2125,-1.9259,-0.0000,-0.117584,-0.128116,-0.029768,-0.0273,-0.0020,0.0077,-180.0000,-0.0000,0.0000
163,1.6300,-0.3845,0.5733,0.4110,0.8034,0.0000,0.0000,0.0000,20.0000,17.1644,9.1677,332.7753,132.5800,0.1376,0.000843,358.9972,-60.9576,-23.3279,84.2855,358.9972,0.0070,0.6477,-17.2125,-1.9259,-0.0000,-0.100260,-0.126607,-0.058141,-0.0236,0.0044,0.0103,-180.0000,-0.0000,0.0000
164,1.6400,-0.2547,0.5268,0.5717,0.8181,0.0000,0.0000,0.0000,20.0000,16.9344,9.6013,393.9690,145.2754,0.1402,0.000777,358.9972,-60.9576,-23.3279,84.2855,358.9972,0.0070,0.6477,-17.2125,-1.9259,-0.0000,-0.077500,-0.120873,-0.089782,-0.0204,0.0125,0.0144,-180.0000,-0.0000,0.0000
165,1.6500,-0.0899,0.4774,0.7295,0.8765,0.0000,0.0000,0.0000,20.0000,17.3465,10.0160,449.2129,160.4750,0.1404,0.000768,358.9972,-60.9576,-23.3279,84.2855,358.9972,0.0070,0.6477,-17.2125,-1.9259,-0.0000,-0.048288,-0.112522,-0.122871,-0.0171,0.0232,0.0188,-180.0000,-0.0000,0.0000
166,1.6600,0.1096,0.4351,0.8803,0.9881,0.0000,0.0000,0.0000,20.0000,18.7570,10.4580,498.9585,177.7261,0.1378,0.002682,358.9972,-60.9576,-23.3279,84.2855,358.9972,0.0070,0.6477,-17.2125,-1.9259,-0.0000,-0.012088,-0.103455,-0.155992,-0.0157,0.0363,0.0243,-180.0000,-0.0000,0.0000
167,1.6700,0.3436,0.4018,1.0120,1.1418,0.0000,0.0000,0.0000,20.0000,21.2175,10.9822,541.4062,196.5639,0.1320,0.000726,358.9972,-60.9576,-23.3279,84.2855,358.9972,0.0070,0.6477,-17.2125,-1.9259,-0.0000,0.031348,-0.094906,-0.187159,-0.0163,0.0498,0.0323,-180.0000,-0.0000,0.0000
168,1.6800,0.6014,0.3837,1.1201,1.3280,0.0000,0.0000,0.0000,20.0000,24.5967,11.6382,573.0411,216.4031,0.1232,0.000730,358.9972,-60.9576,-23.3279,84.2855,358.9972,0.0070,0.6477,-17.2125,-1.9259,-0.0000,0.081074,-0.088173,-0.214831,-0.0188,0.0632,0.0401,-180.0000,-0.0000,0.0000
169,1.6900,0.8678,0.3861,1.2077,1.5364,0.0000,0.0000,0.0000,20.0000,28.6770,12.4632,590.1867,236.4926,0.1118,0.000807,358.9972,-60.9576,-23.3279,84.2855,358.9972,0.0070,0.6477,-17.2125,-1.9259,-0.0000,0.135037,-0.084517,-0.238451,-0.0216,0.0775,0.0481,-180.0000,-0.0000,0.0000
170,1.7000,1.1504,0.4034,1.2785,1.7665,0.0000,0.0000,0.0000,20.0000,33.2985,13.4822,610.6938,256.5127,0.0983,0.000807,358.9972,-60.9576,-23.3279,84.2855,358.9972,0.0070,0.6477,-17.2125,-1.9259,-0.0000,0.192853,-0.084057,-0.258111,-0.0233,0.0919,0.0569,-180.0000,-0.0000,0.0000
171,1.7100,1.4659,0.4301,1.3396,2.0319,0.0000,0.0000,0.0000,20.0000,38.5188,14.7159,652.8200,277.1541,0.0836,0.000940,358.9972,-60.9576,-23.3279,84.2855,358.9972,0.0070,0.6477,-17.2125,-1.9259,-0.0000,0.255984,-0.086307,-0.274578,-0.0215,0.1081,0.0641,-180.0000,-0.0000,0.0000
172,1.7200,1.8117,0.4579,1.4013,2.3357,0.0000,0.0000,0.0000,20.0000,44.3009,16.1842,684.9921,298.7036,0.0687,0.000762,358.7859,-61.2663,-23.2066,84.4728,358.7859,0.5406,-0.4507,-11.2621,-1.4414,3.4153,0.322645,-0.091600,-0.289424,-0.0182,0.1270,0.0688,-180.0000,-0.0000,0.0000
173,1.7300,2.1805,0.4781,1.4730,2.6745,0.0000,0.0000,0.0000,20.0000,50.8372,17.9107,747.2332,321.6644,0.0549,0.000845,358.7859,-61.2663,-23.2066,84.4728,358.7859,0.5406,-0.4507,-11.2621,-1.4414,3.4153,0.395733,-0.096354,-0.304226,-0.0109,0.1457,0.0716,-180.0000,-0.0000,0.0000
174,1.7400,2.5656,0.4760,1.5554,3.0378,0.0000,0.0000,0.0000,20.0000,58.0243,19.9196,797.3768,346.4533,0.0441,0.000782,358.7859,-61.2663,-23.2066,84.4728,358.7859,0.5406,-0.4507,-11.2621,-1.4414,3.4153,0.473856,-0.098580,-0.320039,-0.0030,0.1653,0.0718,-180.0000,-0.0000,0.0000
175,1.7500,2.9483,0.4399,1.6293,3.3971,0.0000,0.0000,0.0000,20.0000,65.5063,22.2214,820.1836,371.8850,0.0387,0.000768,358.7859,-61.2663,-23.2066,84.4728,358.7859,0.5406,-0.4507,-11.2621,-1.4414,3.4153,0.554358,-0.096012,-0.335525,0.0046,0.1836,0.0720,-180.0000,-0.0000,0.0000
176,1.7600,3.3147,0.3847,1.6707,3.7318,0.0000,0.0000,0.0000,20.0000,72.8795,24.8052,812.4441,396.3321,0.0414,0.000784,358.7859,-61.2663,-23.2066,84.4728,358.7859,0.5406,-0.4507,-11.2621,-1.4414,3.4153,0.634389,-0.088874,-0.347554,0.0114,0.1976,0.0698,-180.0000,-0.0000,0.0000
177,1.7700,3.6546,0.3229,1.6822,4.0361,0.0000,0.0000,0.0000,20.0000,79.8740,27.6421,779.7933,418.3236,0.0551,0.000767,358.7859,-61.2663,-23.2066,84.4728,358.7859,0.5406,-0.4507,-11.2621,-1.4414,3.4153,0.711358,-0.078570,-0.354658,0.0171,0.2105,0.0665,-180.0000,-0.0000,0.0000
178,1.7800,3.9638,0.2498,1.6712,4.3089,0.0000,0.0000,0.0000,20.0000,86.3294,30.6928,732.6223,436.9099,0.0829,0.000864,358.7859,-61.2663,-23.2066,84.4728,358.7859,0.5406,-0.4507,-11.2621,-1.4414,3.4153,0.783396,-0.065405,-0.356775,0.0206,0.2222,0.0634,-180.0000,-0.0000,0.0000
179,1.7900,4.2471,0.1753,1.6407,4.5564,0.0000,0.0000,0.0000,20.0000,92.2211,33.9153,682.7224,451.8040,0.1276,0.000846,358.7859,-61.2663,-23.2066,84.4728,358.7859,0.5406,-0.4507,-11.2621,-1.4414,3.4153,0.849982,-0.050551,-0.354186,0.0217,0.2322,0.0594,-180.0000,-0.0000,0.0000
180,1.8000,4.4959,0.1134,1.6139,4.7782,0.0000,0.0000,0.0000,20.0000,97.5402,37.2689,619.0606,462.7554,0.1921,0.000770,358.7859,-61.2663,-23.2066,84.4728,358.7859,0.5406,-0.4507,-11.2621,-1.4414,3.4153,0.909974,-0.036053,-0.349367,0.0232,0.2425,0.0542,-180.0000,-0.0000,0.0000
181,1.8100,4.7085,0.0580,1.6120,4.9771,0.0000,0.0000,0.0000,20.0000,102.3049,40.7153,544.5073,469.3029,0.2789,0.000814,358.7859,-61.2663,-23.2066,84.4728,358.7859,0.5406,-0.4507,-11.2621,-1.4414,3.4153,0.962570,-0.022420,-0.345810,0.0224,0.2532,0.0514,-180.0000,-0.0000,0.0000
182,1.8200,4.9062,0.0053,1.6320,5.1705,0.0000,0.0000,0.0000,20.0000,106.6912,44.2239,486.5499,471.8457,0.3908,0.000785,358.7859,-61.2663,-23.2066,84.4728,358.7859,0.5406,-0.4507,-11.2621,-1.4414,3.4153,1.009493,-0.009568,-0.345159,0.0211,0.2614,0.0502,-180.0000,-0.0000,0.0000
183,1.8300,5.1020,-0.0365,1.6676,5.3677,0.0000,0.0000,0.0000,20.0000,110.8902,47.7756,450.1118,471.6524,0.5304,0.000767,358.7859,-61.2663,-23.2066,84.4728,358.7859,0.5406,-0.4507,-11.2621,-1.4414,3.4153,1.052989,0.001734,-0.347670,0.0200,0.2700,0.0491,-180.0000,-0.0000,0.0000
184,1.8400,5.3105,-0.0569,1.7176,5.5816,0.0000,0.0000,0.0000,20.0000,115.1385,51.3642,439.5047,470.1757,0.7008,0.000776,358.7859,-61.2663,-23.2066,84.4728,358.7859,0.5406,-0.4507,-11.2621,-1.4414,3.4153,1.095777,0.010011,-0.353356,0.0215,0.2795,0.0516,-180.0000,-0.0000,0.0000
185,1.8500,5.5502,-0.0492,1.7733,5.8268,0.0000,0.0000,0.0000,20.0000,119.7135,54.9982,462.8828,469.1316,0.9057,0.000765,358.7859,-61.2663,-23.2066,84.4728,358.7859,0.5406,-0.4507,-11.2621,-1.4414,3.4153,1.141210,0.013799,-0.361362,0.0223,0.2910,0.0560,-180.0000,-0.0000,0.0000
186,1.8600,5.8162,-0.0291,1.8292,6.0971,0.0000,0.0000,0.0000,20.0000,124.7078,58.6954,502.9574,469.8900,1.1495,0.000777,358.7859,-61.2663,-23.2066,84.4728,358.7859,0.5406,-0.4507,-11.2621,-1.4414,3.4153,1.190639,0.013856,-0.370662,0.0228,0.3039,0.0619,-180.0000,-0.0000,0.0000
187,1.8700,6.1042,-0.0066,1.8843,6.3884,0.0000,0.0000,0.0000,20.0000,130.1333,62.4758,546.9944,472.9202,1.4368,0.000812,358.7859,-61.2663,-23.2066,84.4728,358.7859,0.5406,-0.4507,-11.2621,-1.4414,3.4153,1.244386,0.011612,-0.380573,0.0251,0.3176,0.0695,-180.0000,-0.0000,0.0000
188,1.8800,6.3953,0.0100,1.9356,6.6818,0.0000,0.0000,0.0000,20.0000,135.8076,66.3536,572.6078,477.6994,1.7727,0.000864,358.7859,-61.2663,-23.2066,84.4728,358.7859,0.5406,-0.4507,-11.2621,-1.4414,3.4153,1.300718,0.008686,-0.390419,0.0259,0.3284,0.0755,-180.0000,-0.0000,0.0000
189,1.8900,6.6606,0.0140,1.9846,6.9500,0.0000,0.0000,0.0000,20.0000,141.3571,70.3267,559.2941,482.5539,2.1612,0.000851,358.7859,-61.2663,-23.2066,84.4728,358.7859,0.5406,-0.4507,-11.2621,-1.4414,3.4153,1.355787,0.006654,-0.399977,0.0250,0.3379,0.0813,-180.0000,-0.0000,0.0000
190,1.9000,6.8869,0.0084,2.0309,7.1801,0.0000,0.0000,0.0000,20.0000,146.4456,74.3739,511.7822,485.4685,2.6057,0.000970,358.7859,-61.2663,-23.2066,84.4728,358.7859,0.5406,-0.4507,-11.2621,-1.4414,3.4153,1.406144,0.006072,-0.409087,0.0228,0.3435,0.0843,-180.0000,-0.0000,0.0000
191,1.9100,7.0740,0.0071,2.0771,7.3727,0.0000,0.0000,0.0000,20.0000,152.2973,78.4994,585.8488,488.9531,3.1135,0.000701,358.4845,-59.6911,-23.1605,82.8516,358.4845,0.8541,0.3246,-15.1007,-1.6817,2.6780,1.462317,0.003432,-0.425516,0.0190,0.3455,0.0879,-180.0000,-0.0000,0.0000
192,1.9200,7.2269,0.0353,2.1330,7.5352,0.0000,0.0000,0.0000,20.0000,156.8514,82.6841,457.6025,490.7558,3.6853,0.000710,358.4845,-59.6911,-23.1605,82.8516,358.4845,0.8541,0.3246,-15.1007,-1.6817,2.6780,1.505730,-0.000853,-0.439335,0.0101,0.3487,0.0924,-180.0000,-0.0000,0.0000
193,1.9300,7.3512,0.0891,2.1981,7.6733,0.0000,0.0000,0.0000,20.0000,160.4332,86.8624,367.7612,486.4611,4.3213,0.000817,358.4845,-59.6911,-23.1605,82.8516,358.4845,0.8541,0.3246,-15.1007,-1.6817,2.6780,1.539143,-0.008601,-0.452601,0.0039,0.3516,0.0956,-180.0000,-0.0000,0.0000
194,1.9400,7.4603,0.1575,2.2687,7.7992,0.0000,0.0000,0.0000,20.0000,163.3479,90.9896,315.8073,478.5027,5.0224,0.000803,358.4845,-59.6911,-23.1605,82.8516,358.4845,0.8541,0.3246,-15.1007,-1.6817,2.6780,1.565446,-0.019709,-0.466096,-0.0012,0.3553,0.0989,-180.0000,-0.0000,0.0000
195,1.9500,7.5621,0.2289,2.3532,7.9231,0.0000,0.0000,0.0000,20.0000,165.8677,95.0392,294.2405,468.9600,5.7895,0.003869,358.4845,-59.6911,-23.1605,82.8516,358.4845,0.8541,0.3246,-15.1007,-1.6817,2.6780,1.587039,-0.032946,-0.481072,-0.0086,0.3599,0.1009,-180.0000,-0.0000,0.0000
196,1.9600,7.6561,0.2932,2.4492,8.0437,0.0000,0.0000,0.0000,20.0000,168.1322,98.9976,283.4499,459.0522,6.6240,0.000753,358.4845,-59.6911,-23.1605,82.8516,358.4845,0.8541,0.3246,-15.1007,-1.6817,2.6780,1.605202,-0.046631,-0.497991,-0.0135,0.3646,0.1018,-180.0000,-0.0000,0.0000
197,1.9700,7.7425,0.3530,2.5424,8.1569,0.0000,0.0000,0.0000,20.0000,170.1788,102.8568,270.6517,449.0407,7.5268,0.000758,358.4845,-59.6911,-23.1605,82.8516,358.4845,0.8541,0.3246,-15.1007,-1.6817,2.6780,1.620666,-0.060083,-0.515667,-0.0157,0.3680,0.1028,-180.0000,-0.0000,0.0000
198,1.9800,7.8201,0.4011,2.6272,8.2594,0.0000,0.0000,0.0000,20.0000,171.9966,106.6101,247.8371,438.6004,8.4987,0.000759,358.4845,-59.6911,-23.1605,82.8516,358.4845,0.8541,0.3246,-15.1007,-1.6817,2.6780,1.633739,-0.072201,-0.532886,-0.0167,0.3700,0.1027,-180.0000,-0.0000,0.0000
199,1.9900,7.8885,0.4362,2.7061,8.3511,0.0000,0.0000,0.0000,20.0000,173.5772,110.2503,220.1763,427.3461,9.5399,0.000755,358.4845,-59.6911,-23.1605,82.8516,358.4845,0.8541,0.3246,-15.1007,-1.6817,2.6780,1.644533,-0.082270,-0.549222,-0.0155,0.3698,0.1024,-180.0000,-0.0000,0.0000
200,2.0000,7.9393,0.4470,2.7757,8.4225,0.0000,0.0000,0.0000,20.0000,174.8198,113.7680,180.0905,414.8476,10.6498,0.000823,358.4845,-59.6911,-23.1605,82.8516,358.4845,0.8541,0.3246,-15.1007,-1.6817,2.6780,1.652297,-0.088754,-0.564122,-0.0116,0.3688,0.1030,-180.0000,-0.0000,0.0000
201,2.0100,7.9651,0.4249,2.8362,8.4657,0.0000,0.0000,0.0000,20.0000,175.5910,117.1476,136.8200,400.7440,11.8263,0.000814,358.4845,-59.6911,-23.1605,82.8516,358.4845,0.8541,0.3246,-15.1007,-1.6817,2.6780,1.655862,-0.089950,-0.577277,-0.0094,0.3655,0.1036,-180.0000,-0.0000,0.0000
202,2.0200,7.9603,0.3861,2.8962,8.4796,0.0000,0.0000,0.0000,20.0000,175.8040,120.3683,127.1565,385.9602,13.0661,0.000744,358.4845,-59.6911,-23.1605,82.8516,358.4845,0.8541,0.3246,-15.1007,-1.6817,2.6780,1.654034,-0.086554,-0.589394,-0.0073,0.3620,0.1024,-180.0000,-0.0000,0.0000
203,2.0300,7.9200,0.3477,2.9578,8.4614,0.0000,0.0000,0.0000,20.0000,175.3879,123.4062,155.1068,372.4927,14.3647,0.000802,358.4845,-59.6911,-23.1605,82.8516,358.4845,0.8541,0.3246,-15.1007,-1.6817,2.6780,1.645692,-0.080662,-0.601068,-0.0064,0.3573,0.1035,-180.0000,-0.0000,0.0000
204,2.0400,7.8580,0.3134,3.0167,8.4230,0.0000,0.0000,0.0000,20.0000,174.4224,126.2391,192.3771,361.5598,15.7171,0.000766,358.4845,-59.6911,-23.1605,82.8516,358.4845,0.8541,0.3246,-15.1007,-1.6817,2.6780,1.631585,-0.073812,-0.612210,-0.0089,0.3523,0.1047,-180.0000,-0.0000,0.0000
205,2.0500,7.7905,0.2982,3.0656,8.3773,0.0000,0.0000,0.0000,20.0000,173.0860,128.8528,210.5699,352.7538,17.1191,0.000783,358.4845,-59.6911,-23.1605,82.8516,358.4845,0.8541,0.3246,-15.1007,-1.6817,2.6780,1.613778,-0.068353,-0.622034,-0.0116,0.3462,0.1050,-180.0000,-0.0000,0.0000
206,2.0600,7.7284,0.3145,3.0954,8.3312,0.0000,0.0000,0.0000,20.0000,171.5450,131.2436,206.2946,344.8149,18.5676,0.000725,358.4845,-59.6911,-23.1605,82.8516,358.4845,0.8541,0.3246,-15.1007,-1.6817,2.6780,1.594493,-0.066832,-0.629201,-0.0128,0.3428,0.1051,-180.0000,-0.0000,0.0000
207,2.0700,7.6831,0.3449,3.0988,8.2917,0.0000,0.0000,0.0000,20.0000,169.9600,133.4169,187.4026,336.6756,20.0607,0.000762,358.4845,-59.6911,-23.1605,82.8516,358.4845,0.8541,0.3246,-15.1007,-1.6817,2.6780,1.576119,-0.068902,-0.632252,-0.0165,0.3422,0.1058,-180.0000,-0.0000,0.0000
208,2.0800,7.6666,0.3793,3.0780,8.2701,0.0000,0.0000,0.0000,20.0000,168.5297,135.3877,156.9698,327.6274,21.5981,0.000741,358.4845,-59.6911,-23.1605,82.8516,358.4845,0.8541,0.3246,-15.1007,-1.6817,2.6780,1.561155,-0.073341,-0.630587,-0.0182,0.3432,0.1064,-180.0000,-0.0000,0.0000
209,2.0900,7.6798,0.4110,3.0368,8.2686,0.0000,0.0000,0.0000,20.0000,167.3855,137.1793,130.8544,317.5216,23.1814,0.000778,358.4845,-59.6911,-23.1605,82.8516,358.4845,0.8541,0.3246,-15.1007,-1.6817,2.6780,1.551078,-0.078817,-0.624288,-0.0200,0.3450,0.1076,-180.0000,-0.0000,0.0000
210,2.1000,7.7110,0.4208,2.9760,8.2761,0.0000,0.0000,0.0000,20.0000,166.4887,138.8162,127.5104,307.1614,24.8120,0.000728,358.4845,-59.6911,-23.1605,82.8516,358.4845,0.8541,0.3246,-15.1007,-1.6817,2.6780,1.545530,-0.082673,-0.613474,-0.0215,0.3457,0.1084,-180.0000,-0.0000,0.0000
211,2.1100,7.7570,0.4096,2.9006,8.2917,0.0000,0.0000,0.0000,20.0000,170.0882,140.4374,389.8027,304.4932,26.5353,0.000778,358.4565,-54.3391,-24.1756,78.5147,358.4565,-0.0253,-0.2577,-15.0449,-1.5533,0.0003,1.584443,-0.084812,-0.612657,-0.0218,0.3468,0.1091,-180.0000,-0.0000,0.0000
212,2.1200,7.8256,0.3952,2.8166,8.3265,0.0000,0.0000,0.0000,20.0000,172.0808,142.1233,271.4616,305.9311,28.3376,0.000711,358.4565,-54.3391,-24.1756,78.5147,358.4565,-0.0253,-0.2577,-15.0449,-1.5533,0.0003,1.609645,-0.084384,-0.602579,-0.0181,0.3499,0.1112,-180.0000,-0.0000,0.0000
213,2.1300,7.9252,0.3790,2.7280,8.3901,0.0000,0.0000,0.0000,20.0000,173.4708,143.8094,259.9021,303.7171,30.2142,0.000790,358.4565,-54.3391,-24.1756,78.5147,358.4565,-0.0253,-0.2577,-15.0449,-1.5533,0.0003,1.630312,-0.082360,-0.586950,-0.0157,0.3591,0.1123,-180.0000,-0.0000,0.0000
214,2.1400,8.0736,0.3533,2.6404,8.5017,0.0000,0.0000,0.0000,20.0000,175.0049,145.4832,298.2302,302.3611,32.1676,0.000776,358.4565,-54.3391,-24.1756,78.5147,358.4565,-0.0253,-0.2577,-15.0449,-1.5533,0.0003,1.653319,-0.078508,-0.568368,-0.0133,0.3720,0.1152,-180.0000,-0.0000,0.0000
215,2.1500,8.2794,0.3302,2.5671,8.6745,0.0000,0.0000,0.0000,20.0000,177.2312,147.1684,356.6099,303.7395,34.2071,0.000724,358.4565,-54.3391,-24.1756,78.5147,358.4565,-0.0253,-0.2577,-15.0449,-1.5533,0.0003,1.683310,-0.073908,-0.549631,-0.0095,0.3905,0.1179,-180.0000,-0.0000,0.0000
216,2.1600,8.5126,0.3091,2.5149,8.8817,0.0000,0.0000,0.0000,20.0000,180.1854,148.9033,404.4614,307.9639,36.3433,0.000746,358.4565,-54.3391,-24.1756,78.5147,358.4565,-0.0253,-0.2577,-15.0449,-1.5533,0.0003,1.719844,-0.069113,-0.532953,-0.0073,0.4063,0.1202,-180.0000,-0.0000,0.0000
217,2.1700,8.7340,0.2758,2.4835,9.0844,0.0000,0.0000,0.0000,20.0000,183.4945,150.7151,415.9206,313.5872,38.5834,0.000786,358.4565,-54.3391,-24.1756,78.5147,358.4565,-0.0253,-0.2577,-15.0449,-1.5533,0.0003,1.758733,-0.062991,-0.519532,-0.0066,0.4171,0.1193,-180.0000,-0.0000,0.0000
218,2.1800,8.9126,0.2309,2.4690,9.2512,0.0000,0.0000,0.0000,20.0000,186.6348,152.6046,380.3899,318.2391,40.9289,0.000743,358.4565,-54.3391,-24.1756,78.5147,358.4565,-0.0253,-0.2577,-15.0449,-1.5533,0.0003,1.794577,-0.054990,-0.509628,-0.0052,0.4192,0.1164,-180.0000,-0.0000,0.0000
219,2.1900,9.0203,0.1915,2.4639,9.3527,0.0000,0.0000,0.0000,20.0000,189.0214,154.5422,291.4736,319.2124,43.3737,0.000785,358.4565,-54.3391,-24.1756,78.5147,358.4565,-0.0253,-0.2577,-15.0449,-1.5533,0.0003,1.821571,-0.046520,-0.502616,-0.0042,0.4184,0.1104,-180.0000,-0.0000,0.0000
220,2.2000,9.0591,0.1680,2.4593,9.3885,0.0000,0.0000,0.0000,20.0000,190.3264,156.4747,175.7977,314.5050,45.9062,0.000706,358.4565,-54.3391,-24.1756,78.5147,358.4565,-0.0253,-0.2577,-15.0449,-1.5533,0.0003,1.836730,-0.039396,-0.497277,-0.0045,0.4160,0.1063,-180.0000,-0.0000,0.0000
221,2.2100,9.0588,0.1543,2.4568,9.3873,0.0000,0.0000,0.0000,20.0000,190.6587,158.3460,82.8054,304.3173,48.5150,0.000743,358.4565,-54.3391,-24.1756,78.5147,358.4565,-0.0253,-0.2577,-15.0449,-1.5533,0.0003,1.841409,-0.034001,-0.493084,-0.0040,0.4148,0.1015,-180.0000,-0.0000,0.0000
222,2.2200,9.0449,0.1374,2.4707,9.3773,0.0000,0.0000,0.0000,20.0000,190.3610,160.1152,56.7995,291.4171,51.1918,0.000701,358.4565,-54.3391,-24.1756,78.5147,358.4565,-0.0253,-0.2577,-15.0449,-1.5533,0.0003,1.838922,-0.029269,-0.491165,-0.0035,0.4118,0.1002,-180.0000,-0.0000,0.0000
223,2.2300,9.0318,0.1043,2.5101,9.3747,0.0000,0.0000,0.0000,20.0000,189.7873,161.7632,89.4291,279.4087,53.9329,0.000763,358.4565,-54.3391,-24.1756,78.5147,358.4565,-0.0253,-0.2577,-15.0449,-1.5533,0.0003,1.832557,-0.023281,-0.493066,-0.0041,0.4102,0.0982,-180.0000,-0.0000,0.0000
224,2.2400,9.0250,0.0556,2.5721,9.3846,0.0000,0.0000,0.0000,20.0000,189.1847,163.2882,129.8923,270.0712,56.7373,0.000719,358.4565,-54.3391,-24.1756,78.5147,358.4565,-0.0253,-0.2577,-15.0449,-1.5533,0.0003,1.824698,-0.015057,-0.499335,-0.0026,0.4106,0.0962,-180.0000,-0.0000,0.0000
225,2.2500,9.0243,0.0050,2.6513,9.4057,0.0000,0.0000,0.0000,20.0000,188.6795,164.6988,163.0099,263.2711,59.6063,0.000752,358.4565,-54.3391,-24.1756,78.5147,358.4565,-0.0253,-0.2577,-15.0449,-1.5533,0.0003,1.816634,-0.005414,-0.509713,-0.0000,0.4119,0.0944,-180.0000,-0.0000,0.0000
226,2.2600,9.0353,-0.0393,2.7537,9.4457,0.0000,0.0000,0.0000,20.0000,188.4169,166.0107,191.8381,258.5488,62.5431,0.000743,358.4565,-54.3391,-24.1756,78.5147,358.4565,-0.0253,-0.2577,-15.0449,-1.5533,0.0003,1.809639,0.004352,-0.524671,-0.0003,0.4136,0.0965,-180.0000,-0.0000,0.0000
227,2.2700,9.0550,-0.0770,2.8785,9.5018,0.0000,0.0000,0.0000,20.0000,188.4508,167.2442,224.2057,255.7694,65.5523,0.000778,358.4565,-54.3391,-24.1756,78.5147,358.4565,-0.0253,-0.2577,-15.0449,-1.5533,0.0003,1.804118,0.013515,-0.544375,0.0001,0.4152,0.0982,-180.0000,-0.0000,0.0000
228,2.2800,9.0816,-0.0918,3.0071,9.5670,0.0000,0.0000,0.0000,20.0000,188.7426,168.4187,239.1221,254.4434,68.6382,0.000790,358.4565,-54.3391,-24.1756,78.5147,358.4565,-0.0253,-0.2577,-15.0449,-1.5533,0.0003,1.800125,0.020035,-0.567032,0.0008,0.4178,0.1012,-180.0000,-0.0000,0.0000
229,2.2900,9.1211,-0.0785,3.1292,9.6433,0.0000,0.0000,0.0000,20.0000,189.2908,169.5518,237.8755,253.5664,71.8054,0.000742,358.4565,-54.3391,-24.1756,78.5147,358.4565,-0.0253,-0.2577,-15.0449,-1.5533,0.0003,1.798263,0.022266,-0.590641,0.0025,0.4195,0.1054,-180.0000,-0.0000,0.0000
230,2.3000,9.1677,-0.0593,3.2549,9.7286,0.0000,0.0000,0.0000,20.0000,190.0702,170.6590,244.4868,252.8851,75.0582,0.000709,358.4565,-54.3391,-24.1756,78.5147,358.4565,-0.0253,-0.2577,-15.0449,-1.5533,0.0003,1.798300,0.021532,-0.615079,0.0025,0.4205,0.1092,-180.0000,-0.0000,0.0000
231,2.3100,9.1991,-0.0439,3.3770,9.7994,0.0000,0.0000,0.0000,20.0000,195.9899,171.8896,636.3252,263.2002,78.4883,0.000802,358.3994,-47.8282,-25.8448,73.6730,358.3994,0.0058,-2.5690,-15.2324,-1.0841,0.0000,1.846686,0.017736,-0.656231,0.0038,0.4194,0.1098,-180.0000,-0.0000,0.0000
232,2.3200,9.2142,-0.0272,3.4740,9.8474,0.0000,0.0000,0.0000,20.0000,199.3551,173.3079,398.4563,277.1827,82.0561,0.000708,358.3994,-47.8282,-25.8448,73.6730,358.3994,0.0058,-2.5690,-15.2324,-1.0841,0.0000,1.871248,0.013928,-0.687374,0.0040,0.4208,0.1103,-180.0000,-0.0000,0.0000
233,2.3300,9.2410,-0.0131,3.5465,9.8981,0.0000,0.0000,0.0000,20.0000,201.3310,174.7950,264.9775,280.1826,85.7396,0.000709,358.3994,-47.8282,-25.8448,73.6730,358.3994,0.0058,-2.5690,-15.2324,-1.0841,0.0000,1.883761,0.010388,-0.710461,0.0064,0.4244,0.1126,-180.0000,-0.0000,0.0000
234,2.3400,9.2799,-0.0102,3.6071,9.9563,0.0000,0.0000,0.0000,20.0000,202.6079,176.2898,189.0965,277.2591,89.5277,0.000784,358.3994,-47.8282,-25.8448,73.6730,358.3994,0.0058,-2.5690,-15.2324,-1.0841,0.0000,1.890806,0.008112,-0.727861,0.0087,0.4265,0.1139,-180.0000,-0.0000,0.0000
235,2.3500,9.3149,-0.0236,3.6538,10.0060,0.0000,0.0000,0.0000,20.0000,203.4094,177.7596,133.3699,270.8768,93.4128,0.000735,358.3994,-47.8282,-25.8448,73.6730,358.3994,0.0058,-2.5690,-15.2324,-1.0841,0.0000,1.894423,0.008178,-0.740698,0.0124,0.4259,0.1133,-180.0000,-0.0000,0.0000
236,2.3600,9.3589,-0.0522,3.6824,10.0574,0.0000,0.0000,0.0000,20.0000,203.9627,179.1857,93.1536,262.2067,97.3907,0.003851,358.3994,-47.8282,-25.8448,73.6730,358.3994,0.0058,-2.5690,-15.2324,-1.0841,0.0000,1.897025,0.011058,-0.749167,0.0159,0.4258,0.1142,-180.0000,-0.0000,0.0000
237,2.3700,9.4193,-0.0930,3.7073,10.1231,0.0000,0.0000,0.0000,20.0000,204.5188,180.5640,88.2425,252.7723,101.4623,0.000774,358.3994,-47.8282,-25.8448,73.6730,358.3994,0.0058,-2.5690,-15.2324,-1.0841,0.0000,1.900716,0.016714,-0.754846,0.0200,0.4271,0.1148,-180.0000,-0.0000,0.0000
238,2.3800,9.4619,-0.1477,3.7524,10.1799,0.0000,0.0000,0.0000,20.0000,204.9869,181.8945,108.2578,244.2724,105.6260,0.000750,358.3994,-47.8282,-25.8448,73.6730,358.3994,0.0058,-2.5690,-15.2324,-1.0841,0.0000,1.903214,0.025273,-0.760987,0.0202,0.4233,0.1136,-180.0000,-0.0000,0.0000
239,2.3900,9.4619,-0.2075,3.8204,10.2062,0.0000,0.0000,0.0000,20.0000,205.1014,183.1680,139.5028,237.6498,109.8743,0.000719,358.3994,-47.8282,-25.8448,73.6730,358.3994,0.0058,-2.5690,-15.2324,-1.0841,0.0000,1.900789,0.035932,-0.769654,0.0184,0.4192,0.1119,-180.0000,-0.0000,0.0000
240,2.4000,9.4279,-0.2614,3.8919,10.2030,0.0000,0.0000,0.0000,20.0000,204.7269,184.3642,175.1970,233.2327,114.1963,0.000773,358.3994,-47.8282,-25.8448,73.6730,358.3994,0.0058,-2.5690,-15.2324,-1.0841,0.0000,1.892246,0.047142,-0.780060,0.0169,0.4151,0.1104,-180.0000,-0.0000,0.0000
241,2.4100,9.3731,-0.3061,3.9581,10.1792,0.0000,0.0000,0.0000,20.0000,203.8791,185.4610,206.0090,230.8877,118.5806,0.000851,358.3994,-47.8282,-25.8448,73.6730,358.3994,0.0058,-2.5690,-15.2324,-1.0841,0.0000,1.878260,0.057719,-0.790872,0.0166,0.4125,0.1088,-180.0000,-0.0000,0.0000
242,2.4200,9.2940,-0.3279,4.0215,10.1321,0.0000,0.0000,0.0000,20.0000,202.5400,186.4373,235.3619,230.3265,123.0151,0.000757,358.3994,-47.8282,-25.8448,73.6730,358.3994,0.0058,-2.5690,-15.2324,-1.0841,0.0000,1.858863,0.065628,-0.801604,0.0173,0.4066,0.1064,-180.0000,-0.0000,0.0000
243,2.4300,9.1948,-0.3244,4.0699,10.0605,0.0000,0.0000,0.0000,20.0000,200.6881,187.2721,263.2290,231.3700,127.4865,0.000849,358.3994,-47.8282,-25.8448,73.6730,358.3994,0.0058,-2.5690,-15.2324,-1.0841,0.0000,1.834498,0.069524,-0.810773,0.0171,0.4022,0.1033,-180.0000,-0.0000,0.0000
244,2.4400,9.0984,-0.3154,4.0951,9.9825,0.0000,0.0000,0.0000,20.0000,198.4925,187.9497,274.5148,233.4329,131.9853,0.000751,358.3994,-47.8282,-25.8448,73.6730,358.3994,0.0058,-2.5690,-15.2324,-1.0841,0.0000,1.807726,0.070632,-0.816740,0.0166,0.3998,0.1018,-180.0000,-0.0000,0.0000
245,2.4500,9.0236,-0.3101,4.1150,9.9224,0.0000,0.0000,0.0000,20.0000,196.2890,188.4691,261.5433,235.3359,136.5089,0.000813,358.3994,-47.8282,-25.8448,73.6730,358.3994,0.0058,-2.5690,-15.2324,-1.0841,0.0000,1.781828,0.070576,-0.820392,0.0150,0.3979,0.1032,-180.0000,-0.0000,0.0000
246,2.4600,8.9654,-0.3035,4.1413,9.8803,0.0000,0.0000,0.0000,20.0000,194.2647,188.8435,239.0418,236.1587,141.0591,0.000822,358.3994,-47.8282,-25.8448,73.6730,358.3994,0.0058,-2.5690,-15.2324,-1.0841,0.0000,1.758129,0.069743,-0.823404,0.0119,0.3927,0.1022,-180.0000,-0.0000,0.0000
247,2.4700,8.9154,-0.3014,4.1637,9.8444,0.0000,0.0000,0.0000,20.0000,192.4047,189.0906,217.4794,235.7242,145.6377,0.000842,358.3994,-47.8282,-25.8448,73.6730,358.3994,0.0058,-2.5690,-15.2324,-1.0841,0.0000,1.736514,0.068931,-0.825666,0.0081,0.3907,0.1008,-180.0000,-0.0000,0.0000
248,2.4800,8.8701,-0.3096,4.1794,9.8103,0.0000,0.0000,0.0000,20.0000,190.6567,189.2248,199.9195,234.2376,150.2454,0.000702,358.3994,-47.8282,-25.8448,73.6730,358.3994,0.0058,-2.5690,-15.2324,-1.0841,0.0000,1.716558,0.069164,-0.826828,0.0063,0.3890,0.1004,-180.0000,-0.0000,0.0000
249,2.4900,8.8260,-0.3180,4.1909,9.7757,0.0000,0.0000,0.0000,20.0000,188.9687,189.2572,188.9186,232.0473,154.8818,0.000830,358.3994,-47.8282,-25.8448,73.6730,358.3994,0.0058,-2.5690,-15.2324,-1.0841,0.0000,1.697685,0.069998,-0.826973,0.0058,0.3834,0.0998,-180.0000,-0.0000,0.0000
250,2.5000,8.7854,-0.3181,4.1904,9.7388,0.0000,0.0000,0.0000,20.0000,187.2927,189.1952,179.6482,229.4199,159.5457,0.000745,358.3994,-47.8282,-25.8448,73.6730,358.3994,0.0058,-2.5690,-15.2324,-1.0841,0.0000,1.679797,0.070325,-0.825345,0.0059,0.3797,0.0977,-180.0000,-0.0000,0.0000
251,2.5100,8.7510,-0.3140,4.1750,9.7010,0.0000,0.0000,0.0000,20.0000,191.2020,189.1981,392.8483,232.5459,164.3806,0.000729,358.5063,-40.7782,-28.1407,68.9189,358.5063,0.0278,-3.2160,-14.4787,-1.2677,0.0000,1.716339,0.069510,-0.839743,0.0066,0.3799,0.0975,-180.0000,-0.0000,0.0000
252,2.5200,8.7320,-0.3107,4.1529,9.6743,0.0000,0.0000,0.0000,20.0000,192.7122,189.3498,154.4160,234.8060,169.3286,0.000847,358.5063,-40.7782,-28.1407,68.9189,358.5063,0.0278,-3.2160,-14.4787,-1.2677,0.0000,1.731207,0.068594,-0.843812,0.0067,0.3804,0.0976,-180.0000,-0.0000,0.0000
253,2.5300,8.7374,-0.3123,4.1242,9.6669,0.0000,0.0000,0.0000,20.0000,193.0855,189.5451,57.9361,227.7303,174.3618,0.000783,358.5063,-40.7782,-28.1407,68.9189,358.5063,0.0278,-3.2160,-14.4787,-1.2677,0.0000,1.736499,0.068109,-0.841506,0.0075,0.3824,0.0976,-180.0000,-0.0000,0.0000
254,2.5400,8.7621,-0.3209,4.0887,9.6745,0.0000,0.0000,0.0000,20.0000,192.9780,189.7369,68.0219,218.6677,179.4682,0.000727,358.5063,-40.7782,-28.1407,68.9189,358.5063,0.0278,-3.2160,-14.4787,-1.2677,0.0000,1.738427,0.068566,-0.834999,0.0085,0.3865,0.0972,-180.0000,-0.0000,0.0000
255,2.5500,8.7838,-0.3276,4.0514,9.6787,0.0000,0.0000,0.0000,20.0000,192.5715,189.9040,90.2973,210.9936,184.6398,0.000762,358.5063,-40.7782,-28.1407,68.9189,358.5063,0.0278,-3.2160,-14.4787,-1.2677,0.0000,1.738184,0.069348,-0.826006,0.0072,0.3880,0.0952,-180.0000,-0.0000,0.0000
256,2.5600,8.7912,-0.3271,4.0116,9.6688,0.0000,0.0000,0.0000,20.0000,191.8599,190.0311,109.8799,204.8929,189.8678,0.000777,358.5063,-40.7782,-28.1407,68.9189,358.5063,0.0278,-3.2160,-14.4787,-1.2677,0.0000,1.735308,0.069594,-0.815404,0.0064,0.3875,0.0916,-180.0000,-0.0000,0.0000
257,2.5700,8.7789,-0.3223,3.9669,9.6389,0.0000,0.0000,0.0000,20.0000,190.7826,190.1021,135.2554,200.3644,195.1411,0.000744,358.5063,-40.7782,-28.1407,68.9189,358.5063,0.0278,-3.2160,-14.4787,-1.2677,0.0000,1.729020,0.069110,-0.803439,0.0063,0.3864,0.0879,-180.0000,-0.0000,0.0000
258,2.5800,8.7447,-0.3085,3.9189,9.5876,0.0000,0.0000,0.0000,20.0000,189.2909,190.0985,167.3430,197.6654,200.4467,0.000785,358.5063,-40.7782,-28.1407,68.9189,358.5063,0.0278,-3.2160,-14.4787,-1.2677,0.0000,1.718667,0.067322,-0.790413,0.0053,0.3820,0.0850,-180.0000,-0.0000,0.0000
259,2.5900,8.6991,-0.2848,3.8653,9.5234,0.0000,0.0000,0.0000,20.0000,187.4436,190.0033,200.0947,196.8982,205.7728,0.000782,358.5063,-40.7782,-28.1407,68.9189,358.5063,0.0278,-3.2160,-14.4787,-1.2677,0.0000,1.704942,0.063829,-0.776278,0.0047,0.3775,0.0829,-180.0000,-0.0000,0.0000
260,2.6000,8.6392,-0.2551,3.7975,9.4405,0.0000,0.0000,0.0000,20.0000,185.2153,189.8012,239.6485,198.1620,211.1064,0.000710,358.5063,-40.7782,-28.1407,68.9189,358.5063,0.0278,-3.2160,-14.4787,-1.2677,0.0000,1.687960,0.058803,-0.760134,0.0072,0.3736,0.0793,-180.0000,-0.0000,0.0000
261,2.6100,8.5615,-0.2205,3.7191,9.3369,0.0000,0.0000,0.0000,20.0000,182.5752,189.4763,282.2838,201.6167,216.4331,0.000781,358.5063,-40.7782,-28.1407,68.9189,358.5063,0.0278,-3.2160,-14.4787,-1.2677,0.0000,1.667421,0.052449,-0.741841,0.0041,0.3709,0.0772,-180.0000,-0.0000,0.0000
262,2.6200,8.4797,-0.1796,3.6301,9.2258,0.0000,0.0000,0.0000,20.0000,179.6362,189.0159,316.5514,206.9965,221.7413,0.000859,358.5063,-40.7782,-28.1407,68.9189,358.5063,0.0278,-3.2160,-14.4787,-1.2677,0.0000,1.644556,0.044736,-0.721353,0.0039,0.3672,0.0768,-180.0000,-0.0000,0.0000
263,2.6300,8.3975,-0.1332,3.5299,9.1102,0.0000,0.0000,0.0000,20.0000,176.4936,188.4135,343.9977,213.7778,227.0217,0.000696,358.5063,-40.7782,-28.1407,68.9189,358.5063,0.0278,-3.2160,-14.4787,-1.2677,0.0000,1.620413,0.035746,-0.698558,0.0028,0.3673,0.0766,-180.0000,-0.0000,0.0000
264,2.6400,8.3135,-0.0953,3.4205,8.9902,0.0000,0.0000,0.0000,20.0000,173.2015,187.6672,363.8761,221.4877,232.2662,0.000794,358.5063,-40.7782,-28.1407,68.9189,358.5063,0.0278,-3.2160,-14.4787,-1.2677,0.0000,1.595426,0.026912,-0.673624,0.0011,0.3664,0.0763,-180.0000,-0.0000,0.0000
265,2.6500,8.2386,-0.0807,3.3009,8.8756,0.0000,0.0000,0.0000,20.0000,169.8894,186.7804,370.7798,229.5101,237.4704,0.000745,358.5063,-40.7782,-28.1407,68.9189,358.5063,0.0278,-3.2160,-14.4787,-1.2677,0.0000,1.570926,0.020521,-0.646537,0.0009,0.3662,0.0771,-180.0000,-0.0000,0.0000
266,2.6600,8.1789,-0.0856,3.1703,8.7723,0.0000,0.0000,0.0000,20.0000,166.6856,185.7631,371.8645,237.3109,242.6336,0.000745,358.5063,-40.7782,-28.1407,68.9189,358.5063,0.0278,-3.2160,-14.4787,-1.2677,0.0000,1.548277,0.017437,-0.617206,0.0035,0.3642,0.0784,-180.0000,-0.0000,0.0000
267,2.6700,8.1229,-0.0962,3.0301,8.6702,0.0000,0.0000,0.0000,20.0000,163.5623,184.6278,379.6093,244.9254,247.7543,0.000727,358.5063,-40.7782,-28.1407,68.9189,358.5063,0.0278,-3.2160,-14.4787,-1.2677,0.0000,1.527053,0.016750,-0.585740,0.0032,0.3641,0.0768,-180.0000,-0.0000,0.0000
268,2.6800,8.0539,-0.1082,2.8892,8.5571,0.0000,0.0000,0.0000,20.0000,160.3851,183.3817,392.0882,252.6773,252.8268,0.000763,358.5063,-40.7782,-28.1407,68.9189,358.5063,0.0278,-3.2160,-14.4787,-1.2677,0.0000,1.505366,0.017542,-0.553084,0.0046,0.3617,0.0759,-180.0000,-0.0000,0.0000
269,2.6900,7.9659,-0.1125,2.7536,8.4292,0.0000,0.0000,0.0000,20.0000,157.0409,182.0247,404.6033,260.6903,257.8415,0.000755,358.5063,-40.7782,-28.1407,68.9189,358.5063,0.0278,-3.2160,-14.4787,-1.2677,0.0000,1.481575,0.018375,-0.520369,0.0054,0.3563,0.0742,-180.0000,-0.0000,0.0000
270,2.7000,7.8623,-0.0999,2.6265,8.2900,0.0000,0.0000,0.0000,20.0000,153.5018,180.5530,414.1623,268.8695,262.7882,0.000816,358.5063,-40.7782,-28.1407,68.9189,358.5063,0.0278,-3.2160,-14.4787,-1.2677,0.0000,1.455097,0.017538,-0.488533,0.0049,0.3502,0.0727,-180.0000,-0.0000,0.0000
271,2.7100,7.7472,-0.0813,2.5107,8.1443,0.0000,0.0000,0.0000,20.0000,155.6432,179.1239,264.6710,272.7502,267.8498,0.000756,358.7202,-33.6503,-30.7531,64.4034,358.7202,-1.2374,-4.5824,-16.3496,-1.3959,2.1019,1.480295,0.016043,-0.480573,0.0057,0.3451,0.0732,-180.0000,-0.0000,-0.0000
272,2.7200,7.6225,-0.0643,2.4113,7.9950,0.0000,0.0000,0.0000,20.0000,155.0312,177.8154,155.8674,269.3132,272.9371,0.000762,358.7202,-33.6503,-30.7531,64.4034,358.7202,-1.2374,-4.5824,-16.3496,-1.3959,2.1019,1.478786,0.013485,-0.465272,0.0058,0.3389,0.0745,-180.0000,-0.0000,-0.0000
273,2.7300,7.4968,-0.0402,2.3251,7.8492,0.0000,0.0000,0.0000,20.0000,152.9328,176.5044,246.2818,265.5596,278.0002,0.000696,358.7202,-33.6503,-30.7531,64.4034,358.7202,-1.2374,-4.5824,-16.3496,-1.3959,2.1019,1.462432,0.009635,-0.447265,0.0050,0.3332,0.0736,-180.0000,-0.0000,-0.0000
274,2.7400,7.3795,-0.0115,2.2508,7.7151,0.0000,0.0000,0.0000,20.0000,150.1330,175.1308,303.4914,266.0726,283.0137,0.000778,358.7202,-33.6503,-30.7531,64.4034,358.7202,-1.2374,-4.5824,-16.3496,-1.3959,2.1019,1.438728,0.004619,-0.428987,0.0055,0.3279,0.0740,-180.0000,-0.0000,-0.0000
275,2.7500,7.2725,0.0115,2.1879,7.5945,0.0000,0.0000,0.0000,20.0000,147.0859,173.6719,321.6837,268.6313,287.9670,0.000731,358.7202,-33.6503,-30.7531,64.4034,358.7202,-1.2374,-4.5824,-16.3496,-1.3959,2.1019,1.412054,-0.000464,-0.411741,0.0046,0.3243,0.0743,-180.0000,-0.0000,-0.0000
276,2.7600,7.1813,0.0305,2.1281,7.4900,0.0000,0.0000,0.0000,20.0000,144.0691,172.1265,316.4955,271.4069,292.8584,0.000808,358.7202,-33.6503,-30.7531,64.4034,358.7202,-1.2374,-4.5824,-16.3496,-1.3959,2.1019,1.385360,-0.005169,-0.395402,0.0025,0.3241,0.0742,-180.0000,-0.0000,-0.0000
277,2.7700,7.1235,0.0451,2.0655,7.4170,0.0000,0.0000,0.0000,20.0000,141.3916,170.5095,286.0525,273.0499,297.6966,0.003914,358.7202,-33.6503,-30.7531,64.4034,358.7202,-1.2374,-4.5824,-16.3496,-1.3959,2.1019,1.362054,-0.009224,-0.379319,0.0014,0.3236,0.0761,-180.0000,-0.0000,-0.0000
278,2.7800,7.1053,0.0538,1.9966,7.3807,0.0000,0.0000,0.0000,20.0000,139.2759,168.8496,242.2445,272.5602,302.4977,0.000761,358.7202,-33.6503,-30.7531,64.4034,358.7202,-1.2374,-4.5824,-16.3496,-1.3959,2.1019,1.344624,-0.012321,-0.362782,0.0011,0.3260,0.0808,-180.0000,-0.0000,-0.0000
279,2.7900,7.1170,0.0648,1.9144,7.3703,0.0000,0.0000,0.0000,20.0000,137.7389,167.1805,214.3119,270.1243,307.2787,0.000717,358.7202,-33.6503,-30.7531,64.4034,358.7202,-1.2374,-4.5824,-16.3496,-1.3959,2.1019,1.333477,-0.015101,-0.344691,0.0008,0.3307,0.0861,-180.0000,-0.0000,-0.0000
280,2.8000,7.1582,0.0885,1.8098,7.3839,0.0000,0.0000,0.0000,20.0000,136.7715,165.5344,220.1395,267.2145,312.0558,0.000762,358.7202,-33.6503,-30.7531,64.4034,358.7202,-1.2374,-4.5824,-16.3496,-1.3959,2.1019,1.328761,-0.018978,-0.323540,0.0043,0.3358,0.0940,-180.0000,-0.0000,-0.0000
281,2.8100,7.2191,0.1190,1.6889,7.4150,0.0000,0.0000,0.0000,20.0000,136.3036,163.9393,249.8186,265.4413,316.8427,0.000726,358.7202,-33.6503,-30.7531,64.4034,358.7202,-1.2374,-4.5824,-16.3496,-1.3959,2.1019,1.329592,-0.024135,-0.299111,0.0071,0.3388,0.1010,-180.0000,-0.0000,-0.0000
282,2.8200,7.2766,0.1435,1.5637,7.4441,0.0000,0.0000,0.0000,20.0000,136.1026,162.4136,273.6700,265.2379,321.6453,0.000743,358.7202,-33.6503,-30.7531,64.4034,358.7202,-1.2374,-4.5824,-16.3496,-1.3959,2.1019,1.333145,-0.029389,-0.272489,0.0101,0.3441,0.1075,-180.0000,-0.0000,-0.0000
283,2.8300,7.3231,0.1665,1.4397,7.4652,0.0000,0.0000,0.0000,20.0000,135.9760,160.9628,284.0453,265.9871,326.4635,0.000731,358.7202,-33.6503,-30.7531,64.4034,358.7202,-1.2374,-4.5824,-16.3496,-1.3959,2.1019,1.337091,-0.034533,-0.244834,0.0127,0.3461,0.1118,-180.0000,-0.0000,-0.0000
284,2.8400,7.3640,0.1923,1.3202,7.4839,0.0000,0.0000,0.0000,20.0000,135.8735,159.5855,284.7404,266.9996,331.2961,0.000731,358.7202,-33.6503,-30.7531,64.4034,358.7202,-1.2374,-4.5824,-16.3496,-1.3959,2.1019,1.340685,-0.039887,-0.217100,0.0123,0.3473,0.1144,-180.0000,-0.0000,-0.0000
285,2.8500,7.3874,0.2209,1.2150,7.4899,0.0000,0.0000,0.0000,20.0000,135.6596,158.2753,269.5053,267.5564,336.1380,0.000783,358.7202,-33.6503,-30.7531,64.4034,358.7202,-1.2374,-4.5824,-16.3496,-1.3959,2.1019,1.342333,-0.045633,-0.190820,0.0104,0.3473,0.1143,-180.0000,-0.0000,-0.0000
286,2.8600,7.4059,0.2580,1.1340,7.4967,0.0000,0.0000,0.0000,20.0000,135.3874,157.0237,239.9202,266.8499,340.9879,0.000743,358.7202,-33.6503,-30.7531,64.4034,358.7202,-1.2374,-4.5824,-16.3496,-1.3959,2.1019,1.342410,-0.052426,-0.167810,0.0081,0.3466,0.1161,-180.0000,-0.0000,-0.0000
287,2.8700,7.4400,0.3057,1.0773,7.5238,0.0000,0.0000,0.0000,20.0000,135.2789,155.8306,205.4297,264.4200,345.8535,0.000763,358.7202,-33.6503,-30.7531,64.4034,358.7202,-1.2374,-4.5824,-16.3496,-1.3959,2.1019,1.343171,-0.060845,-0.149087,0.0066,0.3457,0.1162,-180.0000,-0.0000,-0.0000
288,2.8800,7.4865,0.3520,1.0420,7.5668,0.0000,0.0000,0.0000,20.0000,135.4114,154.7037,170.5752,260.2164,350.7463,0.000750,358.7202,-33.6503,-30.7531,64.4034,358.7202,-1.2374,-4.5824,-16.3496,-1.3959,2.1019,1.345558,-0.070011,-0.134901,0.0033,0.3460,0.1168,-180.0000,-0.0000,-0.0000
289,2.8900,7.5350,0.3825,1.0260,7.6141,0.0000,0.0000,0.0000,20.0000,135.7073,153.6506,130.3409,254.1788,355.6760,0.000749,358.7202,-33.6503,-30.7531,64.4034,358.7202,-1.2374,-4.5824,-16.3496,-1.3959,2.1019,1.349034,-0.077986,-0.125195,0.0021,0.3454,0.1168,-180.0000,-0.0000,-0.0000
290,2.9000,7.5773,0.3986,1.0175,7.6557,0.0000,0.0000,0.0000,20.0000,136.0275,152.6724,93.8372,246.3627,360.6468,0.000788,358.7202,-33.6503,-30.7531,64.4034,358.7202,-1.2374,-4.5824,-16.3496,-1.3959,2.1019,1.352487,-0.083844,-0.118729,0.0016,0.3436,0.1174,-180.0000,-0.0000,-0.0000
291,2.9100,7.5931,0.4096,1.0020,7.6699,0.0000,0.0000,0.0000,20.0000,142.3218,151.9299,640.6427,253.0119,365.8991,0.000736,358.9019,-25.9350,-34.3685,60.3035,358.9019,-0.5022,-6.0249,-13.6016,-1.2508,3.5234,1.413981,-0.087244,-0.136370,0.0022,0.3420,0.1192,-180.0000,0.0000,-0.0000
292,2.9200,7.5742,0.4230,0.9743,7.6483,0.0000,0.0000,0.0000,20.0000,145.3143,151.4837,301.9237,265.0186,371.3069,0.000714,358.9019,-25.9350,-34.3685,60.3035,358.9019,-0.5022,-6.0249,-13.6016,-1.2508,3.5234,1.443260,-0.090288,-0.143080,0.0020,0.3405,0.1229,-180.0000,0.0000,-0.0000
293,2.9300,7.5332,0.4325,0.9352,7.6033,0.0000,0.0000,0.0000,20.0000,146.2379,151.1697,95.2621,261.3647,376.7902,0.000741,358.9019,-25.9350,-34.3685,60.3035,358.9019,-0.5022,-6.0249,-13.6016,-1.2508,3.5234,1.452453,-0.092740,-0.142594,0.0027,0.3384,0.1268,-180.0000,0.0000,-0.0000
294,2.9400,7.4791,0.4423,0.8848,7.5443,0.0000,0.0000,0.0000,20.0000,145.8776,150.8885,68.0637,251.4796,382.2971,0.000715,358.9019,-25.9350,-34.3685,60.3035,358.9019,-0.5022,-6.0249,-13.6016,-1.2508,3.5234,1.449226,-0.094889,-0.136999,0.0034,0.3368,0.1306,-180.0000,0.0000,-0.0000
295,2.9500,7.4242,0.4585,0.8334,7.4849,0.0000,0.0000,0.0000,20.0000,144.8065,150.5834,135.1456,243.2353,387.7979,0.000773,358.9019,-25.9350,-34.3685,60.3035,358.9019,-0.5022,-6.0249,-13.6016,-1.2508,3.5234,1.439052,-0.097514,-0.128499,0.0030,0.3341,0.1334,-180.0000,0.0000,-0.0000
296,2.9600,7.3800,0.4728,0.7880,7.4370,0.0000,0.0000,0.0000,20.0000,143.4586,150.2286,162.6485,238.0459,393.2800,0.000756,358.9019,-25.9350,-34.3685,60.3035,358.9019,-0.5022,-6.0249,-13.6016,-1.2508,3.5234,1.426127,-0.100194,-0.118996,0.0011,0.3324,0.1322,-180.0000,0.0000,-0.0000
297,2.9700,7.3466,0.4789,0.7414,7.3994,0.0000,0.0000,0.0000,20.0000,142.0647,149.8178,168.6976,234.0648,398.7398,0.000721,358.9019,-25.9350,-34.3685,60.3035,358.9019,-0.5022,-6.0249,-13.6016,-1.2508,3.5234,1.412787,-0.102088,-0.108845,0.0009,0.3316,0.1294,-180.0000,0.0000,-0.0000
298,2.9800,7.3186,0.4796,0.6932,7.3669,0.0000,0.0000,0.0000,20.0000,140.7003,149.3538,168.2816,230.4577,404.1766,0.000761,358.9019,-25.9350,-34.3685,60.3035,358.9019,-0.5022,-6.0249,-13.6016,-1.2508,3.5234,1.399788,-0.103004,-0.098198,0.0009,0.3312,0.1254,-180.0000,0.0000,-0.0000
299,2.9900,7.2858,0.4821,0.6452,7.3302,0.0000,0.0000,0.0000,20.0000,139.3124,148.8396,171.6304,227.1296,409.5880,0.000816,358.9019,-25.9350,-34.3685,60.3035,358.9019,-0.5022,-6.0249,-13.6016,-1.2508,3.5234,1.386523,-0.103548,-0.087320,0.0007,0.3320,0.1216,-180.0000,0.0000,-0.0000
300,3.0000,7.2348,0.4807,0.5958,7.2752,0.0000,0.0000,0.0000,20.0000,137.7333,148.2721,188.3696,224.5371,414.9650,0.000774,358.9019,-25.9350,-34.3685,60.3035,358.9019,-0.5022,-6.0249,-13.6016,-1.2508,3.5234,1.371323,-0.103504,-0.076194,0.0009,0.3337,0.1191,-180.0000,0.0000,-0.0000
301,3.0100,7.1739,0.4700,0.5414,7.2096,0.0000,0.0000,0.0000,20.0000,135.9464,147.6433,209.0103,223.1153,420.2975,0.000731,358.9019,-25.9350,-34.3685,60.3035,358.9019,-0.5022,-6.0249,-13.6016,-1.2508,3.5234,1.354084,-0.102207,-0.064448,0.0034,0.3350,0.1171,-180.0000,0.0000,-0.0000
302,3.0200,7.1059,0.4490,0.4841,7.1365,0.0000,0.0000,0.0000,20.0000,133.9736,146.9456,228.9866,222.8888,425.5761,0.000776,358.9019,-25.9350,-34.3685,60.3035,358.9019,-0.5022,-6.0249,-13.6016,-1.2508,3.5234,1.335043,-0.099185,-0.052092,0.0041,0.3354,0.1146,-180.0000,0.0000,-0.0000
303,3.0300,7.0363,0.4332,0.4258,7.0625,0.0000,0.0000,0.0000,20.0000,131.8961,146.1749,240.9709,223.5539,430.7942,0.000775,358.9019,-25.9350,-34.3685,60.3035,358.9019,-0.5022,-6.0249,-13.6016,-1.2508,3.5234,1.314894,-0.095732,-0.039333,0.0054,0.3358,0.1126,-180.0000,0.0000,-0.0000
304,3.0400,6.9770,0.4211,0.3697,6.9995,0.0000,0.0000,0.0000,20.0000,129.8761,145.3339,236.9473,224.4013,435.9521,0.000702,358.9019,-25.9350,-34.3685,60.3035,358.9019,-0.5022,-6.0249,-13.6016,-1.2508,3.5234,1.295195,-0.092423,-0.026589,0.0072,0.3349,0.1103,-180.0000,0.0000,-0.0000
305,3.0500,6.9377,0.4129,0.3166,6.9571,0.0000,0.0000,0.0000,20.0000,128.0995,144.4347,215.6991,224.5070,441.0577,0.000798,358.9019,-25.9350,-34.3685,60.3035,358.9019,-0.5022,-6.0249,-13.6016,-1.2508,3.5234,1.277780,-0.089586,-0.014182,0.0070,0.3358,0.1083,-180.0000,0.0000,-0.0000
306,3.0600,6.9199,0.4175,0.2639,6.9375,0.0000,0.0000,0.0000,20.0000,126.6902,143.4974,185.5481,223.1932,446.1240,0.000774,358.9019,-25.9350,-34.3685,60.3035,358.9019,-0.5022,-6.0249,-13.6016,-1.2508,3.5234,1.263819,-0.088298,-0.002028,0.0072,0.3364,0.1089,-180.0000,0.0000,-0.0000
307,3.0700,6.9213,0.4269,0.2139,6.9378,0.0000,0.0000,0.0000,20.0000,125.6865,142.5452,154.7362,220.2750,451.1663,0.000713,358.9019,-25.9350,-34.3685,60.3035,358.9019,-0.5022,-6.0249,-13.6016,-1.2508,3.5234,1.253718,-0.088350,0.009694,0.0075,0.3378,0.1097,-180.0000,0.0000,-0.0000
308,3.0800,6.9304,0.4319,0.1618,6.9457,0.0000,0.0000,0.0000,20.0000,124.9871,141.5986,137.0943,216.1846,456.1956,0.000828,358.9019,-25.9350,-34.3685,60.3035,358.9019,-0.5022,-6.0249,-13.6016,-1.2508,3.5234,1.246536,-0.088708,0.021366,0.0092,0.3381,0.1107,-180.0000,0.0000,-0.0000
309,3.0900,6.9308,0.4361,0.1067,6.9453,0.0000,0.0000,0.0000,20.0000,124.3756,140.6681,135.5409,211.7913,461.2143,0.000804,358.9019,-25.9350,-34.3685,60.3035,358.9019,-0.5022,-6.0249,-13.6016,-1.2508,3.5234,1.240110,-0.089144,0.033292,0.0097,0.3378,0.1114,-180.0000,0.0000,-0.0000
310,3.1000,6.9051,0.4361,0.0574,6.9191,0.0000,0.0000,0.0000,20.0000,129.1594,139.9034,481.1454,217.1024,466.4659,0.000715,358.9155,-19.2507,-38.5821,57.8328,358.9155,-0.0034,-8.1771,-14.7281,-1.2019,7.1038,1.288098,-0.090116,0.029942,0.0088,0.3339,0.1092,-180.0000,-0.0000,0.0000
311,3.1100,6.8369,0.4264,0.0228,6.8502,0.0000,0.0000,0.0000,20.0000,130.8676,139.3594,172.1374,223.1279,471.8198,0.000857,358.9155,-19.2507,-38.5821,57.8328,358.9155,-0.0034,-8.1771,-14.7281,-1.2019,7.1038,1.305232,-0.089507,0.031488,0.0083,0.3274,0.1044,-180.0000,-0.0000,0.0000
312,3.1200,6.7221,0.4168,0.0070,6.7350,0.0000,0.0000,0.0000,20.0000,130.4030,138.8795,53.9780,217.0732,477.1854,0.000776,358.9155,-19.2507,-38.5821,57.8328,358.9155,-0.0034,-8.1771,-14.7281,-1.2019,7.1038,1.300614,-0.088032,0.033863,0.0081,0.3187,0.0983,-180.0000,-0.0000,0.0000
313,3.1300,6.5705,0.4047,0.0103,6.5830,0.0000,0.0000,0.0000,20.0000,128.3647,138.3572,204.5215,212.2422,482.4985,0.000745,358.9155,-19.2507,-38.5821,57.8328,358.9155,-0.0034,-8.1771,-14.7281,-1.2019,7.1038,1.280302,-0.085827,0.034778,0.0058,0.3112,0.0936,-180.0000,-0.0000,0.0000
314,3.1400,6.4149,0.3930,0.0282,6.4270,0.0000,0.0000,0.0000,20.0000,125.4163,137.7264,294.9503,214.3046,487.7223,0.000840,358.9155,-19.2507,-38.5821,57.8328,358.9155,-0.0034,-8.1771,-14.7281,-1.2019,7.1038,1.250950,-0.083265,0.033421,0.0035,0.3066,0.0894,-180.0000,-0.0000,0.0000
315,3.1500,6.2933,0.3874,0.0484,6.3054,0.0000,0.0000,0.0000,20.0000,122.3135,136.9639,310.9464,219.1808,492.8500,0.000810,358.9155,-19.2507,-38.5821,57.8328,358.9155,-0.0034,-8.1771,-14.7281,-1.2019,7.1038,1.220059,-0.081120,0.030585,0.0038,0.3073,0.0898,-180.0000,-0.0000,0.0000
316,3.1600,6.2082,0.3826,0.0590,6.2202,0.0000,0.0000,0.0000,20.0000,119.4992,136.0806,282.1534,223.4367,497.8913,0.000736,358.9155,-19.2507,-38.5821,57.8328,358.9155,-0.0034,-8.1771,-14.7281,-1.2019,7.1038,1.192031,-0.079298,0.027893,0.0035,0.3120,0.0899,-180.0000,-0.0000,0.0000
317,3.1700,6.1480,0.3784,0.0547,6.1599,0.0000,0.0000,0.0000,20.0000,117.1026,135.1026,239.7272,225.4997,502.8601,0.000815,358.9155,-19.2507,-38.5821,57.8328,358.9155,-0.0034,-8.1771,-14.7281,-1.2019,7.1038,1.168137,-0.077709,0.026783,0.0029,0.3168,0.0921,-180.0000,-0.0000,0.0000
318,3.1800,6.1030,0.3803,0.0380,6.1149,0.0000,0.0000,0.0000,20.0000,115.0996,134.0573,200.8980,225.2144,507.7684,0.003998,358.9155,-19.2507,-38.5821,57.8328,358.9155,-0.0034,-8.1771,-14.7281,-1.2019,7.1038,1.148090,-0.076863,0.027784,0.0015,0.3189,0.0916,-180.0000,-0.0000,0.0000
319,3.1900,6.0489,0.3828,0.0132,6.0611,0.0000,0.0000,0.0000,20.0000,113.2316,132.9631,190.1886,223.5822,512.6178,0.000761,358.9155,-19.2507,-38.5821,57.8328,358.9155,-0.0034,-8.1771,-14.7281,-1.2019,7.1038,1.129310,-0.076493,0.030766,0.0000,0.3167,0.0909,-180.0000,-0.0000,0.0000
320,3.2000,5.9612,0.3870,-0.0172,5.9738,0.0000,0.0000,0.0000,20.0000,111.1105,131.8194,219.0549,222.5392,517.3936,0.000779,358.9155,-19.2507,-38.5821,57.8328,358.9155,-0.0034,-8.1771,-14.7281,-1.2019,7.1038,1.107899,-0.076558,0.035393,-0.0000,0.3108,0.0863,-180.0000,-0.0000,0.0000
321,3.2100,5.8489,0.4070,-0.0483,5.8633,0.0000,0.0000,0.0000,20.0000,108.6229,130.6118,259.6227,223.4633,522.0762,0.000788,358.9155,-19.2507,-38.5821,57.8328,358.9155,-0.0034,-8.1771,-14.7281,-1.2019,7.1038,1.082617,-0.078445,0.040988,-0.0014,0.3037,0.0837,-180.0000,-0.0000,0.0000
322,3.2200,5.7402,0.4397,-0.0740,5.7575,0.0000,0.0000,0.0000,20.0000,105.9857,129.3297,278.9175,225.9831,526.6568,0.000703,358.9155,-19.2507,-38.5821,57.8328,358.9155,-0.0034,-8.1771,-14.7281,-1.2019,7.1038,1.055607,-0.082595,0.046572,-0.0039,0.2984,0.0823,-180.0000,-0.0000,0.0000
323,3.2300,5.6550,0.4682,-0.0936,5.6751,0.0000,0.0000,0.0000,20.0000,103.5044,127.9774,265.0983,228.5148,531.1408,0.000773,358.9155,-19.2507,-38.5821,57.8328,358.9155,-0.0034,-8.1771,-14.7281,-1.2019,7.1038,1.030044,-0.087575,0.051522,-0.0048,0.2971,0.0849,-180.0000,-0.0000,0.0000
324,3.2400,5.6170,0.4945,-0.1114,5.6398,0.0000,0.0000,0.0000,20.0000,101.5847,126.5784,211.2296,229.0456,535.5523,0.000728,358.9155,-19.2507,-38.5821,57.8328,358.9155,-0.0034,-8.1771,-14.7281,-1.2019,7.1038,1.010053,-0.092780,0.055932,-0.0023,0.2996,0.0889,-180.0000,-0.0000,0.0000
325,3.2500,5.6346,0.5208,-0.1315,5.6601,0.0000,0.0000,0.0000,20.0000,100.5354,125.1747,132.3761,225.8968,539.9289,0.000755,358.9155,-19.2507,-38.5821,57.8328,358.9155,-0.0034,-8.1771,-14.7281,-1.2019,7.1038,0.998739,-0.098109,0.060270,-0.0005,0.3056,0.0945,-180.0000,-0.0000,0.0000
326,3.2600,5.6920,0.5383,-0.1591,5.7196,0.0000,0.0000,0.0000,20.0000,100.3623,123.8145,72.0087,219.0921,544.3084,0.000777,358.9155,-19.2507,-38.5821,57.8328,358.9155,-0.0034,-8.1771,-14.7281,-1.2019,7.1038,0.996227,-0.102600,0.065307,0.0009,0.3106,0.0981,-180.0000,-0.0000,0.0000
327,3.2700,5.7612,0.5441,-0.1946,5.7901,0.0000,0.0000,0.0000,20.0000,100.7855,122.5361,76.9661,211.1376,548.7163,0.000757,358.9155,-19.2507,-38.5821,57.8328,358.9155,-0.0034,-8.1771,-14.7281,-1.2019,7.1038,0.999767,-0.105458,0.071515,0.0023,0.3127,0.0989,-180.0000,-0.0000,0.0000
328,3.2800,5.8110,0.5485,-0.2332,5.8415,0.0000,0.0000,0.0000,20.0000,101.3473,121.3551,88.7558,204.0814,553.1578,0.000722,358.9155,-19.2507,-38.5821,57.8328,358.9155,-0.0034,-8.1771,-14.7281,-1.2019,7.1038,1.004706,-0.107267,0.078665,0.0020,0.3118,0.0954,-180.0000,-0.0000,0.0000
329,3.2900,5.8285,0.5524,-0.2716,5.8609,0.0000,0.0000,0.0000,20.0000,101.6664,120.2633,81.0743,197.5263,557.6212,0.000768,358.9155,-19.2507,-38.5821,57.8328,358.9155,-0.0034,-8.1771,-14.7281,-1.2019,7.1038,1.007173,-0.108450,0.086296,-0.0003,0.3089,0.0928,-180.0000,-0.0000,0.0000
330,3.3000,5.8280,0.5465,-0.3040,5.8614,0.0000,0.0000,0.0000,20.0000,106.7790,119.3809,514.4950,203.0413,562.3406,0.001038,358.8341,-13.5774,-43.0932,56.6707,358.8341,-0.0353,-10.2333,-13.2658,-1.0654,4.1877,1.058585,-0.110386,0.085951,-0.0046,0.3046,0.0897,-180.0000,-0.0000,0.0000
331,3.3100,5.8240,0.5395,-0.3306,5.8582,0.0000,0.0000,0.0000,20.0000,109.3671,118.7589,260.0296,213.1749,567.1985,0.000746,358.8341,-13.5774,-43.0932,56.6707,358.8341,-0.0353,-10.2333,-13.2658,-1.0654,4.1877,1.084487,-0.110539,0.088244,-0.0045,0.3052,0.0890,-180.0000,-0.0000,0.0000
332,3.3200,5.8355,0.5420,-0.3600,5.8717,0.0000,0.0000,0.0000,20.0000,110.7205,118.2795,139.0367,212.4245,572.1365,0.000768,358.8341,-13.5774,-43.0932,56.6707,358.8341,-0.0353,-10.2333,-13.2658,-1.0654,4.1877,1.097790,-0.110654,0.092281,-0.0043,0.3068,0.0914,-180.0000,-0.0000,0.0000
333,3.3300,5.8629,0.5471,-0.4013,5.9021,0.0000,0.0000,0.0000,20.0000,111.5601,117.8868,100.3055,207.3223,577.1276,0.000791,358.8341,-13.5774,-43.0932,56.6707,358.8341,-0.0353,-10.2333,-13.2658,-1.0654,4.1877,1.105690,-0.111001,0.098453,-0.0016,0.3108,0.0946,-180.0000,-0.0000,0.0000
334,3.3400,5.8773,0.5486,-0.4511,5.9200,0.0000,0.0000,0.0000,20.0000,111.9923,117.5507,89.4692,201.1375,582.1499,0.000698,358.8341,-13.5774,-43.0932,56.6707,358.8341,-0.0353,-10.2333,-13.2658,-1.0654,4.1877,1.109281,-0.111120,0.106646,-0.0007,0.3122,0.0935,-180.0000,-0.0000,0.0000
335,3.3500,5.8588,0.5494,-0.4958,5.9053,0.0000,0.0000,0.0000,20.0000,111.8723,117.2416,90.3785,195.0199,587.1762,0.000814,358.8341,-13.5774,-43.0932,56.6707,358.8341,-0.0353,-10.2333,-13.2658,-1.0654,4.1877,1.107197,-0.111043,0.115440,-0.0001,0.3091,0.0924,-180.0000,-0.0000,0.0000
336,3.3600,5.8050,0.5457,-0.5288,5.8545,0.0000,0.0000,0.0000,20.0000,111.0858,116.9246,118.1682,190.0281,592.1763,0.000797,358.8341,-13.5774,-43.0932,56.6707,358.8341,-0.0353,-10.2333,-13.2658,-1.0654,4.1877,1.098452,-0.110409,0.123362,-0.0011,0.3028,0.0898,-180.0000,-0.0000,0.0000
337,3.3700,5.7225,0.5441,-0.5482,5.7744,0.0000,0.0000,0.0000,20.0000,109.6376,116.5636,164.6385,187.3533,597.1211,0.000713,358.8341,-13.5774,-43.0932,56.6707,358.8341,-0.0353,-10.2333,-13.2658,-1.0654,4.1877,1.083170,-0.109678,0.129443,-0.0032,0.2958,0.0874,-180.0000,-0.0000,0.0000
338,3.3800,5.6308,0.5541,-0.5522,5.6849,0.0000,0.0000,0.0000,20.0000,107.7302,116.1302,200.9183,187.1017,601.9918,0.000782,358.8341,-13.5774,-43.0932,56.6707,358.8341,-0.0353,-10.2333,-13.2658,-1.0654,4.1877,1.063388,-0.110061,0.132939,-0.0071,0.2915,0.0860,-180.0000,-0.0000,0.0000
339,3.3900,5.5558,0.5693,-0.5498,5.6119,0.0000,0.0000,0.0000,20.0000,105.7350,115.6132,206.6589,188.0196,606.7863,0.000803,358.8341,-13.5774,-43.0932,56.6707,358.8341,-0.0353,-10.2333,-13.2658,-1.0654,4.1877,1.042827,-0.111572,0.134365,-0.0090,0.2909,0.0887,-180.0000,-0.0000,0.0000
340,3.4000,5.5077,0.5867,-0.5533,5.5664,0.0000,0.0000,0.0000,20.0000,103.9711,115.0213,184.3521,188.4314,611.5151,0.000748,358.8341,-13.5774,-43.0932,56.6707,358.8341,-0.0353,-10.2333,-13.2658,-1.0654,4.1877,1.024563,-0.113925,0.135241,-0.0093,0.2949,0.0916,-180.0000,-0.0000,0.0000
341,3.4100,5.4886,0.6090,-0.5627,5.5509,0.0000,0.0000,0.0000,20.0000,102.6388,114.3768,144.8468,187.1204,616.1971,0.000772,358.8341,-13.5774,-43.0932,56.6707,358.8341,-0.0353,-10.2333,-13.2658,-1.0654,4.1877,1.010508,-0.117228,0.136396,-0.0066,0.2981,0.0948,-180.0000,-0.0000,0.0000
342,3.4200,5.4901,0.6294,-0.5755,5.5560,0.0000,0.0000,0.0000,20.0000,101.7548,113.7068,104.2588,183.6787,620.8521,0.000761,358.8341,-13.5774,-43.0932,56.6707,358.8341,-0.0353,-10.2333,-13.2658,-1.0654,4.1877,1.000872,-0.120856,0.138033,-0.0030,0.3001,0.0962,-180.0000,-0.0000,0.0000
343,3.4300,5.4921,0.6325,-0.5934,5.5602,0.0000,0.0000,0.0000,20.0000,101.1119,113.0317,78.0994,178.5905,625.4907,0.000740,358.8341,-13.5774,-43.0932,56.6707,358.8341,-0.0353,-10.2333,-13.2658,-1.0654,4.1877,0.993742,-0.122926,0.140458,-0.0001,0.2979,0.0946,-180.0000,-0.0000,0.0000
344,3.4400,5.4721,0.6226,-0.6145,5.5416,0.0000,0.0000,0.0000,20.0000,100.3764,112.3558,85.3828,173.2630,630.1071,0.000739,358.8341,-13.5774,-43.0932,56.6707,358.8341,-0.0353,-10.2333,-13.2658,-1.0654,4.1877,0.985812,-0.122836,0.143622,0.0015,0.2940,0.0914,-180.0000,-0.0000,0.0000
345,3.4500,5.4314,0.6103,-0.6336,5.5022,0.0000,0.0000,0.0000,20.0000,99.3836,111.6695,110.6288,169.1233,634.6884,0.000758,358.8341,-13.5774,-43.0932,56.6707,358.8341,-0.0353,-10.2333,-13.2658,-1.0654,4.1877,0.975389,-0.121313,0.147003,0.0008,0.2896,0.0880,-180.0000,-0.0000,0.0000
346,3.4600,5.3840,0.5904,-0.6499,5.4552,0.0000,0.0000,0.0000,20.0000,98.1728,110.9604,132.1748,166.4982,639.2240,0.000695,358.8341,-13.5774,-43.0932,56.6707,358.8341,-0.0353,-10.2333,-13.2658,-1.0654,4.1877,0.962938,-0.118241,0.150201,-0.0012,0.2890,0.0865,-180.0000,-0.0000,0.0000
347,3.4700,5.3447,0.5666,-0.6662,5.4158,0.0000,0.0000,0.0000,20.0000,96.9204,110.2225,138.0446,164.7716,643.7117,0.000749,358.8341,-13.5774,-43.0932,56.6707,358.8341,-0.0353,-10.2333,-13.2658,-1.0654,4.1877,0.950197,-0.113926,0.153303,-0.0034,0.2907,0.0879,-180.0000,-0.0000,0.0000
348,3.4800,5.3301,0.5611,-0.6842,5.4031,0.0000,0.0000,0.0000,20.0000,95.9156,109.4632,113.3754,162.6229,648.1623,0.000730,358.8341,-13.5774,-43.0932,56.6707,358.8341,-0.0353,-10.2333,-13.2658,-1.0654,4.1877,0.939796,-0.110757,0.156513,-0.0040,0.2945,0.0904,-180.0000,-0.0000,0.0000
349,3.4900,5.3431,0.5704,-0.7006,5.4189,0.0000,0.0000,0.0000,20.0000,95.3340,108.7019,71.3011,158.7567,652.5960,0.000837,358.8341,-13.5774,-43.0932,56.6707,358.8341,-0.0353,-10.2333,-13.2658,-1.0654,4.1877,0.933457,-0.109721,0.159609,-0.0033,0.2992,0.0945,-180.0000,-0.0000,0.0000
350,3.5000,5.3687,0.5820,-0.7173,5.4476,0.0000,0.0000,0.0000,20.0000,99.6016,108.0840,432.0074,163.8668,657.2618,0.000910,358.6971,-8.9208,-47.4935,56.4143,358.6971,1.6550,-11.3506,-13.8747,-1.2967,3.6119,0.976530,-0.112989,0.160222,-0.0006,0.3009,0.0972,-180.0000,-0.0000,0.0000
351,3.5100,5.3844,0.5959,-0.7414,5.4678,0.0000,0.0000,0.0000,20.0000,101.9716,107.6826,237.4117,173.2645,662.0618,0.000735,358.6971,-8.9208,-47.4935,56.4143,358.6971,1.6550,-11.3506,-13.8747,-1.2967,3.6119,0.999958,-0.115965,0.162652,0.0007,0.2993,0.0989,-180.0000,-0.0000,0.0000
352,3.5200,5.3747,0.6058,-0.7656,5.4626,0.0000,0.0000,0.0000,20.0000,103.0321,107.3976,108.1983,173.2392,666.9289,0.000712,358.6971,-8.9208,-47.4935,56.4143,358.6971,1.6550,-11.3506,-13.8747,-1.2967,3.6119,1.009933,-0.118363,0.166090,0.0004,0.2951,0.0963,-180.0000,-0.0000,0.0000
353,3.5300,5.3362,0.6053,-0.7753,5.4261,0.0000,0.0000,0.0000,20.0000,103.0511,107.1580,27.6773,167.4468,671.8125,0.000851,358.6971,-8.9208,-47.4935,56.4143,358.6971,1.6550,-11.3506,-13.8747,-1.2967,3.6119,1.009584,-0.119407,0.168629,-0.0019,0.2905,0.0948,-180.0000,-0.0000,0.0000
354,3.5400,5.2854,0.6017,-0.7704,5.3750,0.0000,0.0000,0.0000,20.0000,102.3455,106.9126,73.2147,161.0108,676.6797,0.000750,358.6971,-8.9208,-47.4935,56.4143,358.6971,1.6550,-11.3506,-13.8747,-1.2967,3.6119,1.002285,-0.119382,0.169211,-0.0057,0.2849,0.0933,-180.0000,-0.0000,0.0000
355,3.5500,5.2404,0.5961,-0.7621,5.3290,0.0000,0.0000,0.0000,20.0000,101.2901,106.6324,106.0284,157.0838,681.5154,0.000704,358.6971,-8.9208,-47.4935,56.4143,358.6971,1.6550,-11.3506,-13.8747,-1.2967,3.6119,0.991748,-0.118570,0.168361,-0.0114,0.2847,0.0925,-180.0000,-0.0000,0.0000
356,3.5600,5.2119,0.5831,-0.7589,5.2991,0.0000,0.0000,0.0000,20.0000,100.2050,106.3087,108.9523,154.3558,686.3183,0.000798,358.6971,-8.9208,-47.4935,56.4143,358.6971,1.6550,-11.3506,-13.8747,-1.2967,3.6119,0.981094,-0.116589,0.167231,-0.0151,0.2864,0.0903,-180.0000,-0.0000,0.0000
