GerardoEmirSanchez/Integraci-n-de-xArm5-5-DOF-en-NVIDIA-Isaac-Sim-con-ROS-2-Humble-para-pHRI/mediciones/2026.04.28_VIC_pHRI_tanh_2026-04-28_13-39-52.csv
Index,Time_s,Fx,Fy,Fz,F_Amp,Psi_Imp,Psi_Int,Beta,K_Stiffness,Vel_Raw,Vel_Filt,Acc_Raw,Acc_Filt,Lyapunov_V_Nmm,Loop_Duration_s,q1,q2,q3,q4,q5,tau1,tau2,tau3,tau4,tau5,deltaXcmd,deltaYcmd,deltaZcmd,Tx_EE,Ty_EE,Tz_EE,Roll,Pitch,Yaw
0,0.0000,0.0040,0.0628,-0.0234,0.0671,0.0000,0.0000,0.0000,20.0000,1.2353,0.1558,21.9184,5.8087,0.0000,0.000404,0.0000,0.0000,-0.0000,0.0000,0.0000,0.0000,-6.3731,-3.6122,-0.9928,0.0000,0.001359,-0.011677,0.003795,-0.0011,-0.0003,-0.0037,-180.0000,0.0000,0.0000
1,0.0100,0.0042,0.0580,-0.0273,0.0643,0.0000,0.0000,0.0000,20.0000,1.3156,0.2174,11.5693,6.4103,0.0000,0.000358,0.0000,0.0000,-0.0000,0.0000,0.0000,0.0000,-6.3731,-3.6122,-0.9928,0.0000,0.001153,-0.012190,0.004812,-0.0008,-0.0013,-0.0046,-180.0000,0.0000,0.0000
2,0.0200,0.0018,0.0546,-0.0251,0.0601,0.0000,0.0000,0.0000,20.0000,1.3178,0.2778,4.8603,6.5095,0.0000,0.000604,0.0000,0.0000,-0.0000,0.0000,0.0000,0.0000,-6.3731,-3.6122,-0.9928,0.0000,0.000805,-0.012107,0.005141,-0.0009,-0.0006,-0.0054,-180.0000,0.0000,0.0000
3,0.0300,-0.0003,0.0565,-0.0219,0.0606,0.0000,0.0000,0.0000,20.0000,1.3217,0.3351,4.4634,6.4079,0.0001,0.000422,0.0000,0.0000,-0.0000,0.0000,0.0000,0.0000,-6.3731,-3.6122,-0.9928,0.0000,0.000400,-0.012230,0.004997,0.0004,0.0000,-0.0053,-180.0000,0.0000,0.0000
4,0.0400,0.0009,0.0628,-0.0173,0.0652,0.0000,0.0000,0.0000,20.0000,1.3649,0.3906,8.7996,6.4202,0.0001,0.000390,0.0000,0.0000,-0.0000,0.0000,0.0000,0.0000,-6.3731,-3.6122,-0.9928,0.0000,0.000296,-0.012903,0.004440,0.0016,-0.0000,-0.0047,-180.0000,0.0000,0.0000
5,0.0500,-0.0010,0.0694,-0.0059,0.0696,0.0000,0.0000,0.0000,20.0000,1.4222,0.4458,17.8160,6.7991,0.0001,0.000334,0.0000,0.0000,-0.0000,0.0000,0.0000,0.0000,-6.3731,-3.6122,-0.9928,0.0000,0.000043,-0.013904,0.002988,0.0016,0.0000,-0.0052,-180.0000,0.0000,0.0000
6,0.0600,-0.0072,0.0668,0.0048,0.0674,0.0000,0.0000,0.0000,20.0000,1.4233,0.4995,20.4473,7.4775,0.0001,0.000627,0.0000,0.0000,-0.0000,0.0000,0.0000,0.0000,-6.3731,-3.6122,-0.9928,0.0000,-0.000713,-0.014172,0.001107,0.0017,0.0011,-0.0046,-180.0000,0.0000,0.0000
7,0.0700,-0.0123,0.0495,0.0062,0.0514,0.0000,0.0000,0.0000,20.0000,1.2667,0.5460,22.0702,8.2355,0.0002,0.000554,0.0000,0.0000,-0.0000,0.0000,0.0000,0.0000,-6.3731,-3.6122,-0.9928,0.0000,-0.001643,-0.012560,-0.000079,0.0011,0.0013,-0.0040,-180.0000,0.0000,0.0000
8,0.0800,-0.0141,0.0287,0.0003,0.0320,0.0000,0.0000,0.0000,20.0000,0.9843,0.5779,30.7853,9.2362,0.0002,0.000486,0.0000,0.0000,-0.0000,0.0000,0.0000,0.0000,-6.3731,-3.6122,-0.9928,0.0000,-0.002335,-0.009561,-0.000135,0.0011,0.0015,-0.0036,-180.0000,0.0000,0.0000
9,0.0900,-0.0125,0.0092,-0.0069,0.0170,0.0000,0.0000,0.0000,20.0000,0.6485,0.5910,36.9513,10.5912,0.0002,0.000545,0.0000,0.0000,-0.0000,0.0000,0.0000,0.0000,-6.3731,-3.6122,-0.9928,0.0000,-0.002553,-0.005936,0.000550,-0.0005,0.0007,-0.0044,-180.0000,0.0000,0.0000
10,0.1000,-0.0139,-0.0120,-0.0111,0.0215,0.0000,0.0000,0.0000,20.0000,0.3597,0.5862,42.2055,12.1857,0.0002,0.000505,0.0000,0.0000,-0.0000,0.0000,0.0000,0.0000,-6.3731,-3.6122,-0.9928,0.0000,-0.002806,-0.001800,0.001351,-0.0009,0.0013,-0.0034,-180.0000,0.0000,0.0000
11,0.1100,-0.0199,-0.0265,-0.0080,0.0340,0.0000,0.0000,0.0000,20.0000,0.4293,0.5757,38.0701,13.7233,0.0002,0.000458,0.0000,0.0000,-0.0000,0.0000,0.0000,0.0000,-6.3731,-3.6122,-0.9928,0.0000,-0.003539,0.001934,0.001473,-0.0018,0.0022,-0.0033,-180.0000,0.0000,0.0000
12,0.1200,-0.0233,-0.0245,0.0002,0.0338,0.0000,0.0000,0.0000,20.0000,0.5768,0.5717,21.4166,14.6046,0.0002,0.000369,0.0000,0.0000,-0.0000,0.0000,0.0000,0.0000,-6.3731,-3.6122,-0.9928,0.0000,-0.004281,0.003797,0.000722,-0.0007,0.0025,-0.0016,-180.0000,0.0000,0.0000
13,0.1300,-0.0199,-0.0162,0.0091,0.0272,0.0000,0.0000,0.0000,20.0000,0.5924,0.5724,13.2468,14.7546,0.0002,0.000391,0.0000,0.0000,-0.0000,0.0000,0.0000,0.0000,-6.3731,-3.6122,-0.9928,0.0000,-0.004338,0.003991,-0.000587,-0.0012,0.0020,-0.0014,-180.0000,0.0000,0.0000
14,0.1400,-0.0150,-0.0015,0.0178,0.0233,0.0000,0.0000,0.0000,20.0000,0.5159,0.5714,21.4461,14.8971,0.0002,0.000310,0.0000,0.0000,-0.0000,0.0000,0.0000,0.0000,-6.3731,-3.6122,-0.9928,0.0000,-0.003874,0.002624,-0.002174,-0.0004,0.0026,-0.0013,-180.0000,0.0000,0.0000
15,0.1500,-0.0116,0.0303,0.0196,0.0379,0.0000,0.0000,0.0000,20.0000,0.4786,0.5673,42.3632,15.8327,0.0002,0.000325,-0.0166,-0.0080,0.0011,0.0068,-0.0166,-0.0001,-6.3731,-3.6122,-0.9928,0.0000,-0.003262,-0.001442,-0.003192,-0.0002,0.0029,-0.0033,-180.0000,-0.0000,0.0000
16,0.1600,0.0013,0.0690,0.0123,0.0701,0.0000,0.0000,0.0000,20.0000,0.8296,0.5721,63.2507,17.8666,0.0002,0.000339,-0.0166,-0.0080,0.0011,0.0068,-0.0166,-0.0001,-6.3731,-3.6122,-0.9928,0.0000,-0.001634,-0.007552,-0.003020,0.0007,0.0022,-0.0037,-180.0000,-0.0000,0.0000
17,0.1700,0.0195,0.0970,0.0036,0.0990,0.0000,0.0000,0.0000,20.0000,1.3916,0.6017,68.1159,20.4969,0.0002,0.000312,-0.0166,-0.0080,0.0011,0.0068,-0.0166,-0.0001,-6.3731,-3.6122,-0.9928,0.0000,0.001089,-0.013720,-0.002054,0.0010,0.0021,-0.0057,-180.0000,-0.0000,0.0000
18,0.1800,0.0307,0.1173,-0.0018,0.1213,0.0000,0.0000,0.0000,20.0000,1.9514,0.6606,61.1255,22.9240,0.0003,0.000325,-0.0166,-0.0080,0.0011,0.0068,-0.0166,-0.0001,-6.3731,-3.6122,-0.9928,0.0000,0.003719,-0.019132,-0.000973,0.0020,0.0025,-0.0069,-180.0000,-0.0000,0.0000
19,0.1900,0.0398,0.1326,-0.0100,0.1388,0.0000,0.0000,0.0000,20.0000,2.4384,0.7450,52.5438,24.7894,0.0004,0.000315,-0.0166,-0.0080,0.0011,0.0068,-0.0166,-0.0001,-6.3731,-3.6122,-0.9928,0.0000,0.006069,-0.023613,0.000441,0.0021,0.0030,-0.0070,-180.0000,-0.0000,0.0000
20,0.2000,0.0471,0.1328,-0.0191,0.1422,0.0000,0.0000,0.0000,20.0000,2.7370,0.8463,35.9748,25.8604,0.0005,0.000420,-0.0166,-0.0080,0.0011,0.0068,-0.0166,-0.0001,-6.3731,-3.6122,-0.9928,0.0000,0.008090,-0.026059,0.002136,0.0022,0.0029,-0.0063,-180.0000,-0.0000,0.0000
21,0.2100,0.0446,0.1290,-0.0273,0.1391,0.0000,0.0000,0.0000,20.0000,2.8686,0.9540,21.5387,26.0197,0.0006,0.000497,-0.0166,-0.0080,0.0011,0.0068,-0.0166,-0.0001,-6.3731,-3.6122,-0.9928,0.0000,0.008936,-0.026980,0.003890,0.0030,0.0030,-0.0059,-180.0000,-0.0000,0.0000
22,0.2200,0.0352,0.1362,-0.0365,0.1453,0.0000,0.0000,0.0000,20.0000,2.9959,1.0628,22.6960,25.8051,0.0008,0.000415,-0.0166,-0.0080,0.0011,0.0068,-0.0166,-0.0001,-6.3731,-3.6122,-0.9928,0.0000,0.008453,-0.028156,0.005771,0.0037,0.0030,-0.0043,-180.0000,-0.0000,0.0000
23,0.2300,0.0222,0.1489,-0.0427,0.1565,0.0000,0.0000,0.0000,20.0000,3.1683,1.1739,29.5422,25.8223,0.0010,0.000430,-0.0166,-0.0080,0.0011,0.0068,-0.0166,-0.0001,-6.3731,-3.6122,-0.9928,0.0000,0.006868,-0.030028,0.007417,0.0040,0.0031,-0.0036,-180.0000,-0.0000,0.0000
24,0.2400,0.0040,0.1536,-0.0414,0.1591,0.0000,0.0000,0.0000,20.0000,3.2778,1.2866,31.6897,26.0860,0.0012,0.000391,-0.0166,-0.0080,0.0011,0.0068,-0.0166,-0.0001,-6.3731,-3.6122,-0.9928,0.0000,0.004151,-0.031467,0.008184,0.0029,0.0026,-0.0023,-180.0000,-0.0000,0.0000
25,0.2500,-0.0134,0.1534,-0.0380,0.1587,0.0000,0.0000,0.0000,20.0000,3.3238,1.3974,33.2971,26.4385,0.0014,0.000439,-0.0166,-0.0080,0.0011,0.0068,-0.0166,-0.0001,-6.3731,-3.6122,-0.9928,0.0000,0.000900,-0.032184,0.008254,0.0019,0.0021,-0.0014,-180.0000,-0.0000,0.0000
26,0.2600,-0.0233,0.1523,-0.0364,0.1583,0.0000,0.0000,0.0000,20.0000,3.3456,1.5039,28.0048,26.6702,0.0017,0.000401,-0.0166,-0.0080,0.0011,0.0068,-0.0166,-0.0001,-6.3731,-3.6122,-0.9928,0.0000,-0.001888,-0.032403,0.008111,0.0020,0.0008,-0.0008,-180.0000,-0.0000,0.0000
27,0.2700,-0.0216,0.1429,-0.0357,0.1489,0.0000,0.0000,0.0000,20.0000,3.2672,1.6031,16.2704,26.4209,0.0019,0.000458,-0.0166,-0.0080,0.0011,0.0068,-0.0166,-0.0001,-6.3731,-3.6122,-0.9928,0.0000,-0.003247,-0.031523,0.007950,0.0020,0.0001,-0.0007,-180.0000,-0.0000,0.0000
28,0.2800,-0.0085,0.1299,-0.0384,0.1357,0.0000,0.0000,0.0000,20.0000,3.0875,1.6897,19.4501,25.9500,0.0022,0.000559,-0.0166,-0.0080,0.0011,0.0068,-0.0166,-0.0001,-6.3731,-3.6122,-0.9928,0.0000,-0.002685,-0.029668,0.008116,0.0016,-0.0014,-0.0000,-180.0000,-0.0000,0.0000
29,0.2900,0.0077,0.1146,-0.0417,0.1222,0.0000,0.0000,0.0000,20.0000,2.8377,1.7597,32.7497,25.9582,0.0025,0.000517,-0.0166,-0.0080,0.0011,0.0068,-0.0166,-0.0001,-6.3731,-3.6122,-0.9928,0.0000,-0.000753,-0.027056,0.008524,0.0021,-0.0015,-0.0014,-180.0000,-0.0000,0.0000
30,0.3000,0.0233,0.0960,-0.0387,0.1061,0.0000,0.0000,0.0000,20.0000,2.5221,1.8103,42.7235,26.6061,0.0028,0.000515,-0.0166,-0.0080,0.0011,0.0068,-0.0166,-0.0001,-6.3731,-3.6122,-0.9928,0.0000,0.001884,-0.023696,0.008430,0.0040,-0.0021,-0.0020,-180.0000,-0.0000,0.0000
31,0.3100,0.0366,0.0782,-0.0279,0.0908,0.0000,0.0000,0.0000,20.0000,2.1804,1.8401,47.5053,27.6242,0.0030,0.000509,-0.0166,-0.0080,0.0011,0.0068,-0.0166,-0.0001,-6.3731,-3.6122,-0.9928,0.0000,0.004661,-0.020016,0.007283,0.0041,-0.0018,-0.0030,-180.0000,-0.0000,0.0000
32,0.3200,0.0394,0.0675,-0.0144,0.0795,0.0000,0.0000,0.0000,20.0000,1.8821,1.8506,41.4434,28.5511,0.0032,0.000527,-0.0166,-0.0080,0.0011,0.0068,-0.0166,-0.0001,-6.3731,-3.6122,-0.9928,0.0000,0.006465,-0.016870,0.005277,0.0041,-0.0019,-0.0044,-180.0000,-0.0000,0.0000
33,0.3300,0.0311,0.0618,-0.0029,0.0693,0.0000,0.0000,0.0000,20.0000,1.6248,1.8452,32.6176,29.0176,0.0033,0.000495,-0.0166,-0.0080,0.0011,0.0068,-0.0166,-0.0001,-6.3731,-3.6122,-0.9928,0.0000,0.006623,-0.014527,0.003013,0.0034,-0.0016,-0.0043,-180.0000,-0.0000,0.0000
34,0.3400,0.0173,0.0618,0.0003,0.0641,0.0000,0.0000,0.0000,20.0000,1.4298,1.8278,24.4731,28.9916,0.0035,0.000591,-0.0166,-0.0080,0.0011,0.0068,-0.0166,-0.0001,-6.3731,-3.6122,-0.9928,0.0000,0.005313,-0.013196,0.001431,0.0031,-0.0009,-0.0034,-180.0000,-0.0000,0.0000
35,0.3500,0.0048,0.0706,-0.0057,0.0710,0.0000,0.0000,0.0000,20.0000,1.4243,1.8057,20.6024,28.6366,0.0037,0.000507,-0.0816,-0.0260,0.0026,0.0234,-0.0816,-0.0044,-6.3805,-3.6173,-0.9936,-0.0000,0.003350,-0.013789,0.001233,0.0026,0.0003,-0.0017,-180.0000,-0.0000,0.0000
36,0.3600,-0.0086,0.0663,-0.0141,0.0683,0.0000,0.0000,0.0000,20.0000,1.3825,1.7836,25.4237,28.3272,0.0038,0.000456,-0.0816,-0.0260,0.0026,0.0234,-0.0816,-0.0044,-6.3805,-3.6173,-0.9936,-0.0000,0.000919,-0.013653,0.001967,0.0006,0.0016,-0.0010,-180.0000,-0.0000,0.0000
37,0.3700,-0.0177,0.0395,-0.0208,0.0481,0.0000,0.0000,0.0000,20.0000,1.1374,1.7548,37.3189,28.4947,0.0040,0.000584,-0.0816,-0.0260,0.0026,0.0234,-0.0816,-0.0044,-6.3805,-3.6173,-0.9936,-0.0000,-0.001339,-0.010880,0.003032,-0.0009,0.0005,-0.0013,-180.0000,-0.0000,0.0000
38,0.3800,-0.0169,0.0056,-0.0284,0.0335,0.0000,0.0000,0.0000,20.0000,0.7780,1.7109,52.6102,29.4007,0.0041,0.000708,-0.0816,-0.0260,0.0026,0.0234,-0.0816,-0.0044,-6.3805,-3.6173,-0.9936,-0.0000,-0.002504,-0.005928,0.004372,-0.0001,0.0010,-0.0001,-180.0000,-0.0000,0.0000
39,0.3900,-0.0163,-0.0266,-0.0374,0.0487,0.0000,0.0000,0.0000,20.0000,0.6754,1.6568,62.1394,30.9395,0.0041,0.000696,-0.0816,-0.0260,0.0026,0.0234,-0.0816,-0.0044,-6.3805,-3.6173,-0.9936,-0.0000,-0.003083,0.000039,0.006009,-0.0001,0.0014,-0.0003,-180.0000,-0.0000,0.0000
40,0.4000,-0.0191,-0.0509,-0.0449,0.0705,0.0000,0.0000,0.0000,20.0000,1.0260,1.6125,59.8820,32.5936,0.0040,0.000681,-0.0816,-0.0260,0.0026,0.0234,-0.0816,-0.0044,-6.3805,-3.6173,-0.9936,-0.0000,-0.003671,0.005768,0.007650,0.0002,0.0011,-0.0011,-180.0000,-0.0000,0.0000
41,0.4100,-0.0213,-0.0562,-0.0513,0.0790,0.0000,0.0000,0.0000,20.0000,1.3837,1.5900,40.2723,33.5553,0.0039,0.000686,-0.0816,-0.0260,0.0026,0.0234,-0.0816,-0.0044,-6.3805,-3.6173,-0.9936,-0.0000,-0.004217,0.009450,0.009186,0.0011,0.0011,-0.0016,-180.0000,-0.0000,0.0000
42,0.4200,-0.0256,-0.0405,-0.0557,0.0734,0.0000,0.0000,0.0000,20.0000,1.5217,1.5825,15.2085,33.2355,0.0038,0.000684,-0.0816,-0.0260,0.0026,0.0234,-0.0816,-0.0044,-6.3805,-3.6173,-0.9936,-0.0000,-0.004932,0.009900,0.010451,0.0017,0.0023,-0.0020,-180.0000,-0.0000,0.0000
43,0.4300,-0.0368,-0.0083,-0.0531,0.0652,0.0000,0.0000,0.0000,20.0000,1.4408,1.5769,33.7927,32.7550,0.0038,0.000743,-0.0816,-0.0260,0.0026,0.0234,-0.0816,-0.0044,-6.3805,-3.6173,-0.9936,-0.0000,-0.006447,0.006909,0.010876,0.0015,0.0030,-0.0027,-180.0000,-0.0000,0.0000
44,0.4400,-0.0494,0.0308,-0.0446,0.0733,0.0000,0.0000,0.0000,20.0000,1.3386,1.5666,59.8677,33.5292,0.0038,0.000596,-0.0816,-0.0260,0.0026,0.0234,-0.0816,-0.0044,-6.3805,-3.6173,-0.9936,-0.0000,-0.008528,0.001333,0.010231,-0.0000,0.0021,-0.0039,-180.0000,-0.0000,0.0000
45,0.4500,-0.0589,0.0733,-0.0392,0.1019,0.0000,0.0000,0.0000,20.0000,1.5346,1.5595,76.8467,35.4451,0.0039,0.000764,-0.0816,-0.0260,0.0026,0.0234,-0.0816,-0.0044,-6.3805,-3.6173,-0.9936,-0.0000,-0.010608,-0.006008,0.009321,0.0007,0.0015,-0.0043,-180.0000,-0.0000,0.0000
46,0.4600,-0.0675,0.1202,-0.0410,0.1439,0.0000,0.0000,0.0000,20.0000,2.1372,1.5747,89.6794,38.0754,0.0041,0.000602,-0.0816,-0.0260,0.0026,0.0234,-0.0816,-0.0044,-6.3805,-3.6173,-0.9936,-0.0000,-0.012601,-0.014745,0.008974,0.0023,0.0016,-0.0045,-180.0000,-0.0000,0.0000
47,0.4700,-0.0775,0.1563,-0.0454,0.1802,0.0000,0.0000,0.0000,20.0000,2.8913,1.6263,86.5743,40.8287,0.0045,0.000355,-0.0816,-0.0260,0.0026,0.0234,-0.0816,-0.0044,-6.3805,-3.6173,-0.9936,-0.0000,-0.014678,-0.023147,0.009205,0.0027,0.0020,-0.0044,-180.0000,-0.0000,0.0000
48,0.4800,-0.0809,0.1703,-0.0484,0.1947,0.0000,0.0000,0.0000,20.0000,3.4676,1.7118,61.8993,42.6664,0.0049,0.000361,-0.0816,-0.0260,0.0026,0.0234,-0.0816,-0.0044,-6.3805,-3.6173,-0.9936,-0.0000,-0.016137,-0.029148,0.009613,0.0006,0.0004,-0.0061,-180.0000,-0.0000,0.0000
49,0.4900,-0.0725,0.1694,-0.0448,0.1896,0.0000,0.0000,0.0000,20.0000,3.7308,1.8156,31.7074,42.8939,0.0054,0.000364,-0.0816,-0.0260,0.0026,0.0234,-0.0816,-0.0044,-6.3805,-3.6173,-0.9936,-0.0000,-0.016067,-0.032315,0.009463,0.0014,-0.0002,-0.0053,-180.0000,-0.0000,0.0000
50,0.5000,-0.0565,0.1582,-0.0336,0.1714,0.0000,0.0000,0.0000,20.0000,3.6836,1.9197,21.4675,41.9969,0.0059,0.000584,-0.0816,-0.0260,0.0026,0.0234,-0.0816,-0.0044,-6.3805,-3.6173,-0.9936,-0.0000,-0.014399,-0.032888,0.008238,0.0010,-0.0004,-0.0044,-180.0000,-0.0000,0.0000
51,0.5100,-0.0349,0.1399,-0.0206,0.1456,0.0000,0.0000,0.0000,20.0000,3.3858,2.0085,40.2285,41.3837,0.0064,0.000386,-0.0816,-0.0260,0.0026,0.0234,-0.0816,-0.0044,-6.3805,-3.6173,-0.9936,-0.0000,-0.011282,-0.031305,0.006248,-0.0001,0.0002,-0.0037,-180.0000,-0.0000,0.0000
52,0.5200,-0.0132,0.1269,-0.0120,0.1281,0.0000,0.0000,0.0000,20.0000,3.0287,2.0744,49.2183,41.5674,0.0069,0.000350,-0.0816,-0.0260,0.0026,0.0234,-0.0816,-0.0044,-6.3805,-3.6173,-0.9936,-0.0000,-0.007372,-0.029064,0.004271,-0.0001,0.0006,-0.0039,-180.0000,-0.0000,0.0000
53,0.5300,0.0029,0.1200,-0.0131,0.1208,0.0000,0.0000,0.0000,20.0000,2.7515,2.1193,43.8830,41.8415,0.0074,0.000365,-0.0816,-0.0260,0.0026,0.0234,-0.0816,-0.0044,-6.3805,-3.6173,-0.9936,-0.0000,-0.003583,-0.027083,0.003279,0.0017,0.0021,-0.0028,-180.0000,-0.0000,0.0000
54,0.5400,0.0116,0.1165,-0.0243,0.1196,0.0000,0.0000,0.0000,20.0000,2.6533,2.1514,31.4299,41.6113,0.0078,0.000336,-0.1679,-0.0898,0.0185,0.0713,-0.1679,0.0017,-6.3809,-3.6265,-0.9937,0.0000,-0.000679,-0.026206,0.004098,0.0021,0.0030,-0.0038,-180.0000,-0.0000,0.0000
55,0.5500,0.0081,0.1110,-0.0353,0.1167,0.0000,0.0000,0.0000,20.0000,2.5746,2.1768,22.7294,40.8119,0.0083,0.000359,-0.1679,-0.0898,0.0185,0.0713,-0.1679,0.0017,-6.3809,-3.6265,-0.9937,0.0000,0.000586,-0.025114,0.005639,0.0011,0.0029,-0.0035,-180.0000,-0.0000,0.0000
56,0.5600,-0.0037,0.1124,-0.0426,0.1202,0.0000,0.0000,0.0000,20.0000,2.5637,2.1984,17.2883,39.6676,0.0088,0.000501,-0.1679,-0.0898,0.0185,0.0713,-0.1679,0.0017,-6.3809,-3.6265,-0.9937,0.0000,0.000099,-0.024600,0.007216,0.0010,0.0015,-0.0024,-180.0000,-0.0000,0.0000
57,0.5700,-0.0110,0.1144,-0.0491,0.1250,0.0000,0.0000,0.0000,20.0000,2.5997,2.2195,18.0629,38.4579,0.0092,0.000414,-0.1679,-0.0898,0.0185,0.0713,-0.1679,0.0017,-6.3809,-3.6265,-0.9937,0.0000,-0.000895,-0.024475,0.008719,-0.0003,-0.0002,-0.0021,-180.0000,-0.0000,0.0000
58,0.5800,-0.0127,0.1120,-0.0468,0.1221,0.0000,0.0000,0.0000,20.0000,2.5896,2.2401,9.9575,37.1130,0.0098,0.000335,-0.1679,-0.0898,0.0185,0.0713,-0.1679,0.0017,-6.3809,-3.6265,-0.9937,0.0000,-0.001620,-0.024115,0.009299,-0.0003,-0.0021,-0.0028,-180.0000,-0.0000,0.0000
59,0.5900,-0.0150,0.1104,-0.0358,0.1170,0.0000,0.0000,0.0000,20.0000,2.5287,2.2577,10.8916,35.6450,0.0103,0.000374,-0.1679,-0.0898,0.0185,0.0713,-0.1679,0.0017,-6.3809,-3.6265,-0.9937,0.0000,-0.002245,-0.023708,0.008505,-0.0017,-0.0022,-0.0017,-180.0000,-0.0000,0.0000
60,0.6000,-0.0141,0.1028,-0.0281,0.1075,0.0000,0.0000,0.0000,20.0000,2.3942,2.2689,16.2550,34.4308,0.0107,0.000303,-0.1679,-0.0898,0.0185,0.0713,-0.1679,0.0017,-6.3809,-3.6265,-0.9937,0.0000,-0.002497,-0.022672,0.007277,-0.0017,-0.0019,-0.0019,-180.0000,-0.0000,0.0000
61,0.6100,-0.0093,0.0843,-0.0243,0.0882,0.0000,0.0000,0.0000,20.0000,2.1242,2.2683,27.1601,33.7310,0.0112,0.000336,-0.1679,-0.0898,0.0185,0.0713,-0.1679,0.0017,-6.3809,-3.6265,-0.9937,0.0000,-0.002149,-0.020201,0.006204,-0.0021,-0.0015,-0.0030,-180.0000,-0.0000,0.0000
62,0.6200,-0.0118,0.0612,-0.0239,0.0668,0.0000,0.0000,0.0000,20.0000,1.7540,2.2502,37.6755,33.6587,0.0116,0.000477,-0.1679,-0.0898,0.0185,0.0713,-0.1679,0.0017,-6.3809,-3.6265,-0.9937,0.0000,-0.002201,-0.016490,0.005557,-0.0019,-0.0012,-0.0022,-180.0000,-0.0000,0.0000
63,0.6300,-0.0277,0.0369,-0.0281,0.0540,0.0000,0.0000,0.0000,20.0000,1.3766,2.2126,47.9346,34.1618,0.0119,0.000444,-0.1679,-0.0898,0.0185,0.0713,-0.1679,0.0017,-6.3809,-3.6265,-0.9937,0.0000,-0.003815,-0.011977,0.005613,-0.0029,-0.0006,-0.0019,-180.0000,-0.0000,0.0000
64,0.6400,-0.0449,0.0091,-0.0320,0.0559,0.0000,0.0000,0.0000,20.0000,1.1049,2.1591,59.1562,35.2281,0.0120,0.000428,-0.1679,-0.0898,0.0185,0.0713,-0.1679,0.0017,-6.3809,-3.6265,-0.9937,0.0000,-0.006418,-0.006680,0.006021,-0.0029,-0.0009,-0.0030,-180.0000,-0.0000,0.0000
65,0.6500,-0.0466,-0.0076,-0.0341,0.0582,0.0000,0.0000,0.0000,20.0000,1.0491,2.0996,49.0434,36.2662,0.0122,0.000554,-0.1679,-0.0898,0.0185,0.0713,-0.1679,0.0017,-6.3809,-3.6265,-0.9937,0.0000,-0.008020,-0.002064,0.006440,-0.0018,-0.0007,-0.0029,-180.0000,-0.0000,0.0000
66,0.6600,-0.0351,-0.0166,-0.0359,0.0528,0.0000,0.0000,0.0000,20.0000,1.0418,2.0416,34.9016,36.5801,0.0122,0.000529,-0.1679,-0.0898,0.0185,0.0713,-0.1679,0.0017,-6.3809,-3.6265,-0.9937,0.0000,-0.007735,0.001391,0.006839,-0.0017,0.0003,-0.0024,-180.0000,-0.0000,0.0000
67,0.6700,-0.0197,-0.0249,-0.0354,0.0475,0.0000,0.0000,0.0000,20.0000,1.0117,1.9858,32.2656,36.4153,0.0122,0.000475,-0.1679,-0.0898,0.0185,0.0713,-0.1679,0.0017,-6.3809,-3.6265,-0.9937,0.0000,-0.006028,0.004125,0.007000,-0.0012,0.0013,-0.0042,-180.0000,-0.0000,0.0000
68,0.6800,0.0013,-0.0265,-0.0345,0.0435,0.0000,0.0000,0.0000,20.0000,0.9545,1.9306,34.8396,36.2578,0.0121,0.000395,-0.1679,-0.0898,0.0185,0.0713,-0.1679,0.0017,-6.3809,-3.6265,-0.9937,0.0000,-0.002967,0.005789,0.006986,0.0005,0.0014,-0.0051,-180.0000,-0.0000,0.0000
69,0.6900,0.0201,-0.0186,-0.0353,0.0447,0.0000,0.0000,0.0000,20.0000,0.9217,1.8760,35.7866,36.2058,0.0120,0.000397,-0.1679,-0.0898,0.0185,0.0713,-0.1679,0.0017,-6.3809,-3.6265,-0.9937,0.0000,0.000609,0.005914,0.007043,0.0014,0.0019,-0.0056,-180.0000,-0.0000,0.0000
70,0.7000,0.0218,-0.0115,-0.0347,0.0426,0.0000,0.0000,0.0000,20.0000,0.9179,1.8234,22.4168,35.8150,0.0120,0.000397,-0.1679,-0.0898,0.0185,0.0713,-0.1679,0.0017,-6.3809,-3.6265,-0.9937,0.0000,0.002751,0.005256,0.007004,-0.0006,0.0014,-0.0061,-180.0000,-0.0000,0.0000
71,0.7100,0.0129,-0.0055,-0.0292,0.0324,0.0000,0.0000,0.0000,20.0000,0.8290,1.7712,11.7762,34.7854,0.0119,0.000399,-0.1679,-0.0898,0.0185,0.0713,-0.1679,0.0017,-6.3809,-3.6265,-0.9937,0.0000,0.003043,0.004278,0.006415,0.0001,0.0004,-0.0058,-180.0000,-0.0000,0.0000
72,0.7200,0.0072,0.0059,-0.0214,0.0233,0.0000,0.0000,0.0000,20.0000,0.6455,1.7143,20.6457,33.7636,0.0119,0.000452,-0.1679,-0.0898,0.0185,0.0713,-0.1679,0.0017,-6.3809,-3.6265,-0.9937,0.0000,0.002631,0.002595,0.005292,0.0001,0.0001,-0.0041,-180.0000,-0.0000,0.0000
73,0.7300,0.0040,0.0162,-0.0157,0.0229,0.0000,0.0000,0.0000,20.0000,0.4631,1.6505,23.6716,33.1253,0.0119,0.000464,-0.1679,-0.0898,0.0185,0.0713,-0.1679,0.0017,-6.3809,-3.6265,-0.9937,0.0000,0.002071,0.000633,0.004093,0.0006,0.0009,-0.0031,-180.0000,-0.0000,0.0000
74,0.7400,0.0033,0.0265,-0.0169,0.0316,0.0000,0.0000,0.0000,20.0000,0.4696,1.5853,29.2090,32.7575,0.0120,0.000478,-0.2699,-0.1770,0.0493,0.1277,-0.2699,0.0028,-6.3568,-3.6161,-0.9915,-0.0000,0.001500,-0.002222,0.003855,0.0018,0.0009,-0.0025,-180.0000,-0.0000,0.0000
75,0.7500,0.0058,0.0419,-0.0325,0.0534,0.0000,0.0000,0.0000,20.0000,0.7642,1.5321,34.2595,32.7012,0.0121,0.000484,-0.2699,-0.1770,0.0493,0.1277,-0.2699,0.0028,-6.3568,-3.6161,-0.9915,-0.0000,0.001432,-0.005338,0.005277,0.0039,0.0015,-0.0027,-180.0000,-0.0000,0.0000
76,0.7600,0.0004,0.0574,-0.0570,0.0809,0.0000,0.0000,0.0000,20.0000,1.2120,1.5021,46.2053,33.1155,0.0124,0.000441,-0.2699,-0.1770,0.0493,0.1277,-0.2699,0.0028,-6.3568,-3.6161,-0.9915,-0.0000,0.000850,-0.008593,0.008505,0.0036,0.0026,-0.0034,-180.0000,-0.0000,0.0000
77,0.7700,-0.0100,0.0790,-0.0830,0.1150,0.0000,0.0000,0.0000,20.0000,1.7978,1.5023,60.4276,34.2267,0.0127,0.000484,-0.2699,-0.1770,0.0493,0.1277,-0.2699,0.0028,-6.3568,-3.6161,-0.9915,-0.0000,-0.000513,-0.012541,0.012871,0.0038,0.0016,-0.0033,-180.0000,-0.0000,0.0000
78,0.7800,-0.0162,0.1072,-0.1061,0.1516,0.0000,0.0000,0.0000,20.0000,2.4875,1.5375,69.7284,35.9238,0.0133,0.000475,-0.2699,-0.1770,0.0493,0.1277,-0.2699,0.0028,-6.3568,-3.6161,-0.9915,-0.0000,-0.001883,-0.017513,0.017564,0.0022,0.0009,-0.0023,-180.0000,-0.0000,0.0000
79,0.7900,-0.0186,0.1231,-0.1159,0.1701,0.0000,0.0000,0.0000,20.0000,3.0492,1.6052,56.6343,37.4232,0.0139,0.000499,-0.2699,-0.1770,0.0493,0.1277,-0.2699,0.0028,-6.3568,-3.6161,-0.9915,-0.0000,-0.002882,-0.021819,0.021104,0.0017,0.0007,-0.0014,-180.0000,-0.0000,0.0000
80,0.8000,-0.0161,0.1253,-0.1081,0.1662,0.0000,0.0000,0.0000,20.0000,3.3149,1.6920,28.1260,37.6959,0.0147,0.000467,-0.2699,-0.1770,0.0493,0.1277,-0.2699,0.0028,-6.3568,-3.6161,-0.9915,-0.0000,-0.003173,-0.024376,0.022241,0.0003,0.0007,-0.0007,-180.0000,-0.0000,0.0000
81,0.8100,-0.0051,0.1262,-0.0891,0.1546,0.0000,0.0000,0.0000,20.0000,3.3324,1.7817,21.7534,36.9942,0.0155,0.000498,-0.2699,-0.1770,0.0493,0.1277,-0.2699,0.0028,-6.3568,-3.6161,-0.9915,-0.0000,-0.002231,-0.025834,0.020931,0.0009,0.0001,0.0001,-180.0000,-0.0000,0.0000
82,0.8200,0.0063,0.1260,-0.0698,0.1442,0.0000,0.0000,0.0000,20.0000,3.2228,1.8640,32.5360,36.4524,0.0163,0.000463,-0.2699,-0.1770,0.0493,0.1277,-0.2699,0.0028,-6.3568,-3.6161,-0.9915,-0.0000,-0.000565,-0.026568,0.018234,0.0003,0.0011,-0.0000,-180.0000,-0.0000,0.0000
83,0.8300,0.0074,0.1111,-0.0563,0.1248,0.0000,0.0000,0.0000,20.0000,2.9709,1.9318,32.6172,36.2392,0.0170,0.000369,-0.2699,-0.1770,0.0493,0.1277,-0.2699,0.0028,-6.3568,-3.6161,-0.9915,-0.0000,0.000463,-0.025428,0.015356,-0.0002,0.0019,0.0000,-180.0000,-0.0000,0.0000
84,0.8400,-0.0026,0.0847,-0.0468,0.0968,0.0000,0.0000,0.0000,20.0000,2.5539,1.9775,42.2056,36.3036,0.0177,0.000456,-0.2699,-0.1770,0.0493,0.1277,-0.2699,0.0028,-6.3568,-3.6161,-0.9915,-0.0000,0.000036,-0.022107,0.012787,-0.0000,0.0023,-0.0005,-180.0000,-0.0000,0.0000
85,0.8500,-0.0192,0.0619,-0.0446,0.0787,0.0000,0.0000,0.0000,20.0000,2.1193,1.9973,48.6960,36.8068,0.0182,0.000511,-0.2699,-0.1770,0.0493,0.1277,-0.2699,0.0028,-6.3568,-3.6161,-0.9915,-0.0000,-0.001864,-0.017945,0.011120,-0.0008,0.0018,-0.0012,-180.0000,-0.0000,0.0000
86,0.8600,-0.0410,0.0434,-0.0483,0.0767,0.0000,0.0000,0.0000,20.0000,1.8062,1.9954,53.1658,37.5838,0.0187,0.000393,-0.2699,-0.1770,0.0493,0.1277,-0.2699,0.0028,-6.3568,-3.6161,-0.9915,-0.0000,-0.005088,-0.013758,0.010538,-0.0023,0.0012,-0.0026,-180.0000,-0.0000,0.0000
87,0.8700,-0.0634,0.0189,-0.0492,0.0825,0.0000,0.0000,0.0000,20.0000,1.6406,1.9804,62.5716,38.6996,0.0191,0.000434,-0.2699,-0.1770,0.0493,0.1277,-0.2699,0.0028,-6.3568,-3.6161,-0.9915,-0.0000,-0.009106,-0.008967,0.010288,-0.0029,0.0008,-0.0031,-180.0000,-0.0000,0.0000
88,0.8800,-0.0779,-0.0039,-0.0468,0.0909,0.0000,0.0000,0.0000,20.0000,1.6630,1.9623,61.5203,39.9838,0.0193,0.000454,-0.2699,-0.1770,0.0493,0.1277,-0.2699,0.0028,-6.3568,-3.6161,-0.9915,-0.0000,-0.012750,-0.004027,0.009888,-0.0024,-0.0001,-0.0028,-180.0000,-0.0000,0.0000
89,0.8900,-0.0766,-0.0042,-0.0459,0.0894,0.0000,0.0000,0.0000,20.0000,1.7505,1.9483,33.5914,40.4003,0.0195,0.000426,-0.2699,-0.1770,0.0493,0.1277,-0.2699,0.0028,-6.3568,-3.6161,-0.9915,-0.0000,-0.014612,-0.001250,0.009559,-0.0017,-0.0013,-0.0025,-180.0000,-0.0000,0.0000
90,0.9000,-0.0582,0.0103,-0.0513,0.0783,0.0000,0.0000,0.0000,20.0000,1.7001,1.9360,9.0501,39.3508,0.0197,0.000406,-0.2699,-0.1770,0.0493,0.1277,-0.2699,0.0028,-6.3568,-3.6161,-0.9915,-0.0000,-0.013775,-0.001171,0.009895,-0.0001,-0.0015,-0.0017,-180.0000,-0.0000,0.0000
91,0.9100,-0.0302,0.0220,-0.0609,0.0715,0.0000,0.0000,0.0000,20.0000,1.5390,1.9186,36.5423,38.4402,0.0200,0.000399,-0.2699,-0.1770,0.0493,0.1277,-0.2699,0.0028,-6.3568,-3.6161,-0.9915,-0.0000,-0.010487,-0.002293,0.011028,0.0007,-0.0010,-0.0010,-180.0000,-0.0000,0.0000
92,0.9200,-0.0041,0.0402,-0.0681,0.0792,0.0000,0.0000,0.0000,20.0000,1.4539,1.8954,52.4227,38.7726,0.0203,0.000391,-0.2699,-0.1770,0.0493,0.1277,-0.2699,0.0028,-6.3568,-3.6161,-0.9915,-0.0000,-0.006038,-0.004728,0.012353,0.0007,-0.0008,-0.0010,-180.0000,-0.0000,0.0000
93,0.9300,0.0125,0.0637,-0.0741,0.0985,0.0000,0.0000,0.0000,20.0000,1.6149,1.8755,56.9097,39.6468,0.0206,0.000329,-0.2699,-0.1770,0.0493,0.1277,-0.2699,0.0028,-6.3568,-3.6161,-0.9915,-0.0000,-0.001901,-0.008413,0.013653,-0.0013,0.0001,-0.0026,-180.0000,-0.0000,0.0000
94,0.9400,0.0193,0.0766,-0.0799,0.1123,0.0000,0.0000,0.0000,20.0000,1.9683,1.8709,50.7001,40.4256,0.0212,0.000363,-0.3387,-0.2981,0.0787,0.2195,-0.3387,-0.0004,-7.8467,-3.6510,-0.9934,0.0000,0.000957,-0.012219,0.015401,-0.0017,0.0006,-0.0031,-180.0000,-0.0000,0.0000
95,0.9500,0.0167,0.0777,-0.0757,0.1098,0.0000,0.0000,0.0000,20.0000,2.1594,1.8815,26.0876,40.3139,0.0217,0.000497,-0.3387,-0.2981,0.0787,0.2195,-0.3387,-0.0004,-7.8467,-3.6510,-0.9934,0.0000,0.002272,-0.014411,0.015920,-0.0027,-0.0003,-0.0035,-180.0000,-0.0000,0.0000
96,0.9600,0.0093,0.0722,-0.0632,0.0964,0.0000,0.0000,0.0000,20.0000,2.1307,1.8960,11.7919,39.1381,0.0223,0.000791,-0.3387,-0.2981,0.0787,0.2195,-0.3387,-0.0004,-7.8467,-3.6510,-0.9934,0.0000,0.002259,-0.015040,0.014923,-0.0024,-0.0016,-0.0034,-180.0000,-0.0000,0.0000
97,0.9700,-0.0017,0.0695,-0.0553,0.0888,0.0000,0.0000,0.0000,20.0000,2.0313,1.9062,17.6425,37.7948,0.0229,0.000547,-0.3387,-0.2981,0.0787,0.2195,-0.3387,-0.0004,-7.8467,-3.6510,-0.9934,0.0000,0.001151,-0.015089,0.013551,0.0002,-0.0017,-0.0032,-180.0000,-0.0000,0.0000
98,0.9800,-0.0153,0.0802,-0.0529,0.0973,0.0000,0.0000,0.0000,20.0000,2.0460,1.9135,24.7192,36.8809,0.0235,0.000396,-0.3387,-0.2981,0.0787,0.2195,-0.3387,-0.0004,-7.8467,-3.6510,-0.9934,0.0000,-0.000830,-0.016155,0.012527,0.0037,-0.0012,-0.0020,-180.0000,-0.0000,0.0000
99,0.9900,-0.0258,0.0980,-0.0543,0.1150,0.0000,0.0000,0.0000,20.0000,2.2289,1.9258,32.0436,36.4133,0.0242,0.000328,-0.3387,-0.2981,0.0787,0.2195,-0.3387,-0.0004,-7.8467,-3.6510,-0.9934,0.0000,-0.002971,-0.018497,0.012077,0.0042,-0.0007,-0.0011,-180.0000,-0.0000,0.0000
100,1.0000,-0.0345,0.1028,-0.0669,0.1274,0.0000,0.0000,0.0000,20.0000,2.4602,1.9488,28.6169,36.0787,0.0250,0.000344,-0.3387,-0.2981,0.0787,0.2195,-0.3387,-0.0004,-7.8467,-3.6510,-0.9934,0.0000,-0.005020,-0.020233,0.013065,0.0028,-0.0004,-0.0007,-180.0000,-0.0000,0.0000
101,1.0100,-0.0425,0.0936,-0.0844,0.1330,0.0000,0.0000,0.0000,20.0000,2.6319,1.9817,29.7062,35.6982,0.0258,0.000354,-0.3387,-0.2981,0.0787,0.2195,-0.3387,-0.0004,-7.8467,-3.6510,-0.9934,0.0000,-0.006938,-0.020235,0.015333,0.0014,0.0010,-0.0008,-180.0000,-0.0000,0.0000
102,1.0200,-0.0453,0.0755,-0.0886,0.1249,0.0000,0.0000,0.0000,20.0000,2.6348,2.0175,28.0853,35.3240,0.0266,0.000447,-0.3387,-0.2981,0.0787,0.2195,-0.3387,-0.0004,-7.8467,-3.6510,-0.9934,0.0000,-0.008266,-0.018380,0.016972,-0.0010,0.0011,-0.0009,-180.0000,-0.0000,0.0000
103,1.0300,-0.0374,0.0509,-0.0836,0.1048,0.0000,0.0000,0.0000,20.0000,2.4269,2.0458,35.4625,35.1287,0.0273,0.000504,-0.3387,-0.2981,0.0787,0.2195,-0.3387,-0.0004,-7.8467,-3.6510,-0.9934,0.0000,-0.008200,-0.014855,0.017352,-0.0022,0.0001,-0.0004,-180.0000,-0.0000,0.0000
104,1.0400,-0.0216,0.0260,-0.0755,0.0827,0.0000,0.0000,0.0000,20.0000,2.0744,2.0570,47.9911,35.4917,0.0279,0.000355,-0.3387,-0.2981,0.0787,0.2195,-0.3387,-0.0004,-7.8467,-3.6510,-0.9934,0.0000,-0.006566,-0.010389,0.016711,-0.0028,-0.0004,-0.0005,-180.0000,-0.0000,0.0000
105,1.0500,-0.0023,0.0129,-0.0616,0.0630,0.0000,0.0000,0.0000,20.0000,1.6745,2.0470,50.6563,36.2526,0.0284,0.000467,-0.3387,-0.2981,0.0787,0.2195,-0.3387,-0.0004,-7.8467,-3.6510,-0.9934,0.0000,-0.003716,-0.006596,0.014936,-0.0025,0.0001,-0.0007,-180.0000,-0.0000,0.0000
106,1.0600,0.0161,0.0162,-0.0499,0.0549,0.0000,0.0000,0.0000,20.0000,1.3637,2.0180,44.3217,36.8707,0.0287,0.000479,-0.3387,-0.2981,0.0787,0.2195,-0.3387,-0.0004,-7.8467,-3.6510,-0.9934,0.0000,-0.000293,-0.004812,0.012757,-0.0029,0.0003,-0.0010,-180.0000,-0.0000,0.0000
107,1.0700,0.0302,0.0231,-0.0461,0.0597,0.0000,0.0000,0.0000,20.0000,1.2386,1.9785,36.8620,37.0754,0.0290,0.000350,-0.3387,-0.2981,0.0787,0.2195,-0.3387,-0.0004,-7.8467,-3.6510,-0.9934,0.0000,0.003005,-0.004506,0.011139,-0.0023,0.0007,-0.0015,-180.0000,-0.0000,0.0000
108,1.0800,0.0341,0.0277,-0.0429,0.0614,0.0000,0.0000,0.0000,20.0000,1.2177,1.9373,25.4491,36.7497,0.0293,0.000315,-0.3387,-0.2981,0.0787,0.2195,-0.3387,-0.0004,-7.8467,-3.6510,-0.9934,0.0000,0.005215,-0.004786,0.009909,-0.0027,0.0012,-0.0023,-180.0000,-0.0000,0.0000
109,1.0900,0.0250,0.0280,-0.0412,0.0558,0.0000,0.0000,0.0000,20.0000,1.1696,1.8963,9.3603,35.6856,0.0296,0.000489,-0.3387,-0.2981,0.0787,0.2195,-0.3387,-0.0004,-7.8467,-3.6510,-0.9934,0.0000,0.005515,-0.004966,0.009040,-0.0036,0.0019,-0.0022,-180.0000,-0.0000,0.0000
110,1.1000,0.0092,0.0232,-0.0433,0.0500,0.0000,0.0000,0.0000,20.0000,1.0687,1.8536,15.0561,34.3941,0.0299,0.000406,-0.3387,-0.2981,0.0787,0.2195,-0.3387,-0.0004,-7.8467,-3.6510,-0.9934,0.0000,0.004090,-0.004573,0.008750,-0.0027,0.0022,-0.0012,-180.0000,-0.0000,0.0000
111,1.1100,-0.0151,0.0156,-0.0436,0.0488,0.0000,0.0000,0.0000,20.0000,0.9362,1.8068,33.7735,33.8452,0.0301,0.000362,-0.3387,-0.2981,0.0787,0.2195,-0.3387,-0.0004,-7.8467,-3.6510,-0.9934,0.0000,0.000863,-0.003590,0.008604,-0.0006,0.0020,-0.0022,-180.0000,-0.0000,0.0000
112,1.1200,-0.0409,0.0115,-0.0468,0.0632,0.0000,0.0000,0.0000,20.0000,0.9847,1.7602,44.7423,34.1429,0.0304,0.000508,-0.3387,-0.2981,0.0787,0.2195,-0.3387,-0.0004,-7.8467,-3.6510,-0.9934,0.0000,-0.003500,-0.002622,0.008822,0.0003,0.0016,-0.0026,-180.0000,-0.0000,0.0000
113,1.1300,-0.0498,0.0133,-0.0552,0.0755,0.0000,0.0000,0.0000,20.0000,1.2114,1.7238,34.4791,34.4437,0.0306,0.000487,-0.3387,-0.2981,0.0787,0.2195,-0.3387,-0.0004,-7.8467,-3.6510,-0.9934,0.0000,-0.006797,-0.002268,0.009767,0.0018,0.0007,-0.0029,-180.0000,-0.0000,0.0000
114,1.1400,-0.0425,0.0178,-0.0631,0.0781,0.0000,0.0000,0.0000,20.0000,1.4426,1.7020,23.3021,34.1382,0.0310,0.000491,-0.4058,-0.4437,0.1128,0.3309,-0.4058,0.0005,-7.8393,-3.6674,-0.9933,0.0000,-0.007994,-0.002996,0.011629,0.0022,-0.0002,-0.0034,-180.0000,-0.0000,0.0000
115,1.1500,-0.0287,0.0277,-0.0669,0.0779,0.0000,0.0000,0.0000,20.0000,1.5537,1.6908,21.0096,33.4791,0.0314,0.000467,-0.4058,-0.4437,0.1128,0.3309,-0.4058,0.0005,-7.8393,-3.6674,-0.9933,0.0000,-0.007256,-0.004388,0.013019,0.0027,-0.0010,-0.0044,-180.0000,-0.0000,0.0000
116,1.1600,-0.0048,0.0415,-0.0698,0.0814,0.0000,0.0000,0.0000,20.0000,1.6116,1.6848,36.7586,33.2264,0.0319,0.000582,-0.4058,-0.4437,0.1128,0.3309,-0.4058,0.0005,-7.8393,-3.6674,-0.9933,0.0000,-0.004450,-0.006528,0.014047,0.0021,-0.0024,-0.0034,-180.0000,-0.0000,0.0000
117,1.1700,0.0211,0.0592,-0.0716,0.0953,0.0000,0.0000,0.0000,20.0000,1.7544,1.6847,51.4189,33.8239,0.0324,0.000474,-0.4058,-0.4437,0.1128,0.3309,-0.4058,0.0005,-7.8393,-3.6674,-0.9933,0.0000,-0.000293,-0.009467,0.014768,0.0011,-0.0024,-0.0026,-180.0000,-0.0000,0.0000
118,1.1800,0.0303,0.0834,-0.0696,0.1128,0.0000,0.0000,0.0000,20.0000,2.0336,1.6962,51.5344,34.7949,0.0331,0.000393,-0.4058,-0.4437,0.1128,0.3309,-0.4058,0.0005,-7.8393,-3.6674,-0.9933,0.0000,0.002921,-0.013492,0.014933,0.0005,-0.0020,-0.0019,-180.0000,-0.0000,0.0000
119,1.1900,0.0207,0.1082,-0.0645,0.1277,0.0000,0.0000,0.0000,20.0000,2.3538,1.7236,47.6880,35.6099,0.0339,0.000356,-0.4058,-0.4437,0.1128,0.3309,-0.4058,0.0005,-7.8393,-3.6674,-0.9933,0.0000,0.003732,-0.018170,0.014490,0.0016,-0.0017,-0.0021,-180.0000,-0.0000,0.0000
120,1.2000,0.0003,0.1279,-0.0537,0.1387,0.0000,0.0000,0.0000,20.0000,2.6301,1.7659,49.8527,36.3339,0.0349,0.000315,-0.4058,-0.4437,0.1128,0.3309,-0.4058,0.0005,-7.8393,-3.6674,-0.9933,0.0000,0.002129,-0.022690,0.013129,0.0018,-0.0010,-0.0035,-180.0000,-0.0000,0.0000
121,1.2100,-0.0233,0.1439,-0.0377,0.1506,0.0000,0.0000,0.0000,20.0000,2.8851,1.8204,57.1034,37.2769,0.0359,0.000296,-0.4058,-0.4437,0.1128,0.3309,-0.4058,0.0005,-7.8393,-3.6674,-0.9933,0.0000,-0.001118,-0.026746,0.010760,0.0023,0.0009,-0.0035,-180.0000,-0.0000,0.0000
122,1.2200,-0.0396,0.1466,-0.0177,0.1529,0.0000,0.0000,0.0000,20.0000,3.0475,1.8834,53.7409,38.2751,0.0370,0.000409,-0.4058,-0.4437,0.1128,0.3309,-0.4058,0.0005,-7.8393,-3.6674,-0.9933,0.0000,-0.004542,-0.029206,0.007427,0.0026,0.0015,-0.0052,-180.0000,-0.0000,0.0000
123,1.2300,-0.0448,0.1274,0.0035,0.1351,0.0000,0.0000,0.0000,20.0000,2.9612,1.9451,46.8755,38.9370,0.0381,0.000444,-0.4058,-0.4437,0.1128,0.3309,-0.4058,0.0005,-7.8393,-3.6674,-0.9933,0.0000,-0.006944,-0.028578,0.003451,0.0027,0.0017,-0.0062,-180.0000,-0.0000,0.0000
124,1.2400,-0.0464,0.0992,0.0161,0.1107,0.0000,0.0000,0.0000,20.0000,2.6721,1.9930,49.5404,39.4470,0.0390,0.000341,-0.4058,-0.4437,0.1128,0.3309,-0.4058,0.0005,-7.8393,-3.6674,-0.9933,0.0000,-0.008422,-0.025359,-0.000013,0.0016,0.0018,-0.0063,-180.0000,-0.0000,0.0000
125,1.2500,-0.0481,0.0709,0.0209,0.0882,0.0000,0.0000,0.0000,20.0000,2.2860,2.0198,53.2686,40.1047,0.0397,0.000376,-0.4058,-0.4437,0.1128,0.3309,-0.4058,0.0005,-7.8393,-3.6674,-0.9933,0.0000,-0.009388,-0.020703,-0.002414,0.0007,0.0014,-0.0056,-180.0000,-0.0000,0.0000
126,1.2600,-0.0410,0.0496,0.0214,0.0678,0.0000,0.0000,0.0000,20.0000,1.8798,2.0233,49.4859,40.7248,0.0402,0.000321,-0.4058,-0.4437,0.1128,0.3309,-0.4058,0.0005,-7.8393,-3.6674,-0.9933,0.0000,-0.009195,-0.015953,-0.003786,0.0013,0.0002,-0.0050,-180.0000,-0.0000,0.0000
127,1.2700,-0.0283,0.0367,0.0141,0.0484,0.0000,0.0000,0.0000,20.0000,1.4810,2.0044,41.8767,40.9974,0.0406,0.000453,-0.4058,-0.4437,0.1128,0.3309,-0.4058,0.0005,-7.8393,-3.6674,-0.9933,0.0000,-0.007795,-0.012006,-0.003801,0.0014,0.0000,-0.0038,-180.0000,-0.0000,0.0000
128,1.2800,-0.0133,0.0343,0.0053,0.0371,0.0000,0.0000,0.0000,20.0000,1.1411,1.9663,34.6354,40.8466,0.0409,0.000399,-0.4058,-0.4437,0.1128,0.3309,-0.4058,0.0005,-7.8393,-3.6674,-0.9933,0.0000,-0.005510,-0.009555,-0.002926,0.0014,-0.0015,-0.0024,-180.0000,-0.0000,0.0000
129,1.2900,0.0040,0.0434,-0.0012,0.0436,0.0000,0.0000,0.0000,20.0000,0.9604,1.9159,32.4799,40.4457,0.0412,0.000496,-0.4058,-0.4437,0.1128,0.3309,-0.4058,0.0005,-7.8393,-3.6674,-0.9933,0.0000,-0.002502,-0.009098,-0.001788,0.0036,-0.0003,-0.0015,-180.0000,-0.0000,0.0000
130,1.3000,0.0203,0.0593,-0.0130,0.0640,0.0000,0.0000,0.0000,20.0000,1.0444,1.8656,39.8105,40.2091,0.0415,0.000406,-0.4058,-0.4437,0.1128,0.3309,-0.4058,0.0005,-7.8393,-3.6674,-0.9933,0.0000,0.000791,-0.010414,0.000021,0.0052,-0.0003,-0.0024,-180.0000,-0.0000,0.0000
131,1.3100,0.0319,0.0748,-0.0286,0.0862,0.0000,0.0000,0.0000,20.0000,1.3472,1.8288,45.3665,40.3400,0.0420,0.000462,-0.4058,-0.4437,0.1128,0.3309,-0.4058,0.0005,-7.8393,-3.6674,-0.9933,0.0000,0.003777,-0.012670,0.002585,0.0044,0.0001,-0.0026,-180.0000,-0.0000,0.0000
132,1.3200,0.0370,0.0865,-0.0426,0.1033,0.0000,0.0000,0.0000,20.0000,1.7065,1.8122,42.7446,40.5444,0.0426,0.000495,-0.4058,-0.4437,0.1128,0.3309,-0.4058,0.0005,-7.8393,-3.6674,-0.9933,0.0000,0.005925,-0.015065,0.005401,0.0036,0.0006,-0.0029,-180.0000,-0.0000,0.0000
133,1.3300,0.0392,0.0947,-0.0593,0.1184,0.0000,0.0000,0.0000,20.0000,2.0566,1.8160,40.9247,40.6154,0.0433,0.000404,-0.4058,-0.4437,0.1128,0.3309,-0.4058,0.0005,-7.8393,-3.6674,-0.9933,0.0000,0.007316,-0.017182,0.008615,0.0031,0.0015,-0.0027,-180.0000,-0.0000,0.0000
134,1.3400,0.0431,0.0963,-0.0799,0.1323,0.0000,0.0000,0.0000,20.0000,2.4331,1.8396,46.0314,40.7728,0.0442,0.000367,-0.4788,-0.5213,0.1362,0.3851,-0.4788,-0.0066,-6.2821,-3.6723,-0.9913,-0.0000,0.008333,-0.018992,0.012723,0.0016,0.0008,-0.0020,-180.0000,-0.0000,0.0000
135,1.3500,0.0445,0.0878,-0.0968,0.1381,0.0000,0.0000,0.0000,20.0000,2.6914,1.8793,40.0061,40.8964,0.0452,0.000409,-0.4788,-0.5213,0.1362,0.3851,-0.4788,-0.0066,-6.2821,-3.6723,-0.9913,-0.0000,0.009025,-0.019113,0.016661,0.0006,0.0011,-0.0006,-180.0000,-0.0000,0.0000
136,1.3600,0.0402,0.0701,-0.1106,0.1370,0.0000,0.0000,0.0000,20.0000,2.8092,1.9273,39.3249,40.8287,0.0463,0.000462,-0.4788,-0.5213,0.1362,0.3851,-0.4788,-0.0066,-6.2821,-3.6723,-0.9913,-0.0000,0.008960,-0.017365,0.020183,0.0006,0.0006,0.0009,-180.0000,-0.0000,0.0000
137,1.3700,0.0332,0.0493,-0.1253,0.1387,0.0000,0.0000,0.0000,20.0000,2.8751,1.9776,46.3415,40.9389,0.0472,0.000449,-0.4788,-0.5213,0.1362,0.3851,-0.4788,-0.0066,-6.2821,-3.6723,-0.9913,-0.0000,0.008198,-0.014288,0.023563,0.0017,0.0004,0.0007,-180.0000,-0.0000,0.0000
138,1.3800,0.0173,0.0296,-0.1358,0.1401,0.0000,0.0000,0.0000,20.0000,2.9137,2.0280,51.0286,41.3650,0.0482,0.000430,-0.4788,-0.5213,0.1362,0.3851,-0.4788,-0.0066,-6.2821,-3.6723,-0.9913,-0.0000,0.006178,-0.010584,0.026434,0.0020,0.0009,0.0001,-180.0000,-0.0000,0.0000
139,1.3900,-0.0026,0.0197,-0.1351,0.1366,0.0000,0.0000,0.0000,20.0000,2.9056,2.0765,46.0977,41.7610,0.0491,0.000431,-0.4788,-0.5213,0.1362,0.3851,-0.4788,-0.0066,-6.2821,-3.6723,-0.9913,-0.0000,0.003052,-0.007528,0.027897,0.0027,0.0004,-0.0011,-180.0000,-0.0000,0.0000
140,1.4000,-0.0228,0.0249,-0.1314,0.1356,0.0000,0.0000,0.0000,20.0000,2.8985,2.1219,39.5277,41.8188,0.0500,0.000430,-0.4788,-0.5213,0.1362,0.3851,-0.4788,-0.0066,-6.2821,-3.6723,-0.9913,-0.0000,-0.000701,-0.006346,0.028273,0.0024,0.0008,-0.0018,-180.0000,-0.0000,0.0000
141,1.4100,-0.0491,0.0411,-0.1294,0.1444,0.0000,0.0000,0.0000,20.0000,2.9653,2.1665,47.9735,41.9251,0.0510,0.000482,-0.4788,-0.5213,0.1362,0.3851,-0.4788,-0.0066,-6.2821,-3.6723,-0.9913,-0.0000,-0.005402,-0.007301,0.028227,0.0029,0.0022,-0.0039,-180.0000,-0.0000,0.0000
142,1.4200,-0.0765,0.0608,-0.1265,0.1598,0.0000,0.0000,0.0000,20.0000,3.1411,2.2153,58.9186,42.5589,0.0521,0.000513,-0.4788,-0.5213,0.1362,0.3851,-0.4788,-0.0066,-6.2821,-3.6723,-0.9913,-0.0000,-0.010734,-0.009779,0.027853,0.0031,0.0027,-0.0041,-180.0000,-0.0000,0.0000
143,1.4300,-0.0882,0.0750,-0.1251,0.1705,0.0000,0.0000,0.0000,20.0000,3.3635,2.2723,49.5937,43.2023,0.0533,0.000503,-0.4788,-0.5213,0.1362,0.3851,-0.4788,-0.0066,-6.2821,-3.6723,-0.9913,-0.0000,-0.014830,-0.012547,0.027458,0.0025,0.0023,-0.0042,-180.0000,-0.0000,0.0000
144,1.4400,-0.0834,0.0770,-0.1233,0.1676,0.0000,0.0000,0.0000,20.0000,3.4748,2.3354,24.8720,42.8739,0.0546,0.000584,-0.4788,-0.5213,0.1362,0.3851,-0.4788,-0.0066,-6.2821,-3.6723,-0.9913,-0.0000,-0.016578,-0.014257,0.027005,0.0009,0.0023,-0.0045,-180.0000,-0.0000,0.0000
145,1.4500,-0.0682,0.0666,-0.1140,0.1486,0.0000,0.0000,0.0000,20.0000,3.3460,2.3945,13.7551,41.5779,0.0560,0.000394,-0.4788,-0.5213,0.1362,0.3851,-0.4788,-0.0066,-6.2821,-3.6723,-0.9913,-0.0000,-0.015993,-0.014138,0.025766,0.0005,0.0014,-0.0040,-180.0000,-0.0000,0.0000
146,1.4600,-0.0435,0.0458,-0.0932,0.1126,0.0000,0.0000,0.0000,20.0000,2.9039,2.4347,45.4349,40.9188,0.0571,0.000473,-0.4788,-0.5213,0.1362,0.3851,-0.4788,-0.0066,-6.2821,-3.6723,-0.9913,-0.0000,-0.013165,-0.011963,0.022952,-0.0009,-0.0007,-0.0041,-180.0000,-0.0000,0.0000
147,1.4700,-0.0136,0.0204,-0.0699,0.0741,0.0000,0.0000,0.0000,20.0000,2.2425,2.4423,71.0906,41.8728,0.0580,0.000368,-0.4788,-0.5213,0.1362,0.3851,-0.4788,-0.0066,-6.2821,-3.6723,-0.9913,-0.0000,-0.008594,-0.008195,0.019023,-0.0016,-0.0015,-0.0034,-180.0000,-0.0000,0.0000
148,1.4800,0.0106,0.0057,-0.0518,0.0531,0.0000,0.0000,0.0000,20.0000,1.6103,2.4139,73.3100,43.5411,0.0586,0.000329,-0.4788,-0.5213,0.1362,0.3851,-0.4788,-0.0066,-6.2821,-3.6723,-0.9913,-0.0000,-0.003621,-0.004619,0.014995,-0.0014,-0.0013,-0.0034,-180.0000,-0.0000,0.0000
149,1.4900,0.0237,0.0045,-0.0414,0.0479,0.0000,0.0000,0.0000,20.0000,1.1974,2.3584,56.3655,44.7126,0.0590,0.000395,-0.4788,-0.5213,0.1362,0.3851,-0.4788,-0.0066,-6.2821,-3.6723,-0.9913,-0.0000,0.000440,-0.002519,0.011698,-0.0022,-0.0009,-0.0028,-180.0000,-0.0000,0.0000
150,1.5000,0.0276,0.0086,-0.0403,0.0496,0.0000,0.0000,0.0000,20.0000,1.0374,2.2901,33.6393,44.7285,0.0594,0.000548,-0.4788,-0.5213,0.1362,0.3851,-0.4788,-0.0066,-6.2821,-3.6723,-0.9913,-0.0000,0.003076,-0.001764,0.009749,-0.0029,-0.0002,-0.0035,-180.0000,-0.0000,0.0000
151,1.5100,0.0284,0.0207,-0.0467,0.0584,0.0000,0.0000,0.0000,20.0000,1.0676,2.2220,17.7862,43.6825,0.0597,0.000502,-0.4788,-0.5213,0.1362,0.3851,-0.4788,-0.0066,-6.2821,-3.6723,-0.9913,-0.0000,0.004605,-0.002549,0.009289,-0.0031,0.0011,-0.0027,-180.0000,-0.0000,0.0000
152,1.5200,0.0262,0.0437,-0.0501,0.0714,0.0000,0.0000,0.0000,20.0000,1.1943,2.1620,28.0459,42.5402,0.0601,0.000445,-0.4788,-0.5213,0.1362,0.3851,-0.4788,-0.0066,-6.2821,-3.6723,-0.9913,-0.0000,0.005221,-0.005284,0.009352,-0.0025,0.0017,-0.0036,-180.0000,-0.0000,0.0000
153,1.5300,0.0091,0.0640,-0.0455,0.0790,0.0000,0.0000,0.0000,20.0000,1.3842,2.1140,42.2238,42.1328,0.0607,0.000396,-0.5407,-0.6825,0.1654,0.5171,-0.5407,0.0048,-7.9636,-3.6907,-1.2199,-0.0000,0.003806,-0.009257,0.009562,-0.0033,0.0025,-0.0041,-180.0000,-0.0000,0.0000
154,1.5400,-0.0126,0.0758,-0.0381,0.0858,0.0000,0.0000,0.0000,20.0000,1.5475,2.0783,45.2024,42.2197,0.0615,0.000427,-0.5407,-0.6825,0.1654,0.5171,-0.5407,0.0048,-7.9636,-3.6907,-1.2199,-0.0000,0.000853,-0.012618,0.008918,-0.0010,0.0025,-0.0045,-180.0000,-0.0000,0.0000
155,1.5500,-0.0246,0.0830,-0.0339,0.0930,0.0000,0.0000,0.0000,20.0000,1.7323,2.0542,38.9719,42.2124,0.0623,0.000471,-0.5407,-0.6825,0.1654,0.5171,-0.5407,0.0048,-7.9636,-3.6907,-1.2199,-0.0000,-0.001987,-0.015168,0.008129,0.0003,0.0020,-0.0045,-180.0000,-0.0000,0.0000
156,1.5600,-0.0335,0.0812,-0.0356,0.0948,0.0000,0.0000,0.0000,20.0000,1.8689,2.0403,27.4673,41.7178,0.0633,0.000387,-0.5407,-0.6825,0.1654,0.5171,-0.5407,0.0048,-7.9636,-3.6907,-1.2199,-0.0000,-0.004440,-0.016371,0.007847,0.0011,0.0013,-0.0048,-180.0000,-0.0000,0.0000
157,1.5700,-0.0418,0.0738,-0.0379,0.0929,0.0000,0.0000,0.0000,20.0000,1.9256,2.0324,21.8331,40.7789,0.0642,0.000396,-0.5407,-0.6825,0.1654,0.5171,-0.5407,0.0048,-7.9636,-3.6907,-1.2199,-0.0000,-0.006620,-0.016266,0.007899,-0.0003,0.0011,-0.0042,-180.0000,-0.0000,0.0000
158,1.5800,-0.0386,0.0678,-0.0415,0.0884,0.0000,0.0000,0.0000,20.0000,1.9163,2.0263,11.7571,39.4596,0.0651,0.000395,-0.5407,-0.6825,0.1654,0.5171,-0.5407,0.0048,-7.9636,-3.6907,-1.2199,-0.0000,-0.007492,-0.015575,0.008278,-0.0005,0.0009,-0.0034,-180.0000,-0.0000,0.0000
159,1.5900,-0.0380,0.0626,-0.0469,0.0870,0.0000,0.0000,0.0000,20.0000,1.8916,2.0196,12.4941,37.9560,0.0661,0.000349,-0.5407,-0.6825,0.1654,0.5171,-0.5407,0.0048,-7.9636,-3.6907,-1.2199,-0.0000,-0.007891,-0.014642,0.009008,-0.0017,0.0018,-0.0039,-180.0000,-0.0000,0.0000
160,1.6000,-0.0503,0.0632,-0.0502,0.0951,0.0000,0.0000,0.0000,20.0000,1.9544,2.0142,16.8209,36.6744,0.0670,0.000369,-0.5407,-0.6825,0.1654,0.5171,-0.5407,0.0048,-7.9636,-3.6907,-1.2199,-0.0000,-0.009333,-0.014154,0.009724,-0.0018,0.0023,-0.0034,-180.0000,-0.0000,0.0000
161,1.6100,-0.0626,0.0705,-0.0498,0.1066,0.0000,0.0000,0.0000,20.0000,2.1031,2.0150,20.7356,35.6900,0.0680,0.000346,-0.5407,-0.6825,0.1654,0.5171,-0.5407,0.0048,-7.9636,-3.6907,-1.2199,-0.0000,-0.011333,-0.014582,0.010061,-0.0018,0.0023,-0.0035,-180.0000,-0.0000,0.0000
162,1.6200,-0.0643,0.0728,-0.0518,0.1100,0.0000,0.0000,0.0000,20.0000,2.2197,2.0231,13.7799,34.6761,0.0690,0.000468,-0.5407,-0.6825,0.1654,0.5171,-0.5407,0.0048,-7.9636,-3.6907,-1.2199,-0.0000,-0.012589,-0.015018,0.010426,-0.0011,0.0010,-0.0028,-180.0000,-0.0000,0.0000
163,1.6300,-0.0561,0.0773,-0.0574,0.1114,0.0000,0.0000,0.0000,20.0000,2.2920,2.0359,10.0638,33.4244,0.0701,0.000312,-0.5407,-0.6825,0.1654,0.5171,-0.5407,0.0048,-7.9636,-3.6907,-1.2199,-0.0000,-0.012438,-0.015680,0.011168,-0.0011,-0.0001,-0.0032,-180.0000,-0.0000,0.0000
164,1.6400,-0.0441,0.0874,-0.0618,0.1158,0.0000,0.0000,0.0000,20.0000,2.3618,2.0519,20.4846,32.4260,0.0713,0.000507,-0.5407,-0.6825,0.1654,0.5171,-0.5407,0.0048,-7.9636,-3.6907,-1.2199,-0.0000,-0.011134,-0.017025,0.011999,-0.0007,-0.0011,-0.0023,-180.0000,-0.0000,0.0000
165,1.6500,-0.0250,0.0885,-0.0615,0.1106,0.0000,0.0000,0.0000,20.0000,2.3325,2.0681,28.0756,31.9779,0.0725,0.000323,-0.5407,-0.6825,0.1654,0.5171,-0.5407,0.0048,-7.9636,-3.6907,-1.2199,-0.0000,-0.008479,-0.017844,0.012399,-0.0010,-0.0009,-0.0012,-180.0000,-0.0000,0.0000
166,1.6600,-0.0103,0.0859,-0.0594,0.1049,0.0000,0.0000,0.0000,20.0000,2.2541,2.0805,29.5821,31.8047,0.0737,0.000337,-0.5407,-0.6825,0.1654,0.5171,-0.5407,0.0048,-7.9636,-3.6907,-1.2199,-0.0000,-0.005525,-0.018001,0.012392,0.0002,0.0022,-0.0006,-180.0000,-0.0000,0.0000
167,1.6700,-0.0120,0.0755,-0.0564,0.0950,0.0000,0.0000,0.0000,20.0000,2.1244,2.0865,18.0498,31.3652,0.0749,0.000357,-0.5407,-0.6825,0.1654,0.5171,-0.5407,0.0048,-7.9636,-3.6907,-1.2199,-0.0000,-0.004051,-0.017014,0.012059,-0.0005,0.0032,-0.0007,-180.0000,-0.0000,0.0000
168,1.6800,-0.0248,0.0528,-0.0498,0.0767,0.0000,0.0000,0.0000,20.0000,1.8609,2.0813,30.1135,30.9646,0.0759,0.000333,-0.5407,-0.6825,0.1654,0.5171,-0.5407,0.0048,-7.9636,-3.6907,-1.2199,-0.0000,-0.004508,-0.014166,0.011194,0.0004,0.0038,-0.0006,-180.0000,-0.0000,0.0000
169,1.6900,-0.0331,0.0389,-0.0437,0.0672,0.0000,0.0000,0.0000,20.0000,1.6046,2.0622,33.7444,31.0176,0.0768,0.000338,-0.5407,-0.6825,0.1654,0.5171,-0.5407,0.0048,-7.9636,-3.6907,-1.2199,-0.0000,-0.005584,-0.011168,0.010078,-0.0001,0.0037,-0.0006,-180.0000,-0.0000,0.0000
170,1.7000,-0.0398,0.0380,-0.0386,0.0673,0.0000,0.0000,0.0000,20.0000,1.4667,2.0332,24.4579,30.9122,0.0776,0.000419,-0.5407,-0.6825,0.1654,0.5171,-0.5407,0.0048,-7.9636,-3.6907,-1.2199,-0.0000,-0.006839,-0.009406,0.008938,-0.0011,0.0031,-0.0020,-180.0000,-0.0000,0.0000
171,1.7100,-0.0579,0.0379,-0.0348,0.0775,0.0000,0.0000,0.0000,20.0000,1.4833,2.0025,28.7163,30.6743,0.0783,0.000372,-0.5407,-0.6825,0.1654,0.5171,-0.5407,0.0048,-7.9636,-3.6907,-1.2199,-0.0000,-0.009324,-0.008399,0.007909,-0.0016,0.0022,-0.0038,-180.0000,-0.0000,0.0000
172,1.7200,-0.0753,0.0438,-0.0333,0.0933,0.0000,0.0000,0.0000,20.0000,1.6628,1.9789,31.7902,30.6511,0.0790,0.000376,-0.5407,-0.6825,0.1654,0.5171,-0.5407,0.0048,-7.9636,-3.6907,-1.2199,-0.0000,-0.012417,-0.008417,0.007174,-0.0005,0.0024,-0.0035,-180.0000,-0.0000,0.0000
173,1.7300,-0.0811,0.0563,-0.0377,0.1057,0.0000,0.0000,0.0000,20.0000,1.9619,1.9697,30.9822,30.6916,0.0798,0.000489,-0.6157,-0.8106,0.2048,0.6058,-0.6157,-0.0017,-8.1376,-3.7080,-0.9926,-0.0000,-0.014907,-0.010193,0.007669,-0.0002,0.0021,-0.0016,-180.0000,-0.0000,0.0000
174,1.7400,-0.0823,0.0596,-0.0477,0.1122,0.0000,0.0000,0.0000,20.0000,2.1901,1.9756,23.2371,30.4945,0.0808,0.000505,-0.6157,-0.8106,0.2048,0.6058,-0.6157,-0.0017,-8.1376,-3.7080,-0.9926,-0.0000,-0.016371,-0.011487,0.008926,0.0006,0.0016,-0.0020,-180.0000,-0.0000,0.0000
175,1.7500,-0.0804,0.0605,-0.0598,0.1170,0.0000,0.0000,0.0000,20.0000,2.3555,1.9919,21.1783,30.0387,0.0819,0.000470,-0.6157,-0.8106,0.2048,0.6058,-0.6157,-0.0017,-8.1376,-3.7080,-0.9926,-0.0000,-0.016959,-0.012267,0.010805,0.0023,0.0018,-0.0023,-180.0000,-0.0000,0.0000
176,1.7600,-0.0719,0.0629,-0.0705,0.1188,0.0000,0.0000,0.0000,20.0000,2.4543,2.0146,22.5802,29.5899,0.0831,0.000456,-0.6157,-0.8106,0.2048,0.6058,-0.6157,-0.0017,-8.1376,-3.7080,-0.9926,-0.0000,-0.016405,-0.012923,0.012894,0.0024,0.0012,-0.0015,-180.0000,-0.0000,0.0000
177,1.7700,-0.0633,0.0604,-0.0798,0.1184,0.0000,0.0000,0.0000,20.0000,2.4974,2.0400,23.8460,29.2391,0.0843,0.000453,-0.6157,-0.8106,0.2048,0.6058,-0.6157,-0.0017,-8.1376,-3.7080,-0.9926,-0.0000,-0.015201,-0.013004,0.014951,0.0019,0.0000,-0.0012,-180.0000,-0.0000,0.0000
178,1.7800,-0.0628,0.0584,-0.0854,0.1210,0.0000,0.0000,0.0000,20.0000,2.5490,2.0666,18.3608,28.7916,0.0856,0.000479,-0.6157,-0.8106,0.2048,0.6058,-0.6157,-0.0017,-8.1376,-3.7080,-0.9926,-0.0000,-0.014457,-0.012827,0.016620,0.0005,-0.0005,-0.0026,-180.0000,-0.0000,0.0000
179,1.7900,-0.0664,0.0585,-0.0851,0.1227,0.0000,0.0000,0.0000,20.0000,2.5955,2.0944,8.6868,27.9517,0.0870,0.000479,-0.6157,-0.8106,0.2048,0.6058,-0.6157,-0.0017,-8.1376,-3.7080,-0.9926,-0.0000,-0.014373,-0.012713,0.017477,0.0001,-0.0002,-0.0043,-180.0000,-0.0000,0.0000
180,1.8000,-0.0708,0.0525,-0.0828,0.1210,0.0000,0.0000,0.0000,20.0000,2.5980,2.1220,8.1254,26.8765,0.0883,0.000462,-0.6157,-0.8106,0.2048,0.6058,-0.6157,-0.0017,-8.1376,-3.7080,-0.9926,-0.0000,-0.014745,-0.012023,0.017692,-0.0009,-0.0006,-0.0037,-180.0000,-0.0000,0.0000
181,1.8100,-0.0689,0.0477,-0.0780,0.1144,0.0000,0.0000,0.0000,20.0000,2.5293,2.1463,9.7780,25.8905,0.0896,0.000445,-0.6157,-0.8106,0.2048,0.6058,-0.6157,-0.0017,-8.1376,-3.7080,-0.9926,-0.0000,-0.014727,-0.011132,0.017290,0.0003,-0.0013,-0.0038,-180.0000,-0.0000,0.0000
182,1.8200,-0.0573,0.0512,-0.0682,0.1028,0.0000,0.0000,0.0000,20.0000,2.3691,2.1630,17.2685,25.2102,0.0909,0.000350,-0.6157,-0.8106,0.2048,0.6058,-0.6157,-0.0017,-8.1376,-3.7080,-0.9926,-0.0000,-0.013532,-0.010976,0.016053,0.0010,-0.0018,-0.0052,-180.0000,-0.0000,0.0000
183,1.8300,-0.0424,0.0524,-0.0554,0.0873,0.0000,0.0000,0.0000,20.0000,2.1147,2.1673,29.5196,25.1103,0.0920,0.000368,-0.6157,-0.8106,0.2048,0.6058,-0.6157,-0.0017,-8.1376,-3.7080,-0.9926,-0.0000,-0.011353,-0.010982,0.014061,0.0018,-0.0019,-0.0058,-180.0000,-0.0000,0.0000
184,1.8400,-0.0306,0.0550,-0.0440,0.0768,0.0000,0.0000,0.0000,20.0000,1.8575,2.1574,33.2195,25.4546,0.0931,0.000434,-0.6157,-0.8106,0.2048,0.6058,-0.6157,-0.0017,-8.1376,-3.7080,-0.9926,-0.0000,-0.008939,-0.011227,0.011792,0.0020,-0.0018,-0.0053,-180.0000,-0.0000,0.0000
185,1.8500,-0.0241,0.0694,-0.0362,0.0820,0.0000,0.0000,0.0000,20.0000,1.7504,2.1379,32.5877,25.8644,0.0941,0.000374,-0.6157,-0.8106,0.2048,0.6058,-0.6157,-0.0017,-8.1376,-3.7080,-0.9926,-0.0000,-0.006943,-0.012782,0.009738,0.0024,-0.0011,-0.0051,-180.0000,-0.0000,0.0000
186,1.8600,-0.0246,0.0916,-0.0294,0.0992,0.0000,0.0000,0.0000,20.0000,1.8636,2.1197,37.1714,26.3603,0.0953,0.000341,-0.6157,-0.8106,0.2048,0.6058,-0.6157,-0.0017,-8.1376,-3.7080,-0.9926,-0.0000,-0.005870,-0.015827,0.007896,0.0010,-0.0008,-0.0051,-180.0000,-0.0000,0.0000
187,1.8700,-0.0284,0.1150,-0.0242,0.1209,0.0000,0.0000,0.0000,20.0000,2.1568,2.1137,42.9053,27.1127,0.0965,0.000355,-0.6157,-0.8106,0.2048,0.6058,-0.6157,-0.0017,-8.1376,-3.7080,-0.9926,-0.0000,-0.005647,-0.019823,0.006350,0.0014,-0.0002,-0.0046,-180.0000,-0.0000,0.0000
188,1.8800,-0.0308,0.1345,-0.0260,0.1404,0.0000,0.0000,0.0000,20.0000,2.5266,2.1262,41.7721,27.9502,0.0980,0.000435,-0.6157,-0.8106,0.2048,0.6058,-0.6157,-0.0017,-8.1376,-3.7080,-0.9926,-0.0000,-0.005752,-0.023942,0.005662,0.0016,0.0009,-0.0033,-180.0000,-0.0000,0.0000
189,1.8900,-0.0358,0.1422,-0.0341,0.1506,0.0000,0.0000,0.0000,20.0000,2.8328,2.1567,30.7702,28.4080,0.0996,0.000417,-0.6157,-0.8106,0.2048,0.6058,-0.6157,-0.0017,-8.1376,-3.7080,-0.9926,-0.0000,-0.006300,-0.026941,0.006080,0.0014,0.0019,-0.0020,-180.0000,-0.0000,0.0000
190,1.9000,-0.0417,0.1343,-0.0433,0.1472,0.0000,0.0000,0.0000,20.0000,2.9565,2.1973,16.5419,28.1466,0.1014,0.000554,-0.6157,-0.8106,0.2048,0.6058,-0.6157,-0.0017,-8.1376,-3.7080,-0.9926,-0.0000,-0.007182,-0.027757,0.007217,0.0013,0.0015,-0.0017,-180.0000,-0.0000,0.0000
191,1.9100,-0.0482,0.1166,-0.0512,0.1362,0.0000,0.0000,0.0000,20.0000,2.8972,2.2374,22.6284,27.6756,0.1031,0.000538,-0.6157,-0.8106,0.2048,0.6058,-0.6157,-0.0017,-8.1376,-3.7080,-0.9926,-0.0000,-0.008308,-0.026383,0.008619,0.0025,0.0020,-0.0020,-180.0000,-0.0000,0.0000
192,1.9200,-0.0591,0.0929,-0.0548,0.1230,0.0000,0.0000,0.0000,20.0000,2.7077,2.2685,37.7324,27.8134,0.1048,0.000479,-0.6157,-0.8106,0.2048,0.6058,-0.6157,-0.0017,-8.1376,-3.7080,-0.9926,-0.0000,-0.009998,-0.023202,0.009742,0.0019,0.0029,-0.0011,-180.0000,-0.0000,0.0000
193,1.9300,-0.0765,0.0687,-0.0484,0.1136,0.0000,0.0000,0.0000,20.0000,2.5560,2.2885,48.6355,28.6589,0.1064,0.000420,-0.6850,-0.9439,0.2633,0.6806,-0.6850,-0.0010,-8.2966,-3.7336,-0.9934,0.0000,-0.013093,-0.019471,0.010137,0.0008,0.0037,-0.0019,-180.0000,0.0000,0.0000
194,1.9400,-0.0947,0.0461,-0.0344,0.1108,0.0000,0.0000,0.0000,20.0000,2.4156,2.2993,57.2893,29.9958,0.1077,0.000413,-0.6850,-0.9439,0.2633,0.6806,-0.6850,-0.0010,-8.2966,-3.7336,-0.9934,0.0000,-0.016600,-0.015102,0.008937,0.0002,0.0034,-0.0021,-180.0000,0.0000,0.0000
195,1.9500,-0.1065,0.0285,-0.0182,0.1117,0.0000,0.0000,0.0000,20.0000,2.3461,2.3038,56.9684,31.4883,0.1088,0.000490,-0.6850,-0.9439,0.2633,0.6806,-0.6850,-0.0010,-8.2966,-3.7336,-0.9934,0.0000,-0.019685,-0.010903,0.006636,0.0000,0.0034,-0.0023,-180.0000,0.0000,0.0000
196,1.9600,-0.1118,0.0223,-0.0054,0.1141,0.0000,0.0000,0.0000,20.0000,2.3628,2.3066,44.9712,32.5600,0.1097,0.000910,-0.6850,-0.9439,0.2633,0.6806,-0.6850,-0.0010,-8.2966,-3.7336,-0.9934,0.0000,-0.021881,-0.007937,0.004066,-0.0008,0.0038,-0.0023,-180.0000,0.0000,0.0000
197,1.9700,-0.1117,0.0267,-0.0024,0.1149,0.0000,0.0000,0.0000,20.0000,2.4119,2.3110,24.0883,32.6683,0.1105,0.000698,-0.6850,-0.9439,0.2633,0.6806,-0.6850,-0.0010,-8.2966,-3.7336,-0.9934,0.0000,-0.023045,-0.006721,0.002343,-0.0004,0.0029,-0.0032,-180.0000,0.0000,0.0000
198,1.9800,-0.1093,0.0408,-0.0089,0.1170,0.0000,0.0000,0.0000,20.0000,2.4635,2.3180,8.5927,31.7702,0.1114,0.000404,-0.6850,-0.9439,0.2633,0.6806,-0.6850,-0.0010,-8.2966,-3.7336,-0.9934,0.0000,-0.023395,-0.007442,0.002034,-0.0003,0.0023,-0.0045,-180.0000,0.0000,0.0000
199,1.9900,-0.1043,0.0655,-0.0169,0.1243,0.0000,0.0000,0.0000,20.0000,2.5383,2.3281,29.4843,31.0698,0.1124,0.000452,-0.6850,-0.9439,0.2633,0.6806,-0.6850,-0.0010,-8.2966,-3.7336,-0.9934,0.0000,-0.023045,-0.010302,0.002659,-0.0010,0.0006,-0.0057,-180.0000,0.0000,0.0000
200,2.0000,-0.0934,0.0923,-0.0221,0.1332,0.0000,0.0000,0.0000,20.0000,2.6373,2.3424,45.2673,31.4167,0.1137,0.000335,-0.6850,-0.9439,0.2633,0.6806,-0.6850,-0.0010,-8.2966,-3.7336,-0.9934,0.0000,-0.021717,-0.014544,0.003516,0.0001,-0.0007,-0.0049,-180.0000,0.0000,0.0000
201,2.0100,-0.0777,0.1029,-0.0252,0.1314,0.0000,0.0000,0.0000,20.0000,2.6732,2.3596,41.8080,32.0835,0.1151,0.000506,-0.6850,-0.9439,0.2633,0.6806,-0.6850,-0.0010,-8.2966,-3.7336,-0.9934,0.0000,-0.019370,-0.017914,0.004301,-0.0016,-0.0024,-0.0031,-180.0000,0.0000,0.0000
202,2.0200,-0.0538,0.1012,-0.0211,0.1166,0.0000,0.0000,0.0000,20.0000,2.5426,2.3732,40.8054,32.5908,0.1166,0.000332,-0.6850,-0.9439,0.2633,0.6806,-0.6850,-0.0010,-8.2966,-3.7336,-0.9934,0.0000,-0.015643,-0.019575,0.004314,-0.0016,-0.0021,-0.0035,-180.0000,0.0000,0.0000
203,2.0300,-0.0216,0.0970,-0.0108,0.0999,0.0000,0.0000,0.0000,20.0000,2.2776,2.3753,54.2735,33.4131,0.1180,0.000311,-0.6850,-0.9439,0.2633,0.6806,-0.6850,-0.0010,-8.2966,-3.7336,-0.9934,0.0000,-0.010334,-0.020030,0.003279,0.0001,-0.0024,-0.0010,-180.0000,0.0000,0.0000
204,2.0400,0.0063,0.0919,-0.0046,0.0922,0.0000,0.0000,0.0000,20.0000,2.0363,2.3632,58.8032,34.6852,0.1193,0.000609,-0.6850,-0.9439,0.2633,0.6806,-0.6850,-0.0010,-8.2966,-3.7336,-0.9934,0.0000,-0.004586,-0.019730,0.002079,0.0019,-0.0012,-0.0018,-180.0000,0.0000,0.0000
205,2.0500,0.0226,0.0848,-0.0015,0.0878,0.0000,0.0000,0.0000,20.0000,1.8856,2.3411,50.0233,35.7704,0.1203,0.000519,-0.6850,-0.9439,0.2633,0.6806,-0.6850,-0.0010,-8.2966,-3.7336,-0.9934,0.0000,0.000235,-0.018823,0.001099,0.0017,-0.0001,-0.0034,-180.0000,0.0000,0.0000
206,2.0600,0.0359,0.0789,0.0053,0.0869,0.0000,0.0000,0.0000,20.0000,1.8191,2.3142,43.2237,36.3674,0.1212,0.000405,-0.6850,-0.9439,0.2633,0.6806,-0.6850,-0.0010,-8.2966,-3.7336,-0.9934,0.0000,0.004226,-0.017693,-0.000116,0.0019,0.0003,-0.0046,-180.0000,0.0000,0.0000
207,2.0700,0.0450,0.0714,0.0099,0.0850,0.0000,0.0000,0.0000,20.0000,1.7899,2.2862,35.9516,36.5445,0.1220,0.000365,-0.6850,-0.9439,0.2633,0.6806,-0.6850,-0.0010,-8.2966,-3.7336,-0.9934,0.0000,0.007332,-0.016281,-0.001250,0.0018,0.0003,-0.0044,-180.0000,0.0000,0.0000
208,2.0800,0.0472,0.0567,0.0101,0.0744,0.0000,0.0000,0.0000,20.0000,1.6885,2.2561,30.5463,36.3632,0.1225,0.000407,-0.6850,-0.9439,0.2633,0.6806,-0.6850,-0.0010,-8.2966,-3.7336,-0.9934,0.0000,0.009255,-0.013996,-0.001892,0.0017,0.0009,-0.0050,-180.0000,0.0000,0.0000
209,2.0900,0.0496,0.0421,0.0146,0.0667,0.0000,0.0000,0.0000,20.0000,1.5645,2.2215,31.4569,36.0683,0.1229,0.000317,-0.6850,-0.9439,0.2633,0.6806,-0.6850,-0.0010,-8.2966,-3.7336,-0.9934,0.0000,0.010540,-0.011241,-0.002702,0.0005,0.0010,-0.0041,-180.0000,0.0000,0.0000
210,2.1000,0.0513,0.0287,0.0219,0.0628,0.0000,0.0000,0.0000,20.0000,1.4659,2.1826,32.2768,35.8372,0.1230,0.000439,-0.6850,-0.9439,0.2633,0.6806,-0.6850,-0.0010,-8.2966,-3.7336,-0.9934,0.0000,0.011401,-0.008360,-0.003874,0.0006,0.0010,-0.0037,-180.0000,0.0000,0.0000
211,2.1100,0.0426,0.0112,0.0259,0.0511,0.0000,0.0000,0.0000,20.0000,1.3030,2.1387,35.4415,35.7284,0.1229,0.000360,-0.6850,-0.9439,0.2633,0.6806,-0.6850,-0.0010,-8.2966,-3.7336,-0.9934,0.0000,0.010984,-0.004997,-0.004913,0.0001,0.0016,-0.0023,-180.0000,0.0000,0.0000
212,2.1200,0.0214,-0.0062,0.0302,0.0375,0.0000,0.0000,0.0000,20.0000,1.0530,2.0859,44.3262,35.9570,0.1226,0.000320,-0.6850,-0.9439,0.2633,0.6806,-0.6850,-0.0010,-8.2966,-3.7336,-0.9934,0.0000,0.008608,-0.001389,-0.005903,-0.0008,0.0014,-0.0013,-180.0000,0.0000,0.0000
213,2.1300,-0.0020,-0.0202,0.0357,0.0411,0.0000,0.0000,0.0000,20.0000,0.8246,2.0228,50.1560,36.5777,0.1222,0.000360,-0.7829,-1.0162,0.3129,0.7032,-0.7829,-0.0013,-6.2174,-3.7365,-0.9923,0.0000,0.004477,0.001310,-0.006800,-0.0025,0.0003,-0.0014,-180.0000,-0.0000,0.0000
214,2.1400,-0.0160,-0.0347,0.0371,0.0533,0.0000,0.0000,0.0000,20.0000,0.8591,1.9578,47.5928,37.2541,0.1217,0.000355,-0.7829,-1.0162,0.3129,0.7032,-0.7829,-0.0013,-6.2174,-3.7365,-0.9923,0.0000,0.000784,0.004246,-0.007428,-0.0044,0.0000,-0.0028,-180.0000,-0.0000,0.0000
215,2.1500,-0.0147,-0.0352,0.0342,0.0513,0.0000,0.0000,0.0000,20.0000,0.9591,1.9001,25.3581,37.2113,0.1211,0.000341,-0.7829,-1.0162,0.3129,0.7032,-0.7829,-0.0013,-6.2174,-3.7365,-0.9923,0.0000,-0.001129,0.005910,-0.007469,-0.0048,0.0001,-0.0019,-180.0000,-0.0000,0.0000
216,2.1600,-0.0059,-0.0174,0.0278,0.0333,0.0000,0.0000,0.0000,20.0000,0.8589,1.8456,10.9035,36.1617,0.1206,0.000455,-0.7829,-1.0162,0.3129,0.7032,-0.7829,-0.0013,-6.2174,-3.7365,-0.9923,0.0000,-0.001295,0.005041,-0.006832,-0.0047,-0.0001,-0.0028,-180.0000,-0.0000,0.0000
217,2.1700,0.0041,0.0050,0.0168,0.0180,0.0000,0.0000,0.0000,20.0000,0.5852,1.7838,32.3263,35.3615,0.1203,0.000518,-0.7829,-1.0162,0.3129,0.7032,-0.7829,-0.0013,-6.2174,-3.7365,-0.9923,0.0000,-0.000385,0.002309,-0.005363,-0.0041,-0.0010,-0.0033,-180.0000,-0.0000,0.0000
218,2.1800,0.0150,0.0295,0.0028,0.0332,0.0000,0.0000,0.0000,20.0000,0.3752,1.7121,48.1644,35.6302,0.1202,0.000493,-0.7829,-1.0162,0.3129,0.7032,-0.7829,-0.0013,-6.2174,-3.7365,-0.9923,0.0000,0.001203,-0.001659,-0.003143,-0.0021,-0.0002,-0.0023,-180.0000,-0.0000,0.0000
219,2.1900,0.0176,0.0536,-0.0073,0.0569,0.0000,0.0000,0.0000,20.0000,0.6744,1.6468,52.4453,36.4374,0.1205,0.000469,-0.7829,-1.0162,0.3129,0.7032,-0.7829,-0.0013,-6.2174,-3.7365,-0.9923,0.0000,0.002336,-0.006262,-0.000900,-0.0007,0.0003,-0.0015,-180.0000,-0.0000,0.0000
220,2.2000,0.0058,0.0647,-0.0072,0.0653,0.0000,0.0000,0.0000,20.0000,1.0061,1.6024,38.7872,36.9423,0.1211,0.000402,-0.7829,-1.0162,0.3129,0.7032,-0.7829,-0.0013,-6.2174,-3.7365,-0.9923,0.0000,0.001777,-0.009897,0.000334,-0.0018,-0.0003,-0.0030,-180.0000,-0.0000,0.0000
221,2.2100,-0.0027,0.0709,-0.0032,0.0710,0.0000,0.0000,0.0000,20.0000,1.2539,1.5764,28.6754,36.7657,0.1218,0.000444,-0.7829,-1.0162,0.3129,0.7032,-0.7829,-0.0013,-6.2174,-3.7365,-0.9923,0.0000,0.000624,-0.012508,0.000610,-0.0003,0.0000,-0.0025,-180.0000,-0.0000,0.0000
222,2.2200,-0.0058,0.0820,-0.0017,0.0822,0.0000,0.0000,0.0000,20.0000,1.5054,1.5656,27.0307,36.2754,0.1227,0.000356,-0.7829,-1.0162,0.3129,0.7032,-0.7829,-0.0013,-6.2174,-3.7365,-0.9923,0.0000,-0.000327,-0.015038,0.000609,0.0001,0.0018,-0.0034,-180.0000,-0.0000,0.0000
223,2.2300,-0.0184,0.0890,-0.0008,0.0909,0.0000,0.0000,0.0000,20.0000,1.7249,1.5683,27.3769,35.7764,0.1237,0.000393,-0.7829,-1.0162,0.3129,0.7032,-0.7829,-0.0013,-6.2174,-3.7365,-0.9923,0.0000,-0.002114,-0.017111,0.000525,-0.0003,0.0023,-0.0035,-180.0000,-0.0000,0.0000
224,2.2400,-0.0334,0.0923,-0.0040,0.0982,0.0000,0.0000,0.0000,20.0000,1.9127,1.5821,28.8195,35.3540,0.1249,0.000482,-0.7829,-1.0162,0.3129,0.7032,-0.7829,-0.0013,-6.2174,-3.7365,-0.9923,0.0000,-0.004597,-0.018549,0.000792,-0.0006,0.0027,-0.0034,-180.0000,-0.0000,0.0000
225,2.2500,-0.0389,0.0959,-0.0165,0.1048,0.0000,0.0000,0.0000,20.0000,2.0831,1.6050,26.1961,34.9224,0.1262,0.000525,-0.7829,-1.0162,0.3129,0.7032,-0.7829,-0.0013,-6.2174,-3.7365,-0.9923,0.0000,-0.006510,-0.019666,0.002190,0.0002,0.0034,-0.0023,-180.0000,-0.0000,0.0000
226,2.2600,-0.0413,0.1018,-0.0326,0.1146,0.0000,0.0000,0.0000,20.0000,2.2712,1.6364,29.4703,34.5325,0.1277,0.000484,-0.7829,-1.0162,0.3129,0.7032,-0.7829,-0.0013,-6.2174,-3.7365,-0.9923,0.0000,-0.007798,-0.020836,0.004568,0.0007,0.0025,-0.0020,-180.0000,-0.0000,0.0000
227,2.2700,-0.0410,0.1128,-0.0473,0.1290,0.0000,0.0000,0.0000,20.0000,2.5172,1.6781,33.2498,34.3579,0.1295,0.000427,-0.7829,-1.0162,0.3129,0.7032,-0.7829,-0.0013,-6.2174,-3.7365,-0.9923,0.0000,-0.008466,-0.022539,0.007345,0.0009,0.0013,-0.0007,-180.0000,-0.0000,0.0000
228,2.2800,-0.0344,0.1267,-0.0611,0.1449,0.0000,0.0000,0.0000,20.0000,2.8072,1.7323,37.0858,34.4025,0.1315,0.000355,-0.7829,-1.0162,0.3129,0.7032,-0.7829,-0.0013,-6.2174,-3.7365,-0.9923,0.0000,-0.008158,-0.024830,0.010245,0.0010,0.0009,-0.0019,-180.0000,-0.0000,0.0000
229,2.2900,-0.0293,0.1358,-0.0708,0.1559,0.0000,0.0000,0.0000,20.0000,3.0755,1.7988,33.9316,34.4633,0.1337,0.000451,-0.7829,-1.0162,0.3129,0.7032,-0.7829,-0.0013,-6.2174,-3.7365,-0.9923,0.0000,-0.007461,-0.026950,0.012801,0.0005,0.0000,-0.0018,-180.0000,-0.0000,0.0000
230,2.3000,-0.0292,0.1345,-0.0733,0.1559,0.0000,0.0000,0.0000,20.0000,3.2228,1.8731,19.5661,34.0390,0.1361,0.000507,-0.7829,-1.0162,0.3129,0.7032,-0.7829,-0.0013,-6.2174,-3.7365,-0.9923,0.0000,-0.007043,-0.027939,0.014437,-0.0006,-0.0000,-0.0025,-180.0000,-0.0000,0.0000
231,2.3100,-0.0310,0.1159,-0.0702,0.1390,0.0000,0.0000,0.0000,20.0000,3.1306,1.9448,14.7703,33.1110,0.1384,0.000370,-0.7829,-1.0162,0.3129,0.7032,-0.7829,-0.0013,-6.2174,-3.7365,-0.9923,0.0000,-0.006980,-0.026576,0.015002,-0.0025,-0.0009,-0.0038,-180.0000,-0.0000,0.0000
232,2.3200,-0.0285,0.0854,-0.0626,0.1097,0.0000,0.0000,0.0000,20.0000,2.7963,2.0008,36.3545,32.6957,0.1405,0.000362,-0.8216,-0.9969,0.3062,0.6908,-0.8216,-0.0054,-6.2264,-3.7349,-0.9926,0.0000,-0.006648,-0.022998,0.014451,-0.0038,-0.0009,-0.0034,-180.0000,-0.0000,0.0000
233,2.3300,-0.0191,0.0595,-0.0465,0.0778,0.0000,0.0000,0.0000,20.0000,2.2900,2.0306,51.4322,33.3117,0.1422,0.000457,-0.8216,-0.9969,0.3062,0.6908,-0.8216,-0.0054,-6.2264,-3.7349,-0.9926,0.0000,-0.005509,-0.018374,0.012507,-0.0051,-0.0017,-0.0026,-180.0000,-0.0000,0.0000
234,2.3400,0.0006,0.0507,-0.0242,0.0562,0.0000,0.0000,0.0000,20.0000,1.7745,2.0307,54.6762,34.3977,0.1435,0.000365,-0.8216,-0.9969,0.3062,0.6908,-0.8216,-0.0054,-6.2264,-3.7349,-0.9926,0.0000,-0.002902,-0.014908,0.009177,-0.0020,-0.0019,-0.0027,-180.0000,-0.0000,0.0000
235,2.3500,0.0211,0.0617,-0.0064,0.0656,0.0000,0.0000,0.0000,20.0000,1.5130,2.0094,51.1463,35.4161,0.1446,0.000431,-0.8216,-0.9969,0.3062,0.6908,-0.8216,-0.0054,-6.2264,-3.7349,-0.9926,0.0000,0.000598,-0.014065,0.005544,-0.0006,-0.0025,-0.0033,-180.0000,-0.0000,0.0000
236,2.3600,0.0313,0.0838,0.0012,0.0894,0.0000,0.0000,0.0000,20.0000,1.6402,1.9856,44.0266,36.0855,0.1457,0.000360,-0.8216,-0.9969,0.3062,0.6908,-0.8216,-0.0054,-6.2264,-3.7349,-0.9926,0.0000,0.003549,-0.015774,0.002760,-0.0004,-0.0024,-0.0030,-180.0000,-0.0000,0.0000
237,2.3700,0.0379,0.1049,-0.0031,0.1116,0.0000,0.0000,0.0000,20.0000,1.9756,1.9759,39.5705,36.3998,0.1468,0.000355,-0.8216,-0.9969,0.3062,0.6908,-0.8216,-0.0054,-6.2264,-3.7349,-0.9926,0.0000,0.005840,-0.018802,0.001645,0.0004,-0.0031,-0.0043,-180.0000,-0.0000,0.0000
238,2.3800,0.0424,0.1204,-0.0204,0.1293,0.0000,0.0000,0.0000,20.0000,2.3404,1.9859,37.7639,36.5245,0.1482,0.000366,-0.8216,-0.9969,0.3062,0.6908,-0.8216,-0.0054,-6.2264,-3.7349,-0.9926,0.0000,0.007538,-0.021985,0.002761,-0.0006,-0.0032,-0.0047,-180.0000,-0.0000,0.0000
239,2.3900,0.0363,0.1201,-0.0433,0.1327,0.0000,0.0000,0.0000,20.0000,2.5573,2.0113,33.6759,36.4803,0.1498,0.000468,-0.8216,-0.9969,0.3062,0.6908,-0.8216,-0.0054,-6.2264,-3.7349,-0.9926,0.0000,0.007852,-0.023671,0.005659,-0.0025,-0.0029,-0.0041,-180.0000,-0.0000,0.0000
240,2.4000,0.0255,0.1095,-0.0604,0.1276,0.0000,0.0000,0.0000,20.0000,2.6083,2.0428,34.3098,36.3434,0.1516,0.000511,-0.8216,-0.9969,0.3062,0.6908,-0.8216,-0.0054,-6.2264,-3.7349,-0.9926,0.0000,0.006935,-0.023493,0.008961,-0.0017,-0.0035,-0.0025,-180.0000,-0.0000,0.0000
241,2.4100,0.0288,0.1008,-0.0675,0.1247,0.0000,0.0000,0.0000,20.0000,2.6132,2.0740,27.2167,36.0365,0.1534,0.000503,-0.8216,-0.9969,0.3062,0.6908,-0.8216,-0.0054,-6.2264,-3.7349,-0.9926,0.0000,0.006743,-0.022485,0.011482,-0.0009,-0.0041,-0.0018,-180.0000,-0.0000,0.0000
242,2.4200,0.0420,0.0865,-0.0637,0.1153,0.0000,0.0000,0.0000,20.0000,2.5231,2.1012,25.6179,35.5074,0.1551,0.000440,-0.8216,-0.9969,0.3062,0.6908,-0.8216,-0.0054,-6.2264,-3.7349,-0.9926,0.0000,0.007943,-0.020448,0.012467,-0.0006,-0.0039,-0.0018,-180.0000,-0.0000,0.0000
243,2.4300,0.0501,0.0679,-0.0532,0.0998,0.0000,0.0000,0.0000,20.0000,2.3117,2.1186,33.9951,35.1938,0.1565,0.000499,-0.8216,-0.9969,0.3062,0.6908,-0.8216,-0.0054,-6.2264,-3.7349,-0.9926,0.0000,0.009399,-0.017422,0.011938,-0.0002,-0.0039,-0.0020,-180.0000,-0.0000,0.0000
244,2.4400,0.0612,0.0576,-0.0442,0.0950,0.0000,0.0000,0.0000,20.0000,2.1407,2.1245,35.4535,35.1679,0.1577,0.000467,-0.8216,-0.9969,0.3062,0.6908,-0.8216,-0.0054,-6.2264,-3.7349,-0.9926,0.0000,0.011298,-0.014687,0.010720,0.0001,-0.0032,-0.0027,-180.0000,-0.0000,0.0000
245,2.4500,0.0767,0.0553,-0.0440,0.1043,0.0000,0.0000,0.0000,20.0000,2.1434,2.1255,32.0598,35.0903,0.1588,0.000540,-0.8216,-0.9969,0.3062,0.6908,-0.8216,-0.0054,-6.2264,-3.7349,-0.9926,0.0000,0.013874,-0.012917,0.010005,-0.0006,-0.0024,-0.0045,-180.0000,-0.0000,0.0000
246,2.4600,0.0804,0.0542,-0.0550,0.1114,0.0000,0.0000,0.0000,20.0000,2.2315,2.1289,21.9622,34.6459,0.1597,0.000461,-0.8216,-0.9969,0.3062,0.6908,-0.8216,-0.0054,-6.2264,-3.7349,-0.9926,0.0000,0.015637,-0.011799,0.010687,-0.0009,-0.0001,-0.0051,-180.0000,-0.0000,0.0000
247,2.4700,0.0713,0.0585,-0.0718,0.1168,0.0000,0.0000,0.0000,20.0000,2.3274,2.1372,20.4848,33.9075,0.1608,0.000485,-0.8216,-0.9969,0.3062,0.6908,-0.8216,-0.0054,-6.2264,-3.7349,-0.9926,0.0000,0.015669,-0.011586,0.012724,-0.0011,0.0015,-0.0051,-180.0000,-0.0000,0.0000
248,2.4800,0.0666,0.0658,-0.0861,0.1272,0.0000,0.0000,0.0000,20.0000,2.4732,2.1516,26.4280,33.3326,0.1620,0.000449,-0.8216,-0.9969,0.3062,0.6908,-0.8216,-0.0054,-6.2264,-3.7349,-0.9926,0.0000,0.015189,-0.012176,0.015255,-0.0018,0.0019,-0.0052,-180.0000,-0.0000,0.0000
249,2.4900,0.0704,0.0706,-0.0911,0.1350,0.0000,0.0000,0.0000,20.0000,2.6352,2.1738,20.2707,32.7835,0.1633,0.000412,-0.8216,-0.9969,0.3062,0.6908,-0.8216,-0.0054,-6.2264,-3.7349,-0.9926,0.0000,0.015275,-0.012958,0.017124,-0.0013,0.0005,-0.0061,-180.0000,-0.0000,0.0000
250,2.5000,0.0761,0.0726,-0.0823,0.1336,0.0000,0.0000,0.0000,20.0000,2.7073,2.2012,8.5394,31.7725,0.1647,0.000346,-0.8216,-0.9969,0.3062,0.6908,-0.8216,-0.0054,-6.2264,-3.7349,-0.9926,0.0000,0.015861,-0.013567,0.017243,0.0002,0.0004,-0.0066,-180.0000,-0.0000,0.0000
251,2.5100,0.0798,0.0663,-0.0634,0.1216,0.0000,0.0000,0.0000,20.0000,2.6175,2.2265,20.0108,30.8100,0.1660,0.000399,-0.8216,-0.9969,0.3062,0.6908,-0.8216,-0.0054,-6.2264,-3.7349,-0.9926,0.0000,0.016526,-0.013242,0.015384,-0.0001,-0.0005,-0.0059,-180.0000,-0.0000,0.0000
252,2.5200,0.0761,0.0499,-0.0496,0.1036,0.0000,0.0000,0.0000,20.0000,2.4457,2.2433,23.7872,30.3198,0.1672,0.000487,-0.9203,-1.0748,0.3103,0.7646,-0.9203,0.0020,-6.2558,-3.7486,-0.9951,0.0000,0.016576,-0.012113,0.013291,-0.0001,-0.0013,-0.0051,-180.0000,-0.0000,0.0000
253,2.5300,0.0565,0.0287,-0.0512,0.0815,0.0000,0.0000,0.0000,20.0000,2.1241,2.2456,35.4888,30.2823,0.1681,0.000718,-0.9203,-1.0748,0.3103,0.7646,-0.9203,0.0020,-6.2558,-3.7486,-0.9951,0.0000,0.014615,-0.009339,0.012262,0.0001,-0.0003,-0.0047,-180.0000,-0.0000,0.0000
254,2.5400,0.0297,0.0053,-0.0655,0.0721,0.0000,0.0000,0.0000,20.0000,1.7846,2.2296,54.9442,31.1038,0.1689,0.000552,-0.9203,-1.0748,0.3103,0.7646,-0.9203,0.0020,-6.2558,-3.7486,-0.9951,0.0000,0.010825,-0.005451,0.013100,-0.0010,-0.0004,-0.0028,-180.0000,-0.0000,0.0000
255,2.5500,0.0020,-0.0163,-0.0864,0.0879,0.0000,0.0000,0.0000,20.0000,1.6754,2.2021,69.9893,32.8291,0.1696,0.000465,-0.9203,-1.0748,0.3103,0.7646,-0.9203,0.0020,-6.2558,-3.7486,-0.9951,0.0000,0.005935,-0.001128,0.015627,-0.0021,0.0005,-0.0011,-180.0000,-0.0000,0.0000
256,2.5600,-0.0294,-0.0306,-0.1096,0.1175,0.0000,0.0000,0.0000,20.0000,1.9503,2.1807,79.0516,35.1224,0.1702,0.000495,-0.9203,-1.0748,0.3103,0.7646,-0.9203,0.0020,-6.2558,-3.7486,-0.9951,0.0000,0.000081,0.002696,0.019315,-0.0014,0.0016,-0.0019,-180.0000,-0.0000,0.0000
257,2.5700,-0.0496,-0.0300,-0.1285,0.1410,0.0000,0.0000,0.0000,20.0000,2.4244,2.1810,68.5213,37.2492,0.1710,0.000453,-0.9203,-1.0748,0.3103,0.7646,-0.9203,0.0020,-6.2558,-3.7486,-0.9951,0.0000,-0.005174,0.004743,0.023206,-0.0006,0.0021,-0.0014,-180.0000,-0.0000,0.0000
258,2.5800,-0.0496,-0.0184,-0.1367,0.1466,0.0000,0.0000,0.0000,20.0000,2.7756,2.2041,41.2204,38.2186,0.1720,0.000427,-0.9203,-1.0748,0.3103,0.7646,-0.9203,0.0020,-6.2558,-3.7486,-0.9951,0.0000,-0.008075,0.004706,0.026135,-0.0002,0.0013,-0.0007,-180.0000,-0.0000,0.0000
259,2.5900,-0.0406,-0.0082,-0.1367,0.1429,0.0000,0.0000,0.0000,20.0000,2.9281,2.2397,20.0541,37.8015,0.1731,0.000481,-0.9203,-1.0748,0.3103,0.7646,-0.9203,0.0020,-6.2558,-3.7486,-0.9951,0.0000,-0.008762,0.003656,0.027699,0.0001,0.0021,0.0008,-180.0000,-0.0000,0.0000
260,2.6000,-0.0308,-0.0021,-0.1349,0.1384,0.0000,0.0000,0.0000,20.0000,2.9578,2.2784,14.9275,36.6843,0.1743,0.000474,-0.9203,-1.0748,0.3103,0.7646,-0.9203,0.0020,-6.2558,-3.7486,-0.9951,0.0000,-0.008139,0.002455,0.028330,0.0017,0.0027,0.0004,-180.0000,-0.0000,0.0000
261,2.6100,-0.0160,0.0069,-0.1313,0.1324,0.0000,0.0000,0.0000,20.0000,2.8963,2.3141,24.2242,35.7432,0.1756,0.000498,-0.9203,-1.0748,0.3103,0.7646,-0.9203,0.0020,-6.2558,-3.7486,-0.9951,0.0000,-0.006298,0.000883,0.028256,0.0011,0.0027,0.0006,-180.0000,-0.0000,0.0000
262,2.6200,-0.0046,0.0128,-0.1214,0.1222,0.0000,0.0000,0.0000,20.0000,2.7491,2.3421,28.2846,35.2212,0.1770,0.000452,-0.9203,-1.0748,0.3103,0.7646,-0.9203,0.0020,-6.2558,-3.7486,-0.9951,0.0000,-0.004128,-0.000573,0.027173,0.0009,0.0026,-0.0008,-180.0000,-0.0000,0.0000
263,2.6300,-0.0028,0.0195,-0.1069,0.1087,0.0000,0.0000,0.0000,20.0000,2.5300,2.3584,29.1987,34.8648,0.1784,0.000496,-0.9203,-1.0748,0.3103,0.7646,-0.9203,0.0020,-6.2558,-3.7486,-0.9951,0.0000,-0.002739,-0.002044,0.025068,0.0016,0.0024,-0.0003,-180.0000,-0.0000,0.0000
264,2.6400,-0.0047,0.0364,-0.0939,0.1009,0.0000,0.0000,0.0000,20.0000,2.3113,2.3618,35.8931,34.7372,0.1798,0.000467,-0.9203,-1.0748,0.3103,0.7646,-0.9203,0.0020,-6.2558,-3.7486,-0.9951,0.0000,-0.002156,-0.004544,0.022559,0.0020,0.0027,-0.0013,-180.0000,-0.0000,0.0000
265,2.6500,-0.0089,0.0580,-0.0804,0.0995,0.0000,0.0000,0.0000,20.0000,2.1478,2.3546,45.0758,35.0534,0.1813,0.000495,-0.9203,-1.0748,0.3103,0.7646,-0.9203,0.0020,-6.2558,-3.7486,-0.9951,0.0000,-0.002257,-0.008083,0.019770,0.0003,0.0012,-0.0014,-180.0000,-0.0000,0.0000
266,2.6600,-0.0149,0.0813,-0.0654,0.1054,0.0000,0.0000,0.0000,20.0000,2.0964,2.3418,52.9702,35.8218,0.1830,0.000461,-0.9203,-1.0748,0.3103,0.7646,-0.9203,0.0020,-6.2558,-3.7486,-0.9951,0.0000,-0.002901,-0.012347,0.016693,0.0004,-0.0004,-0.0021,-180.0000,-0.0000,0.0000
267,2.6700,-0.0201,0.1016,-0.0554,0.1175,0.0000,0.0000,0.0000,20.0000,2.2099,2.3314,52.2628,36.7457,0.1849,0.000444,-0.9203,-1.0748,0.3103,0.7646,-0.9203,0.0020,-6.2558,-3.7486,-0.9951,0.0000,-0.003778,-0.016712,0.013957,0.0004,0.0002,-0.0026,-180.0000,-0.0000,0.0000
268,2.6800,-0.0237,0.1134,-0.0504,0.1264,0.0000,0.0000,0.0000,20.0000,2.3964,2.3298,41.8632,37.3132,0.1869,0.000471,-0.9203,-1.0748,0.3103,0.7646,-0.9203,0.0020,-6.2558,-3.7486,-0.9951,0.0000,-0.004609,-0.020273,0.011918,0.0000,0.0004,-0.0023,-180.0000,-0.0000,0.0000
269,2.6900,-0.0265,0.1176,-0.0519,0.1313,0.0000,0.0000,0.0000,20.0000,2.5682,2.3382,26.5560,37.1425,0.1891,0.000446,-0.9203,-1.0748,0.3103,0.7646,-0.9203,0.0020,-6.2558,-3.7486,-0.9951,0.0000,-0.005338,-0.022623,0.010920,0.0015,0.0003,-0.0016,-180.0000,-0.0000,0.0000
270,2.7000,-0.0274,0.1184,-0.0678,0.1392,0.0000,0.0000,0.0000,20.0000,2.7387,2.3556,17.4026,36.3084,0.1915,0.000537,-0.9203,-1.0748,0.3103,0.7646,-0.9203,0.0020,-6.2558,-3.7486,-0.9951,0.0000,-0.005824,-0.023955,0.011930,0.0024,0.0012,-0.0012,-180.0000,-0.0000,0.0000
271,2.7100,-0.0299,0.1137,-0.0936,0.1503,0.0000,0.0000,0.0000,20.0000,2.9171,2.3816,31.6435,35.6601,0.1941,0.000513,-0.9203,-1.0748,0.3103,0.7646,-0.9203,0.0020,-6.2558,-3.7486,-0.9951,0.0000,-0.006329,-0.024176,0.015046,0.0028,0.0010,-0.0002,-180.0000,-0.0000,0.0000
272,2.7200,-0.0351,0.1045,-0.1177,0.1613,0.0000,0.0000,0.0000,20.0000,3.1683,2.4179,49.4111,35.9278,0.1969,0.000477,-0.9626,-1.2537,0.3261,0.9276,-0.9626,0.0039,-7.6691,-3.7714,-1.3164,0.0000,-0.006960,-0.023637,0.019917,0.0013,0.0003,-0.0004,-180.0000,-0.0000,0.0000
273,2.7300,-0.0378,0.0988,-0.1371,0.1732,0.0000,0.0000,0.0000,20.0000,3.4267,2.4663,47.1986,36.6087,0.1998,0.000425,-0.9626,-1.2537,0.3261,0.9276,-0.9626,0.0039,-7.6691,-3.7714,-1.3164,0.0000,-0.007571,-0.022722,0.024507,0.0007,-0.0006,-0.0013,-180.0000,-0.0000,0.0000
274,2.7400,-0.0393,0.1014,-0.1506,0.1857,0.0000,0.0000,0.0000,20.0000,3.7027,2.5267,38.7866,36.9598,0.2030,0.000432,-0.9626,-1.2537,0.3261,0.9276,-0.9626,0.0039,-7.6691,-3.7714,-1.3164,0.0000,-0.008044,-0.022424,0.028345,0.0003,0.0001,-0.0033,-180.0000,-0.0000,0.0000
275,2.7500,-0.0371,0.1013,-0.1559,0.1896,0.0000,0.0000,0.0000,20.0000,3.8936,2.5967,26.0920,36.7112,0.2064,0.000378,-0.9626,-1.2537,0.3261,0.9276,-0.9626,0.0039,-7.6691,-3.7714,-1.3164,0.0000,-0.008062,-0.022212,0.030945,-0.0013,-0.0012,-0.0043,-180.0000,-0.0000,0.0000
276,2.7600,-0.0314,0.0924,-0.1579,0.1857,0.0000,0.0000,0.0000,20.0000,3.9514,2.6696,19.8136,35.9544,0.2097,0.000475,-0.9626,-1.2537,0.3261,0.9276,-0.9626,0.0039,-7.6691,-3.7714,-1.3164,0.0000,-0.007490,-0.021156,0.032521,-0.0032,-0.0012,-0.0035,-180.0000,-0.0000,0.0000
277,2.7700,-0.0261,0.0816,-0.1631,0.1843,0.0000,0.0000,0.0000,20.0000,3.9596,2.7403,23.2246,35.1603,0.2130,0.000473,-0.9626,-1.2537,0.3261,0.9276,-0.9626,0.0039,-7.6691,-3.7714,-1.3164,0.0000,-0.006631,-0.019452,0.033845,-0.0025,-0.0007,-0.0033,-180.0000,-0.0000,0.0000
278,2.7800,-0.0220,0.0664,-0.1692,0.1831,0.0000,0.0000,0.0000,20.0000,3.9414,2.8069,29.4875,34.6760,0.2163,0.000452,-0.9626,-1.2537,0.3261,0.9276,-0.9626,0.0039,-7.6691,-3.7714,-1.3164,0.0000,-0.005730,-0.016950,0.035119,-0.0020,0.0002,-0.0026,-180.0000,-0.0000,0.0000
279,2.7900,-0.0248,0.0404,-0.1706,0.1771,0.0000,0.0000,0.0000,20.0000,3.8546,2.8669,41.0218,34.7078,0.2193,0.000403,-0.9626,-1.2537,0.3261,0.9276,-0.9626,0.0039,-7.6691,-3.7714,-1.3164,0.0000,-0.005501,-0.012928,0.035894,-0.0031,0.0012,-0.0015,-180.0000,-0.0000,0.0000
280,2.8000,-0.0310,0.0160,-0.1645,0.1681,0.0000,0.0000,0.0000,20.0000,3.7061,2.9172,47.1794,35.2245,0.2219,0.000560,-0.9626,-1.2537,0.3261,0.9276,-0.9626,0.0039,-7.6691,-3.7714,-1.3164,0.0000,-0.005978,-0.008242,0.035636,-0.0027,0.0020,-0.0004,-180.0000,-0.0000,0.0000
281,2.8100,-0.0303,0.0090,-0.1510,0.1542,0.0000,0.0000,0.0000,20.0000,3.4975,2.9548,36.6043,35.5913,0.2243,0.000488,-0.9626,-1.2537,0.3261,0.9276,-0.9626,0.0039,-7.6691,-3.7714,-1.3164,0.0000,-0.006168,-0.004938,0.034071,0.0001,0.0023,-0.0009,-180.0000,-0.0000,0.0000
282,2.8200,-0.0220,0.0218,-0.1305,0.1342,0.0000,0.0000,0.0000,20.0000,3.1870,2.9761,31.1418,35.4967,0.2265,0.000485,-0.9626,-1.2537,0.3261,0.9276,-0.9626,0.0039,-7.6691,-3.7714,-1.3164,0.0000,-0.005431,-0.004382,0.031097,0.0025,0.0020,-0.0015,-180.0000,-0.0000,0.0000
283,2.8300,-0.0097,0.0472,-0.1006,0.1116,0.0000,0.0000,0.0000,20.0000,2.7472,2.9756,54.5481,35.9010,0.2285,0.000476,-0.9626,-1.2537,0.3261,0.9276,-0.9626,0.0039,-7.6691,-3.7714,-1.3164,0.0000,-0.003781,-0.006604,0.026396,0.0015,0.0016,-0.0034,-180.0000,-0.0000,0.0000
284,2.8400,0.0061,0.0826,-0.0668,0.1064,0.0000,0.0000,0.0000,20.0000,2.3350,2.9517,80.8292,37.6495,0.2306,0.000469,-0.9626,-1.2537,0.3261,0.9276,-0.9626,0.0039,-7.6691,-3.7714,-1.3164,0.0000,-0.001280,-0.011362,0.020359,0.0022,0.0011,-0.0043,-180.0000,-0.0000,0.0000
285,2.8500,0.0211,0.1195,-0.0376,0.1270,0.0000,0.0000,0.0000,20.0000,2.2629,2.9158,93.4979,40.3732,0.2327,0.000422,-0.9626,-1.2537,0.3261,0.9276,-0.9626,0.0039,-7.6691,-3.7714,-1.3164,0.0000,0.001603,-0.017651,0.014070,0.0022,0.0006,-0.0040,-180.0000,-0.0000,0.0000
286,2.8600,0.0239,0.1409,-0.0116,0.1433,0.0000,0.0000,0.0000,20.0000,2.4804,2.8859,84.8424,43.0574,0.2348,0.000489,-0.9626,-1.2537,0.3261,0.9276,-0.9626,0.0039,-7.6691,-3.7714,-1.3164,0.0000,0.003477,-0.023233,0.007962,0.0013,0.0003,-0.0030,-180.0000,-0.0000,0.0000
287,2.8700,0.0151,0.1423,0.0114,0.1436,0.0000,0.0000,0.0000,20.0000,2.6763,2.8690,65.2479,44.8170,0.2369,0.000429,-0.9626,-1.2537,0.3261,0.9276,-0.9626,0.0039,-7.6691,-3.7714,-1.3164,0.0000,0.003626,-0.026419,0.002269,0.0001,0.0002,-0.0026,-180.0000,-0.0000,0.0000
288,2.8800,0.0017,0.1302,0.0238,0.1324,0.0000,0.0000,0.0000,20.0000,2.7102,2.8593,45.9696,45.4106,0.2388,0.000417,-0.9626,-1.2537,0.3261,0.9276,-0.9626,0.0039,-7.6691,-3.7714,-1.3164,0.0000,0.002359,-0.026916,-0.002121,0.0008,0.0000,-0.0014,-180.0000,-0.0000,0.0000
289,2.8900,-0.0056,0.1131,0.0280,0.1166,0.0000,0.0000,0.0000,20.0000,2.5920,2.8479,35.1918,45.1450,0.2405,0.000417,-0.9626,-1.2537,0.3261,0.9276,-0.9626,0.0039,-7.6691,-3.7714,-1.3164,0.0000,0.000928,-0.025423,-0.004969,0.0003,-0.0018,-0.0002,-180.0000,-0.0000,0.0000
290,2.9000,-0.0030,0.0953,0.0273,0.0992,0.0000,0.0000,0.0000,20.0000,2.3671,2.8276,30.8829,44.4789,0.2419,0.000371,-0.9626,-1.2537,0.3261,0.9276,-0.9626,0.0039,-7.6691,-3.7714,-1.3164,0.0000,0.000392,-0.022770,-0.006457,0.0005,-0.0017,-0.0004,-180.0000,-0.0000,0.0000
291,2.9100,0.0023,0.0815,0.0204,0.0840,0.0000,0.0000,0.0000,20.0000,2.1301,2.7957,23.7532,43.5350,0.2431,0.000337,-1.0523,-1.4749,0.3755,1.0994,-1.0523,0.0017,-7.2077,-3.7917,-1.4704,0.0000,0.000455,-0.020515,-0.005713,0.0003,-0.0019,-0.0017,-180.0000,-0.0000,-0.0000
292,2.9200,0.0128,0.0730,0.0073,0.0744,0.0000,0.0000,0.0000,20.0000,1.8866,2.7524,29.5491,42.6062,0.2443,0.000409,-1.0523,-1.4749,0.3755,1.0994,-1.0523,0.0017,-7.2077,-3.7917,-1.4704,0.0000,0.001534,-0.018377,-0.003983,0.0000,-0.0027,-0.0012,-180.0000,-0.0000,-0.0000
293,2.9300,0.0309,0.0744,-0.0129,0.0816,0.0000,0.0000,0.0000,20.0000,1.7774,2.7018,39.8015,42.1699,0.2456,0.000477,-1.0523,-1.4749,0.3755,1.0994,-1.0523,0.0017,-7.2077,-3.7917,-1.4704,0.0000,0.003938,-0.017303,-0.000998,-0.0003,-0.0025,-0.0011,-180.0000,-0.0000,-0.0000
294,2.9400,0.0495,0.0786,-0.0359,0.0996,0.0000,0.0000,0.0000,20.0000,1.8755,2.6536,50.7831,42.3417,0.2470,0.000472,-1.0523,-1.4749,0.3755,1.0994,-1.0523,0.0017,-7.2077,-3.7917,-1.4704,0.0000,0.007127,-0.017096,0.002950,0.0004,-0.0005,-0.0019,-180.0000,-0.0000,-0.0000
295,2.9500,0.0579,0.0794,-0.0545,0.1124,0.0000,0.0000,0.0000,20.0000,2.0808,2.6165,47.9264,42.7275,0.2486,0.000490,-1.0523,-1.4749,0.3755,1.0994,-1.0523,0.0017,-7.2077,-3.7917,-1.4704,0.0000,0.009713,-0.017025,0.006984,0.0002,0.0001,-0.0025,-180.0000,-0.0000,-0.0000
296,2.9600,0.0599,0.0887,-0.0689,0.1273,0.0000,0.0000,0.0000,20.0000,2.3687,2.5949,40.8786,42.8196,0.2504,0.000869,-1.0523,-1.4749,0.3755,1.0994,-1.0523,0.0017,-7.2077,-3.7917,-1.4704,0.0000,0.011317,-0.017880,0.010645,0.0011,0.0000,-0.0010,-180.0000,-0.0000,-0.0000
297,2.9700,0.0591,0.1000,-0.0786,0.1403,0.0000,0.0000,0.0000,20.0000,2.6651,2.5907,34.5075,42.5376,0.2526,0.000641,-1.0523,-1.4749,0.3755,1.0994,-1.0523,0.0017,-7.2077,-3.7917,-1.4704,0.0000,0.012105,-0.019453,0.013614,0.0011,0.0007,-0.0003,-180.0000,-0.0000,-0.0000
298,2.9800,0.0524,0.1055,-0.0785,0.1416,0.0000,0.0000,0.0000,20.0000,2.8390,2.5995,21.3117,41.7330,0.2550,0.000540,-1.0523,-1.4749,0.3755,1.0994,-1.0523,0.0017,-7.2077,-3.7917,-1.4704,0.0000,0.011849,-0.020832,0.015219,0.0017,0.0002,0.0001,-180.0000,-0.0000,-0.0000
299,2.9900,0.0328,0.1102,-0.0737,0.1366,0.0000,0.0000,0.0000,20.0000,2.8683,2.6135,24.6873,40.7025,0.2575,0.000490,-1.0523,-1.4749,0.3755,1.0994,-1.0523,0.0017,-7.2077,-3.7917,-1.4704,0.0000,0.009719,-0.022021,0.015598,0.0008,0.0002,0.0016,-180.0000,-0.0000,-0.0000
300,3.0000,0.0060,0.1141,-0.0720,0.1350,0.0000,0.0000,0.0000,20.0000,2.8417,2.6268,40.0136,40.2430,0.2603,0.000464,-1.0523,-1.4749,0.3755,1.0994,-1.0523,0.0017,-7.2077,-3.7917,-1.4704,0.0000,0.005844,-0.023019,0.015604,0.0014,0.0008,0.0006,-180.0000,-0.0000,-0.0000
301,3.0100,-0.0174,0.1146,-0.0699,0.1353,0.0000,0.0000,0.0000,20.0000,2.8173,2.6379,45.3032,40.3759,0.2631,0.000353,-1.0523,-1.4749,0.3755,1.0994,-1.0523,0.0017,-7.2077,-3.7917,-1.4704,0.0000,0.001355,-0.023575,0.015365,0.0002,0.0019,-0.0017,-180.0000,-0.0000,-0.0000
302,3.0200,-0.0387,0.1120,-0.0678,0.1365,0.0000,0.0000,0.0000,20.0000,2.8135,2.6477,46.2947,40.6742,0.2660,0.000438,-1.0523,-1.4749,0.3755,1.0994,-1.0523,0.0017,-7.2077,-3.7917,-1.4704,0.0000,-0.003260,-0.023579,0.015000,-0.0016,0.0031,-0.0033,-180.0000,-0.0000,-0.0000
303,3.0300,-0.0561,0.1054,-0.0740,0.1405,0.0000,0.0000,0.0000,20.0000,2.8584,2.6581,43.6765,40.9114,0.2689,0.000609,-1.0523,-1.4749,0.3755,1.0994,-1.0523,0.0017,-7.2077,-3.7917,-1.4704,0.0000,-0.007554,-0.022874,0.015386,-0.0021,0.0025,-0.0037,-180.0000,-0.0000,-0.0000
304,3.0400,-0.0676,0.1043,-0.0898,0.1533,0.0000,0.0000,0.0000,20.0000,3.0248,2.6737,39.5641,40.9504,0.2720,0.000445,-1.0523,-1.4749,0.3755,1.0994,-1.0523,0.0017,-7.2077,-3.7917,-1.4704,0.0000,-0.011053,-0.022330,0.017149,-0.0012,0.0043,-0.0041,-180.0000,-0.0000,-0.0000
305,3.0500,-0.0743,0.1118,-0.1100,0.1736,0.0000,0.0000,0.0000,20.0000,3.3277,2.7013,39.5413,40.8735,0.2753,0.000568,-1.0523,-1.4749,0.3755,1.0994,-1.0523,0.0017,-7.2077,-3.7917,-1.4704,0.0000,-0.013643,-0.022733,0.020110,-0.0004,0.0083,-0.0041,-180.0000,-0.0000,-0.0000
306,3.0600,-0.0712,0.1311,-0.1484,0.2105,0.0000,0.0000,0.0000,20.0000,3.8562,2.7503,59.3377,41.3447,0.2792,0.000896,-1.0523,-1.4749,0.3755,1.0994,-1.0523,0.0017,-7.2077,-3.7917,-1.4704,0.0000,-0.014735,-0.024846,0.025546,0.0032,0.0160,-0.0028,-180.0000,-0.0000,-0.0000
307,3.0700,-0.0472,0.1516,-0.2157,0.2678,0.0000,0.0000,0.0000,20.0000,4.6820,2.8338,103.4652,43.5481,0.2839,0.000830,-1.0523,-1.4749,0.3755,1.0994,-1.0523,0.0017,-7.2077,-3.7917,-1.4704,0.0000,-0.012905,-0.028014,0.035224,0.0090,0.0251,-0.0021,-180.0000,-0.0000,-0.0000
308,3.0800,0.0032,0.1525,-0.3009,0.3374,0.0000,0.0000,0.0000,20.0000,5.7776,2.9656,151.8495,48.1748,0.2897,0.000581,-1.0523,-1.4749,0.3755,1.0994,-1.0523,0.0017,-7.2077,-3.7917,-1.4704,0.0000,-0.006829,-0.029798,0.049026,0.0150,0.0368,-0.0023,-180.0000,-0.0000,-0.0000
309,3.0900,0.0807,0.1323,-0.4006,0.4295,0.0000,0.0000,0.0000,20.0000,7.2582,3.1610,207.6309,55.4120,0.2963,0.000652,-1.0523,-1.4749,0.3755,1.0994,-1.0523,0.0017,-7.2077,-3.7917,-1.4704,0.0000,0.004287,-0.028702,0.066528,0.0215,0.0457,-0.0020,-180.0000,-0.0000,-0.0000
310,3.1000,0.1902,0.0871,-0.5147,0.5556,0.0000,0.0000,0.0000,20.0000,9.3076,3.4428,275.3068,65.6466,0.3037,0.000620,-1.0523,-1.4749,0.3755,1.0994,-1.0523,0.0017,-7.2077,-3.7917,-1.4704,0.0000,0.021377,-0.023520,0.087481,0.0286,0.0528,-0.0016,-180.0000,-0.0000,-0.0000
311,3.1100,0.3219,0.0039,-0.6326,0.7098,0.0000,0.0000,0.0000,20.0000,12.0281,3.8402,343.5549,79.0567,0.3116,0.000554,-1.1732,-1.5917,0.3884,1.2034,-1.1732,0.5202,-7.3260,-3.8264,-0.9945,0.3992,0.044002,-0.013159,0.111167,0.0374,0.0574,0.0004,-180.0000,-0.0000,0.0000
312,3.1200,0.4553,-0.1029,-0.7483,0.8820,0.0000,0.0000,0.0000,20.0000,15.2542,4.3793,391.3328,94.9203,0.3198,0.000524,-1.1732,-1.5917,0.3884,1.2034,-1.1732,0.5202,-7.3260,-3.8264,-0.9945,0.3992,0.069765,0.003273,0.135614,0.0468,0.0605,0.0005,-180.0000,-0.0000,0.0000
313,3.1300,0.5855,-0.2122,-0.8738,1.0730,0.0000,0.0000,0.0000,20.0000,18.9684,5.0797,424.3855,112.1344,0.3283,0.000696,-1.1732,-1.5917,0.3884,1.2034,-1.1732,0.5202,-7.3260,-3.8264,-0.9945,0.3992,0.096887,0.023284,0.161402,0.0586,0.0617,0.0012,-180.0000,-0.0000,0.0000
314,3.1400,0.7149,-0.3427,-1.0134,1.2866,0.0000,0.0000,0.0000,20.0000,23.1527,5.9588,461.1028,130.3206,0.3373,0.000517,-1.1732,-1.5917,0.3884,1.2034,-1.1732,0.5202,-7.3260,-3.8264,-0.9945,0.3992,0.124624,0.047343,0.189295,0.0730,0.0641,0.0019,-180.0000,-0.0000,0.0000
315,3.1500,0.8365,-0.5020,-1.1646,1.5192,0.0000,0.0000,0.0000,20.0000,27.7624,7.0314,500.0948,149.5887,0.3473,0.000544,-1.1732,-1.5917,0.3884,1.2034,-1.1732,0.5202,-7.3260,-3.8264,-0.9945,0.3992,0.151869,0.076477,0.219458,0.0896,0.0668,0.0050,-180.0000,-0.0000,0.0000
316,3.1600,0.9504,-0.6807,-1.3226,1.7652,0.0000,0.0000,0.0000,20.0000,32.7268,8.3083,534.2271,169.8081,0.3588,0.000558,-1.1732,-1.5917,0.3884,1.2034,-1.1732,0.5202,-7.3260,-3.8264,-0.9945,0.3992,0.178021,0.110302,0.251488,0.1071,0.0693,0.0060,-180.0000,-0.0000,0.0000
317,3.1700,1.0699,-0.8763,-1.4796,2.0253,0.0000,0.0000,0.0000,20.0000,38.0169,9.7970,566.4235,190.7396,0.3724,0.000536,-1.1732,-1.5917,0.3884,1.2034,-1.1732,0.5202,-7.3260,-3.8264,-0.9945,0.3992,0.204070,0.148345,0.284390,0.1280,0.0746,0.0115,-180.0000,-0.0000,0.0000
318,3.1800,1.1947,-1.0909,-1.6217,2.2907,0.0000,0.0000,0.0000,20.0000,43.5256,11.5008,591.0992,212.0839,0.3891,0.000440,-1.1732,-1.5917,0.3884,1.2034,-1.1732,0.5202,-7.3260,-3.8264,-0.9945,0.3992,0.230541,0.190538,0.316218,0.1495,0.0815,0.0174,-180.0000,-0.0000,0.0000
319,3.1900,1.3270,-1.3211,-1.7368,2.5539,0.0000,0.0000,0.0000,20.0000,49.1199,13.4163,606.0959,233.3453,0.4097,0.000539,-1.1732,-1.5917,0.3884,1.2034,-1.1732,0.5202,-7.3260,-3.8264,-0.9945,0.3992,0.257943,0.236493,0.344693,0.1751,0.0904,0.0245,-180.0000,-0.0000,0.0000
320,3.2000,1.4693,-1.5701,-1.8291,2.8230,0.0000,0.0000,0.0000,20.0000,54.8069,15.5367,624.9655,254.3685,0.4351,0.000594,-1.1732,-1.5917,0.3884,1.2034,-1.1732,0.5202,-7.3260,-3.8264,-0.9945,0.3992,0.286799,0.286329,0.368974,0.2028,0.1023,0.0296,-180.0000,-0.0000,0.0000
321,3.2100,1.6148,-1.8511,-1.9123,3.1131,0.0000,0.0000,0.0000,20.0000,60.7419,17.8601,661.0605,275.7471,0.4665,0.000584,-1.1732,-1.5917,0.3884,1.2034,-1.1732,0.5202,-7.3260,-3.8264,-0.9945,0.3992,0.316729,0.341399,0.389984,0.2327,0.1173,0.0363,-180.0000,-0.0000,0.0000
322,3.2200,1.7640,-2.1783,-1.9961,3.4411,0.0000,0.0000,0.0000,20.0000,67.1832,20.3961,722.7246,298.6384,0.5056,0.000516,-1.1732,-1.5917,0.3884,1.2034,-1.1732,0.5202,-7.3260,-3.8264,-0.9945,0.3992,0.347562,0.403878,0.409196,0.2636,0.1312,0.0416,-180.0000,-0.0000,0.0000
323,3.2300,1.9226,-2.5532,-2.0856,3.8164,0.0000,0.0000,0.0000,20.0000,74.3691,23.1674,803.8261,324.1972,0.5546,0.000576,-1.1732,-1.5917,0.3884,1.2034,-1.1732,0.5202,-7.3260,-3.8264,-0.9945,0.3992,0.379765,0.475102,0.427940,0.2962,0.1468,0.0471,-180.0000,-0.0000,0.0000
324,3.2400,2.0902,-2.9551,-2.1866,4.2288,0.0000,0.0000,0.0000,20.0000,82.3370,26.2031,877.8733,352.6172,0.6168,0.000521,-1.1732,-1.5917,0.3884,1.2034,-1.1732,0.5202,-7.3260,-3.8264,-0.9945,0.3992,0.413574,0.553709,0.447550,0.3250,0.1609,0.0517,-180.0000,-0.0000,0.0000
325,3.2500,2.2713,-3.3533,-2.3046,4.6599,0.0000,0.0000,0.0000,20.0000,90.9214,29.5270,922.9518,382.7503,0.6965,0.000541,-1.1732,-1.5917,0.3884,1.2034,-1.1732,0.5202,-7.3260,-3.8264,-0.9945,0.3992,0.449539,0.635879,0.469301,0.3535,0.1733,0.0577,-180.0000,-0.0000,0.0000
326,3.2600,2.4767,-3.7283,-2.4409,5.0983,0.0000,0.0000,0.0000,20.0000,99.9043,33.1513,940.2190,412.9407,0.7992,0.000542,-1.1732,-1.5917,0.3884,1.2034,-1.1732,0.5202,-7.3260,-3.8264,-0.9945,0.3992,0.489067,0.717529,0.494015,0.3785,0.1836,0.0642,-180.0000,-0.0000,0.0000
327,3.2700,2.7014,-4.0680,-2.5947,5.5298,0.0000,0.0000,0.0000,20.0000,109.0114,37.0737,932.6105,441.7359,0.9311,0.000654,-1.1732,-1.5917,0.3884,1.2034,-1.1732,0.5202,-7.3260,-3.8264,-0.9945,0.3992,0.532411,0.795198,0.522061,0.3997,0.1946,0.0685,-180.0000,-0.0000,0.0000
328,3.2800,2.9381,-4.3588,-2.7631,5.9385,0.0000,0.0000,0.0000,20.0000,117.9290,41.2761,900.4227,467.8527,1.0989,0.000695,-1.1732,-1.5917,0.3884,1.2034,-1.1732,0.5202,-7.3260,-3.8264,-0.9945,0.3992,0.578975,0.865620,0.553367,0.4151,0.2045,0.0712,-180.0000,-0.0000,0.0000
329,3.2900,3.1868,-4.5891,-2.9478,6.3170,0.0000,0.0000,0.0000,20.0000,126.4079,45.7258,852.9025,490.3405,1.3092,0.000618,-1.1732,-1.5917,0.3884,1.2034,-1.1732,0.5202,-7.3260,-3.8264,-0.9945,0.3992,0.628424,0.925852,0.588028,0.4269,0.2142,0.0727,-180.0000,-0.0000,0.0000
330,3.3000,3.4361,-4.7683,-3.1458,6.6663,0.0000,0.0000,0.0000,20.0000,134.3250,50.3817,804.1619,508.9438,1.5688,0.000527,-1.1732,-1.5917,0.3884,1.2034,-1.1732,0.5202,-7.3260,-3.8264,-0.9945,0.3992,0.679435,0.975214,0.625817,0.4318,0.2244,0.0742,-180.0000,-0.0000,0.0000
331,3.3100,3.6673,-4.9080,-3.3448,6.9804,0.0000,0.0000,0.0000,20.0000,142.2241,55.2166,817.0589,525.5378,1.8851,0.000622,-0.7027,-2.5904,0.2446,2.3458,-0.7027,-1.8790,-6.5431,-3.9764,-0.1231,-0.8494,0.733023,1.017866,0.670371,0.4333,0.2348,0.0737,-180.0000,-0.0000,0.0000
332,3.3200,3.8782,-5.0061,-3.5336,7.2517,0.0000,0.0000,0.0000,20.0000,149.0136,60.1894,720.1305,538.9079,2.2625,0.000542,-0.7027,-2.5904,0.2446,2.3458,-0.7027,-1.8790,-6.5431,-3.9764,-0.1231,-0.8494,0.782269,1.049215,0.712536,0.4327,0.2440,0.0726,-180.0000,-0.0000,0.0000
333,3.3300,4.0724,-5.0716,-3.7138,7.4899,0.0000,0.0000,0.0000,20.0000,154.8454,65.2358,640.2558,546.6797,2.7046,0.000499,-0.7027,-2.5904,0.2446,2.3458,-0.7027,-1.8790,-6.5431,-3.9764,-0.1231,-0.8494,0.827350,1.070995,0.752444,0.4310,0.2533,0.0712,-180.0000,-0.0000,0.0000
334,3.3400,4.2443,-5.1176,-3.8893,7.7026,0.0000,0.0000,0.0000,20.0000,159.8857,70.3037,574.3357,550.0141,3.2143,0.000531,-0.7027,-2.5904,0.2446,2.3458,-0.7027,-1.8790,-6.5431,-3.9764,-0.1231,-0.8494,0.867804,1.085494,0.790547,0.4280,0.2642,0.0680,-180.0000,-0.0000,0.0000
335,3.3500,4.4031,-5.1411,-4.0520,7.8890,0.0000,0.0000,0.0000,20.0000,164.2160,75.3506,517.4470,549.7873,3.7941,0.000487,-0.7027,-2.5904,0.2446,2.3458,-0.7027,-1.8790,-6.5431,-3.9764,-0.1231,-0.8494,0.904306,1.093690,0.826295,0.4217,0.2740,0.0624,-180.0000,-0.0000,0.0000
336,3.3600,4.5727,-5.1293,-4.2059,8.0567,0.0000,0.0000,0.0000,20.0000,167.9550,80.3417,487.0671,547.1728,4.4457,0.000536,-0.7027,-2.5904,0.2446,2.3458,-0.7027,-1.8790,-6.5431,-3.9764,-0.1231,-0.8494,0.939641,1.094857,0.859798,0.4097,0.2840,0.0557,-180.0000,-0.0000,0.0000
337,3.3700,4.7587,-5.0662,-4.3678,8.2091,0.0000,0.0000,0.0000,20.0000,171.2019,85.2504,496.4145,544.1236,5.1712,0.000561,-0.7027,-2.5904,0.2446,2.3458,-0.7027,-1.8790,-6.5431,-3.9764,-0.1231,-0.8494,0.975894,1.087001,0.892787,0.3932,0.2947,0.0487,-180.0000,-0.0000,0.0000
338,3.3800,4.9580,-4.9403,-4.5414,8.3434,0.0000,0.0000,0.0000,20.0000,173.9823,90.0549,543.4667,542.7933,5.9719,0.000579,-0.7027,-2.5904,0.2446,2.3458,-0.7027,-1.8790,-6.5431,-3.9764,-0.1231,-0.8494,1.013914,1.067890,0.926593,0.3734,0.3046,0.0431,-180.0000,-0.0000,0.0000
339,3.3900,5.1727,-4.7634,-4.7193,8.4687,0.0000,0.0000,0.0000,20.0000,176.4100,94.7384,613.1592,544.7472,6.8488,0.000687,-0.7027,-2.5904,0.2446,2.3458,-0.7027,-1.8790,-6.5431,-3.9764,-0.1231,-0.8494,1.054370,1.037499,0.961223,0.3507,0.3105,0.0384,-180.0000,-0.0000,0.0000
340,3.4000,5.3927,-4.5470,-4.9038,8.5910,0.0000,0.0000,0.0000,20.0000,178.6164,99.2917,685.5281,550.5008,7.8026,0.000534,-0.7027,-2.5904,0.2446,2.3458,-0.7027,-1.8790,-6.5431,-3.9764,-0.1231,-0.8494,1.096630,0.996987,0.996895,0.3303,0.3148,0.0337,-180.0000,-0.0000,0.0000
341,3.4100,5.5991,-4.3042,-5.0915,8.7063,0.0000,0.0000,0.0000,20.0000,180.6437,103.7109,738.1131,559.3747,8.8335,0.000513,-0.7027,-2.5904,0.2446,2.3458,-0.7027,-1.8790,-6.5431,-3.9764,-0.1231,-0.8494,1.138432,0.948315,1.033386,0.3135,0.3159,0.0306,-180.0000,-0.0000,0.0000
342,3.4200,5.7743,-4.0650,-5.2623,8.8067,0.0000,0.0000,0.0000,20.0000,182.4488,107.9925,740.8231,569.2813,9.9409,0.000571,-0.7027,-2.5904,0.2446,2.3458,-0.7027,-1.8790,-6.5431,-3.9764,-0.1231,-0.8494,1.176787,0.895595,1.068568,0.2980,0.3168,0.0280,-180.0000,-0.0000,0.0000
343,3.4300,5.9151,-3.8482,-5.3973,8.8842,0.0000,0.0000,0.0000,20.0000,183.9206,112.1287,692.9273,577.4001,11.1231,0.000507,-0.7027,-2.5904,0.2446,2.3458,-0.7027,-1.8790,-6.5431,-3.9764,-0.1231,-0.8494,1.209712,0.842986,1.099386,0.2857,0.3183,0.0241,-180.0000,-0.0000,0.0000
344,3.4400,6.0272,-3.6492,-5.4879,8.9309,0.0000,0.0000,0.0000,20.0000,184.9043,116.1048,621.8959,581.8014,12.3768,0.000492,-0.7027,-2.5904,0.2446,2.3458,-0.7027,-1.8790,-6.5431,-3.9764,-0.1231,-0.8494,1.236706,0.792312,1.123281,0.2752,0.3238,0.0206,-180.0000,-0.0000,0.0000
345,3.4500,6.1259,-3.4671,-5.5311,8.9521,0.0000,0.0000,0.0000,20.0000,185.3576,119.9018,549.2385,582.0085,13.6981,0.000500,-0.7027,-2.5904,0.2446,2.3458,-0.7027,-1.8790,-6.5431,-3.9764,-0.1231,-0.8494,1.259017,0.744508,1.138565,0.2649,0.3313,0.0180,-180.0000,-0.0000,0.0000
346,3.4600,6.2255,-3.3044,-5.5260,8.9561,0.0000,0.0000,0.0000,20.0000,185.3379,123.5019,487.3351,578.5033,15.0831,0.000583,-0.7027,-2.5904,0.2446,2.3458,-0.7027,-1.8790,-6.5431,-3.9764,-0.1231,-0.8494,1.278793,0.700328,1.144221,0.2560,0.3434,0.0149,-180.0000,-0.0000,0.0000
347,3.4700,6.3316,-3.1571,-5.4822,8.9505,0.0000,0.0000,0.0000,20.0000,184.9509,126.8927,449.1819,572.4390,16.5278,0.000537,-0.7027,-2.5904,0.2446,2.3458,-0.7027,-1.8790,-6.5431,-3.9764,-0.1231,-0.8494,1.297779,0.659773,1.140681,0.2481,0.3595,0.0123,-180.0000,-0.0000,0.0000
348,3.4800,6.4533,-3.0175,-5.4111,8.9460,0.0000,0.0000,0.0000,20.0000,184.3672,130.0703,441.9012,565.4586,18.0292,0.000676,-0.7027,-2.5904,0.2446,2.3458,-0.7027,-1.8790,-6.5431,-3.9764,-0.1231,-0.8494,1.317856,0.622077,1.129338,0.2422,0.3747,0.0114,-180.0000,-0.0000,0.0000
349,3.4900,6.5965,-2.8876,-5.3219,8.9540,0.0000,0.0000,0.0000,20.0000,183.7977,133.0414,453.2040,558.9728,19.5857,0.000593,-0.7027,-2.5904,0.2446,2.3458,-0.7027,-1.8790,-6.5431,-3.9764,-0.1231,-0.8494,1.340635,0.586999,1.111885,0.2398,0.3857,0.0113,-180.0000,-0.0000,0.0000
350,3.5000,6.7443,-2.7762,-5.2292,8.9743,0.0000,0.0000,0.0000,20.0000,183.3627,135.8215,454.0993,553.1793,21.1970,0.000556,-0.7027,-2.5904,0.2446,2.3458,-0.7027,-1.8790,-6.5431,-3.9764,-0.1231,-0.8494,1.365328,0.555293,1.090743,0.2397,0.3961,0.0111,-180.0000,-0.0000,0.0000
351,3.5100,6.8865,-2.6864,-5.1467,9.0072,0.0000,0.0000,0.0000,20.0000,186.6587,138.5273,469.0429,548.1401,22.8998,0.000533,2.4012,-5.8149,-1.1735,6.9884,2.4012,0.0264,-6.6230,-1.8490,0.1839,-0.6909,1.412025,0.551126,1.089310,0.2375,0.4048,0.0108,-180.0000,0.0000,0.0000
352,3.5200,7.0303,-2.6037,-5.0764,9.0540,0.0000,0.0000,0.0000,20.0000,188.5911,141.2280,404.0678,542.0021,24.6832,0.000431,2.4012,-5.8149,-1.1735,6.9884,2.4012,0.0264,-6.6230,-1.8490,0.1839,-0.6909,1.449394,0.539452,1.079310,0.2331,0.4144,0.0107,-180.0000,0.0000,0.0000
353,3.5300,7.1960,-2.5079,-5.0128,9.1214,0.0000,0.0000,0.0000,20.0000,189.9753,143.8715,408.4696,534.5357,26.5424,0.000436,2.4012,-5.8149,-1.1735,6.9884,2.4012,0.0264,-6.6230,-1.8490,0.1839,-0.6909,1.483722,0.522343,1.065264,0.2156,0.4378,0.0074,-180.0000,0.0000,0.0000
354,3.5400,7.4029,-2.3882,-4.9534,9.2219,0.0000,0.0000,0.0000,20.0000,191.3858,146.4463,458.5501,528.9784,28.4767,0.000391,2.4012,-5.8149,-1.1735,6.9884,2.4012,0.0264,-6.6230,-1.8490,0.1839,-0.6909,1.520422,0.499870,1.049428,0.1966,0.4610,0.0042,-180.0000,0.0000,0.0000
355,3.5500,7.6466,-2.2253,-4.8960,9.3484,0.0000,0.0000,0.0000,20.0000,193.0737,148.9648,537.5341,527.2767,30.4874,0.000335,2.4012,-5.8149,-1.1735,6.9884,2.4012,0.0264,-6.6230,-1.8490,0.1839,-0.6909,1.562032,0.470157,1.032838,0.1719,0.4858,-0.0003,-180.0000,0.0000,0.0000
356,3.5600,7.9208,-2.0085,-4.8411,9.4979,0.0000,0.0000,0.0000,20.0000,195.1488,151.4482,635.7492,530.5422,32.5758,0.000344,2.4012,-5.8149,-1.1735,6.9884,2.4012,0.0264,-6.6230,-1.8490,0.1839,-0.6909,1.609336,0.431114,1.016113,0.1460,0.5067,-0.0038,-180.0000,0.0000,0.0000
357,3.5700,8.2058,-1.7494,-4.8016,9.6669,0.0000,0.0000,0.0000,20.0000,197.6456,153.9208,722.1546,538.7060,34.7442,0.000434,2.4012,-5.8149,-1.1735,6.9884,2.4012,0.0264,-6.6230,-1.8490,0.1839,-0.6909,1.660758,0.382754,1.000880,0.1214,0.5200,-0.0074,-180.0000,0.0000,0.0000
358,3.5800,8.4686,-1.4634,-4.7959,9.8417,0.0000,0.0000,0.0000,20.0000,200.4502,156.4031,768.6804,550.0767,36.9951,0.000497,2.4012,-5.8149,-1.1735,6.9884,2.4012,0.0264,-6.6230,-1.8490,0.1839,-0.6909,1.712147,0.326655,0.989887,0.0978,0.5271,-0.0117,-180.0000,0.0000,0.0000
359,3.5900,8.6919,-1.1614,-4.8342,10.0134,0.0000,0.0000,0.0000,20.0000,203.4047,158.9073,779.9055,562.4104,39.3310,0.000565,2.4012,-5.8149,-1.1735,6.9884,2.4012,0.0264,-6.6230,-1.8490,0.1839,-0.6909,1.759457,0.264796,0.985668,0.0784,0.5282,-0.0154,-180.0000,0.0000,0.0000
360,3.6000,8.8725,-0.8698,-4.9136,10.1795,0.0000,0.0000,0.0000,20.0000,206.3889,161.4371,758.3544,573.7817,41.7551,0.000533,2.4012,-5.8149,-1.1735,6.9884,2.4012,0.0264,-6.6230,-1.8490,0.1839,-0.6909,1.800157,0.200911,0.989296,0.0647,0.5281,-0.0175,-180.0000,0.0000,0.0000
361,3.6100,9.0231,-0.6131,-5.0211,10.3443,0.0000,0.0000,0.0000,20.0000,209.3706,163.9918,709.7682,582.5983,44.2725,0.000480,2.4012,-5.8149,-1.1735,6.9884,2.4012,0.0264,-6.6230,-1.8490,0.1839,-0.6909,1.834115,0.139525,1.000080,0.0570,0.5296,-0.0186,-180.0000,0.0000,0.0000
362,3.6200,9.1604,-0.4116,-5.1383,10.5111,0.0000,0.0000,0.0000,20.0000,212.3574,166.5702,634.9679,587.5364,46.8900,0.000526,2.4012,-5.8149,-1.1735,6.9884,2.4012,0.0264,-6.6230,-1.8490,0.1839,-0.6909,1.862943,0.085163,1.015754,0.0534,0.5351,-0.0179,-180.0000,0.0000,0.0000
363,3.6300,9.2925,-0.2829,-5.2463,10.6750,0.0000,0.0000,0.0000,20.0000,215.2947,169.1696,529.8570,587.2545,49.6154,0.000527,2.4012,-5.8149,-1.1735,6.9884,2.4012,0.0264,-6.6230,-1.8490,0.1839,-0.6909,1.888365,0.042070,1.033192,0.0567,0.5421,-0.0161,-180.0000,0.0000,0.0000
364,3.6400,9.4225,-0.2307,-5.3347,10.8303,0.0000,0.0000,0.0000,20.0000,218.0871,171.7837,407.3320,580.7273,52.4567,0.000510,2.4012,-5.8149,-1.1735,6.9884,2.4012,0.0264,-6.6230,-1.8490,0.1839,-0.6909,1.911638,0.012946,1.049604,0.0641,0.5499,-0.0137,-180.0000,0.0000,0.0000
365,3.6500,9.5437,-0.2493,-5.4013,10.9690,0.0000,0.0000,0.0000,20.0000,220.5948,174.3997,289.3427,567.9440,55.4206,0.000507,2.4012,-5.8149,-1.1735,6.9884,2.4012,0.0264,-6.6230,-1.8490,0.1839,-0.6909,1.932805,-0.001315,1.063235,0.0761,0.5581,-0.0107,-180.0000,0.0000,0.0000
366,3.6600,9.6409,-0.3371,-5.4462,11.0780,0.0000,0.0000,0.0000,20.0000,222.6095,176.9962,201.6914,550.2079,58.5107,0.000618,2.4012,-5.8149,-1.1735,6.9884,2.4012,0.0264,-6.6230,-1.8490,0.1839,-0.6909,1.950354,-0.000415,1.073135,0.0914,0.5637,-0.0077,-180.0000,0.0000,0.0000
367,3.6700,9.7022,-0.4963,-5.4661,11.1470,0.0000,0.0000,0.0000,20.0000,223.9167,179.5413,209.7536,531.2584,61.7271,0.000531,2.4012,-5.8149,-1.1735,6.9884,2.4012,0.0264,-6.6230,-1.8490,0.1839,-0.6909,1.962285,0.015998,1.078448,0.1134,0.5693,-0.0035,-180.0000,0.0000,0.0000
368,3.6800,9.7357,-0.7211,-5.4539,11.1825,0.0000,0.0000,0.0000,20.0000,224.4683,181.9974,320.9831,516.6324,65.0667,0.000541,2.4012,-5.8149,-1.1735,6.9884,2.4012,0.0264,-6.6230,-1.8490,0.1839,-0.6909,1.968309,0.047523,1.078010,0.1411,0.5729,0.0016,-180.0000,0.0000,0.0000
