GerardoEmirSanchez/Integraci-n-de-xArm5-5-DOF-en-NVIDIA-Isaac-Sim-con-ROS-2-Humble-para-pHRI/mediciones/2026.04.28_VIC_pHRI_tanh_2026-04-28_13-43-47.csv
Index,Time_s,Fx,Fy,Fz,F_Amp,Psi_Imp,Psi_Int,Beta,K_Stiffness,Vel_Raw,Vel_Filt,Acc_Raw,Acc_Filt,Lyapunov_V_Nmm,Loop_Duration_s,q1,q2,q3,q4,q5,tau1,tau2,tau3,tau4,tau5,deltaXcmd,deltaYcmd,deltaZcmd,Tx_EE,Ty_EE,Tz_EE,Roll,Pitch,Yaw
0,0.0000,-0.0630,-0.0748,-0.0265,0.1013,0.0000,0.0000,0.0000,20.0000,1.8801,0.2311,33.4945,9.0043,0.0000,0.000664,93.1711,-18.6757,-28.8441,47.5197,93.1711,0.0000,-7.9196,-10.1682,-1.0040,0.0000,-0.012580,0.012735,0.005749,-0.0027,0.0022,-0.0010,-180.0000,0.0000,0.0000
1,0.0100,-0.0437,-0.0849,-0.0229,0.0982,0.0000,0.0000,0.0000,20.0000,1.9880,0.3247,30.5580,10.2707,0.0001,0.000664,93.1711,-18.6757,-28.8441,47.5197,93.1711,0.0000,-7.9196,-10.1682,-1.0040,0.0000,-0.011249,0.015467,0.005425,-0.0023,0.0016,0.0012,-180.0000,0.0000,0.0000
2,0.0200,-0.0184,-0.0883,-0.0249,0.0936,0.0000,0.0000,0.0000,20.0000,1.9796,0.4160,37.6284,11.5811,0.0001,0.000662,93.1711,-18.6757,-28.8441,47.5197,93.1711,0.0000,-7.9196,-10.1682,-1.0040,0.0000,-0.007957,0.017289,0.005443,-0.0016,0.0013,0.0018,-180.0000,0.0000,0.0000
3,0.0300,0.0041,-0.0861,-0.0285,0.0908,0.0000,0.0000,0.0000,20.0000,1.9338,0.5008,41.6133,13.1235,0.0001,0.000631,93.1711,-18.6757,-28.8441,47.5197,93.1711,0.0000,-7.9196,-10.1682,-1.0040,0.0000,-0.003879,0.018035,0.005801,-0.0013,0.0019,0.0021,-180.0000,0.0000,0.0000
4,0.0400,0.0195,-0.0794,-0.0349,0.0889,0.0000,0.0000,0.0000,20.0000,1.8940,0.5785,39.0561,14.6204,0.0002,0.000668,93.1711,-18.6757,-28.8441,47.5197,93.1711,0.0000,-7.9196,-10.1682,-1.0040,0.0000,-0.000071,0.017746,0.006619,-0.0005,0.0011,0.0008,-180.0000,0.0000,0.0000
5,0.0500,0.0264,-0.0724,-0.0456,0.0895,0.0000,0.0000,0.0000,20.0000,1.8902,0.6508,33.0176,15.7984,0.0002,0.000605,93.1711,-18.6757,-28.8441,47.5197,93.1711,0.0000,-7.9196,-10.1682,-1.0040,0.0000,0.002721,0.016843,0.008134,-0.0010,-0.0009,0.0002,-180.0000,0.0000,0.0000
6,0.0600,0.0189,-0.0665,-0.0529,0.0871,0.0000,0.0000,0.0000,20.0000,1.8799,0.7186,20.6933,16.4067,0.0002,0.000611,93.1711,-18.6757,-28.8441,47.5197,93.1711,0.0000,-7.9196,-10.1682,-1.0040,0.0000,0.003516,0.015725,0.009683,-0.0003,-0.0005,-0.0012,-180.0000,0.0000,0.0000
7,0.0700,0.0034,-0.0578,-0.0519,0.0778,0.0000,0.0000,0.0000,20.0000,1.7782,0.7797,20.3040,16.6318,0.0003,0.000625,93.1711,-18.6757,-28.8441,47.5197,93.1711,0.0000,-7.9196,-10.1682,-1.0040,0.0000,0.002393,0.014205,0.010426,0.0000,0.0001,-0.0024,-180.0000,0.0000,0.0000
8,0.0800,-0.0053,-0.0453,-0.0435,0.0630,0.0000,0.0000,0.0000,20.0000,1.5695,0.8289,26.3312,16.9995,0.0003,0.000679,93.1711,-18.6757,-28.8441,47.5197,93.1711,0.0000,-7.9196,-10.1682,-1.0040,0.0000,0.000898,0.012085,0.009973,0.0011,-0.0013,-0.0036,-180.0000,0.0000,0.0000
9,0.0900,-0.0129,-0.0282,-0.0278,0.0417,0.0000,0.0000,0.0000,20.0000,1.2286,0.8603,37.8437,17.8295,0.0004,0.000577,93.1711,-18.6757,-28.8441,47.5197,93.1711,0.0000,-7.9196,-10.1682,-1.0040,0.0000,-0.000687,0.009182,0.008135,0.0018,-0.0012,-0.0034,-180.0000,0.0000,0.0000
10,0.1000,-0.0298,-0.0101,-0.0075,0.0323,0.0000,0.0000,0.0000,20.0000,0.8327,0.8696,52.7004,19.3391,0.0004,0.000679,93.1711,-18.6757,-28.8441,47.5197,93.1711,0.0000,-7.9196,-10.1682,-1.0040,0.0000,-0.003254,0.005750,0.005068,0.0019,0.0005,-0.0027,-180.0000,0.0000,0.0000
11,0.1100,-0.0472,0.0076,0.0144,0.0500,0.0000,0.0000,0.0000,20.0000,0.6837,0.8635,62.2176,21.4360,0.0004,0.000632,93.1711,-18.6757,-28.8441,47.5197,93.1711,0.0000,-7.9196,-10.1682,-1.0040,0.0000,-0.006411,0.002067,0.001171,0.0022,0.0010,-0.0039,-180.0000,0.0000,0.0000
12,0.1200,-0.0642,0.0196,0.0329,0.0747,0.0000,0.0000,0.0000,20.0000,1.0303,0.8632,61.8392,23.6689,0.0004,0.000631,93.1711,-18.6757,-28.8441,47.5197,93.1711,0.0000,-7.9196,-10.1682,-1.0040,0.0000,-0.009836,-0.001169,-0.002832,0.0017,0.0005,-0.0052,-180.0000,0.0000,0.0000
13,0.1300,-0.0878,0.0214,0.0401,0.0988,0.0000,0.0000,0.0000,20.0000,1.5522,0.8867,55.0862,25.5828,0.0004,0.000712,93.1711,-18.6757,-28.8441,47.5197,93.1711,0.0000,-7.9196,-10.1682,-1.0040,0.0000,-0.014069,-0.003137,-0.005757,0.0019,0.0008,-0.0050,-180.0000,0.0000,0.0000
14,0.1400,-0.1048,0.0131,0.0348,0.1112,0.0000,0.0000,0.0000,20.0000,1.9631,0.9346,41.6876,26.8372,0.0005,0.000597,93.1711,-18.6757,-28.8441,47.5197,93.1711,0.0000,-7.9196,-10.1682,-1.0040,0.0000,-0.018088,-0.003387,-0.006836,0.0011,0.0001,-0.0049,-180.0000,0.0000,0.0000
15,0.1500,-0.1062,0.0004,0.0208,0.1082,0.0000,0.0000,0.0000,20.0000,2.1426,0.9961,28.6629,27.2959,0.0005,0.000650,93.1763,-18.6630,-28.8626,47.5255,93.1763,-0.0000,-7.9198,-10.1686,-1.0041,-0.0000,-0.020481,-0.002089,-0.005938,0.0012,0.0007,-0.0042,-180.0000,0.0000,0.0000
16,0.1600,-0.1010,-0.0137,0.0009,0.1019,0.0000,0.0000,0.0000,20.0000,2.1515,1.0594,33.6980,27.5096,0.0005,0.000680,93.1763,-18.6630,-28.8626,47.5255,93.1763,-0.0000,-7.9198,-10.1686,-1.0041,-0.0000,-0.021239,0.000037,-0.003435,0.0006,-0.0002,-0.0028,-180.0000,0.0000,0.0000
17,0.1700,-0.0913,-0.0343,-0.0204,0.0997,0.0000,0.0000,0.0000,20.0000,2.0908,1.1178,48.2029,28.2489,0.0006,0.000851,93.1763,-18.6630,-28.8626,47.5255,93.1763,-0.0000,-7.9198,-10.1686,-1.0041,-0.0000,-0.020649,0.003279,0.000083,-0.0002,-0.0005,-0.0014,-180.0000,0.0000,0.0000
18,0.1800,-0.0778,-0.0565,-0.0356,0.1025,0.0000,0.0000,0.0000,20.0000,2.0591,1.1705,55.6133,29.5504,0.0007,0.000782,93.1763,-18.6630,-28.8626,47.5255,93.1763,-0.0000,-7.9198,-10.1686,-1.0041,-0.0000,-0.018933,0.007280,0.003543,-0.0005,0.0001,-0.0014,-180.0000,0.0000,0.0000
19,0.1900,-0.0726,-0.0782,-0.0412,0.1144,0.0000,0.0000,0.0000,20.0000,2.1811,1.2227,52.4243,30.8963,0.0008,0.000780,93.1763,-18.6630,-28.8626,47.5255,93.1763,-0.0000,-7.9198,-10.1686,-1.0041,-0.0000,-0.017429,0.011653,0.006013,0.0004,0.0015,-0.0013,-180.0000,0.0000,0.0000
20,0.2000,-0.0761,-0.0963,-0.0387,0.1287,0.0000,0.0000,0.0000,20.0000,2.4248,1.2821,43.7343,31.8415,0.0010,0.000772,93.1763,-18.6630,-28.8626,47.5255,93.1763,-0.0000,-7.9198,-10.1686,-1.0041,-0.0000,-0.016912,0.015853,0.007116,0.0002,0.0009,-0.0029,-180.0000,0.0000,0.0000
21,0.2100,-0.0788,-0.1010,-0.0312,0.1319,0.0000,0.0000,0.0000,20.0000,2.6062,1.3500,27.6708,32.0539,0.0011,0.000755,93.1763,-18.6630,-28.8626,47.5255,93.1763,-0.0000,-7.9198,-10.1686,-1.0041,-0.0000,-0.016859,0.018616,0.006962,-0.0004,0.0002,-0.0036,-180.0000,0.0000,0.0000
22,0.2200,-0.0759,-0.0886,-0.0243,0.1191,0.0000,0.0000,0.0000,20.0000,2.5812,1.4184,9.0563,31.3008,0.0013,0.000737,93.1763,-18.6630,-28.8626,47.5255,93.1763,-0.0000,-7.9198,-10.1686,-1.0041,-0.0000,-0.016504,0.018864,0.006167,0.0006,0.0005,-0.0043,-180.0000,0.0000,0.0000
23,0.2300,-0.0633,-0.0638,-0.0229,0.0927,0.0000,0.0000,0.0000,20.0000,2.2984,1.4746,28.6805,30.6169,0.0015,0.000727,93.1763,-18.6630,-28.8626,47.5255,93.1763,-0.0000,-7.9198,-10.1686,-1.0041,-0.0000,-0.015013,0.016485,0.005581,0.0006,-0.0001,-0.0040,-180.0000,0.0000,0.0000
24,0.2400,-0.0397,-0.0433,-0.0250,0.0638,0.0000,0.0000,0.0000,20.0000,1.8444,1.5074,46.8173,31.0093,0.0016,0.000741,93.1763,-18.6630,-28.8626,47.5255,93.1763,-0.0000,-7.9198,-10.1686,-1.0041,-0.0000,-0.011801,0.013081,0.005459,-0.0009,-0.0006,-0.0035,-180.0000,0.0000,0.0000
25,0.2500,-0.0158,-0.0401,-0.0296,0.0523,0.0000,0.0000,0.0000,20.0000,1.4490,1.5151,47.5688,31.8995,0.0018,0.000702,93.1763,-18.6630,-28.8626,47.5255,93.1763,-0.0000,-7.9198,-10.1686,-1.0041,-0.0000,-0.007612,0.010859,0.005839,-0.0019,0.0004,-0.0026,-180.0000,0.0000,0.0000
26,0.2600,-0.0026,-0.0517,-0.0367,0.0635,0.0000,0.0000,0.0000,20.0000,1.3309,1.5082,37.6237,32.4879,0.0019,0.000763,93.1763,-18.6630,-28.8626,47.5255,93.1763,-0.0000,-7.9198,-10.1686,-1.0041,-0.0000,-0.003961,0.010768,0.006745,-0.0007,0.0021,-0.0021,-180.0000,0.0000,0.0000
27,0.2700,0.0069,-0.0625,-0.0468,0.0784,0.0000,0.0000,0.0000,20.0000,1.4408,1.5015,34.7953,32.6926,0.0020,0.000705,93.1763,-18.6630,-28.8626,47.5255,93.1763,-0.0000,-7.9198,-10.1686,-1.0041,-0.0000,-0.000987,0.011777,0.008241,-0.0000,0.0024,-0.0008,-180.0000,0.0000,0.0000
28,0.2800,0.0118,-0.0651,-0.0612,0.0901,0.0000,0.0000,0.0000,20.0000,1.6414,1.5036,31.9953,32.7313,0.0021,0.000701,93.1763,-18.6630,-28.8626,47.5255,93.1763,-0.0000,-7.9198,-10.1686,-1.0041,-0.0000,0.001148,0.012574,0.010488,-0.0005,0.0027,-0.0016,-180.0000,0.0000,0.0000
29,0.2900,0.0057,-0.0593,-0.0765,0.0970,0.0000,0.0000,0.0000,20.0000,1.8227,1.5162,28.2034,32.5865,0.0022,0.000746,93.1763,-18.6630,-28.8626,47.5255,93.1763,-0.0000,-7.9198,-10.1686,-1.0041,-0.0000,0.001714,0.012403,0.013245,-0.0000,0.0032,-0.0021,-180.0000,0.0000,0.0000
30,0.3000,0.0005,-0.0455,-0.0948,0.1052,0.0000,0.0000,0.0000,20.0000,1.9899,1.5377,36.5675,32.5754,0.0023,0.000704,93.1763,-18.6630,-28.8626,47.5255,93.1763,-0.0000,-7.9198,-10.1686,-1.0041,-0.0000,0.001511,0.010906,0.016576,0.0004,0.0021,-0.0018,-180.0000,0.0000,0.0000
31,0.3100,0.0018,-0.0347,-0.1137,0.1189,0.0000,0.0000,0.0000,20.0000,2.2217,1.5689,41.6759,32.9355,0.0024,0.000735,93.1763,-18.6630,-28.8626,47.5255,93.1763,-0.0000,-7.9198,-10.1686,-1.0041,-0.0000,0.001520,0.008973,0.020268,-0.0001,0.0021,-0.0015,-180.0000,0.0000,0.0000
32,0.3200,-0.0019,-0.0301,-0.1229,0.1265,0.0000,0.0000,0.0000,20.0000,2.4377,1.6108,33.2329,33.1841,0.0026,0.000693,93.1763,-18.6630,-28.8626,47.5255,93.1763,-0.0000,-7.9198,-10.1686,-1.0041,-0.0000,0.001158,0.007430,0.023189,-0.0007,0.0019,-0.0017,-180.0000,0.0000,0.0000
33,0.3300,-0.0121,-0.0293,-0.1215,0.1255,0.0000,0.0000,0.0000,20.0000,2.5453,1.6592,21.0489,32.8517,0.0027,0.000678,93.1763,-18.6630,-28.8626,47.5255,93.1763,-0.0000,-7.9198,-10.1686,-1.0041,-0.0000,-0.000065,0.006480,0.024615,-0.0004,0.0028,-0.0013,-180.0000,0.0000,0.0000
34,0.3400,-0.0280,-0.0303,-0.1148,0.1220,0.0000,0.0000,0.0000,20.0000,2.5524,1.7082,23.0858,32.2585,0.0029,0.000760,93.1763,-18.6630,-28.8626,47.5255,93.1763,-0.0000,-7.9198,-10.1686,-1.0041,-0.0000,-0.002332,0.006048,0.024687,-0.0008,0.0022,-0.0023,-180.0000,0.0000,0.0000
35,0.3500,-0.0446,-0.0297,-0.1041,0.1171,0.0000,0.0000,0.0000,20.0000,2.5180,1.7536,34.0716,32.0561,0.0031,0.000667,93.2061,-18.6335,-28.9042,47.5377,93.2061,0.0129,-7.8849,-14.8257,-1.0014,-0.0000,-0.005617,0.006077,0.023782,-0.0008,0.0011,-0.0028,180.0000,0.0000,0.0000
36,0.3600,-0.0582,-0.0278,-0.0858,0.1073,0.0000,0.0000,0.0000,20.0000,2.3871,1.7921,39.6883,32.3214,0.0033,0.000713,93.2061,-18.6335,-28.9042,47.5377,93.2061,0.0129,-7.8849,-14.8257,-1.0014,-0.0000,-0.008785,0.005890,0.021399,-0.0008,0.0011,-0.0029,180.0000,0.0000,0.0000
37,0.3700,-0.0706,-0.0245,-0.0623,0.0973,0.0000,0.0000,0.0000,20.0000,2.1928,1.8195,47.6946,32.9469,0.0036,0.000747,93.2061,-18.6335,-28.9042,47.5377,93.2061,0.0129,-7.8849,-14.8257,-1.0014,-0.0000,-0.011752,0.005454,0.017691,-0.0006,0.0006,-0.0023,180.0000,0.0000,0.0000
38,0.3800,-0.0783,-0.0199,-0.0392,0.0898,0.0000,0.0000,0.0000,20.0000,1.9985,1.8347,50.5274,33.8360,0.0038,0.000653,93.2061,-18.6335,-28.9042,47.5377,93.2061,0.0129,-7.8849,-14.8257,-1.0014,-0.0000,-0.014146,0.004738,0.013299,-0.0000,-0.0007,-0.0022,180.0000,0.0000,0.0000
39,0.3900,-0.0788,-0.0120,-0.0164,0.0813,0.0000,0.0000,0.0000,20.0000,1.8043,1.8383,50.6811,34.7584,0.0040,0.000841,93.2061,-18.6335,-28.9042,47.5377,93.2061,0.0129,-7.8849,-14.8257,-1.0014,-0.0000,-0.015484,0.003543,0.008559,0.0019,-0.0008,-0.0026,180.0000,0.0000,0.0000
40,0.4000,-0.0686,0.0023,0.0053,0.0689,0.0000,0.0000,0.0000,20.0000,1.5703,1.8300,52.5441,35.6855,0.0041,0.000787,93.2061,-18.6335,-28.9042,47.5377,93.2061,0.0129,-7.8849,-14.8257,-1.0014,-0.0000,-0.015179,0.001441,0.003753,0.0031,-0.0017,-0.0014,180.0000,0.0000,0.0000
41,0.4100,-0.0526,0.0247,0.0161,0.0603,0.0000,0.0000,0.0000,20.0000,1.3520,1.8097,53.7069,36.6449,0.0042,0.000670,93.2061,-18.6335,-28.9042,47.5377,93.2061,0.0129,-7.8849,-14.8257,-1.0014,-0.0000,-0.013378,-0.001956,0.000004,0.0042,-0.0034,-0.0017,180.0000,0.0000,0.0000
42,0.4200,-0.0376,0.0456,0.0160,0.0613,0.0000,0.0000,0.0000,20.0000,1.2536,1.7819,51.3771,37.5193,0.0042,0.000678,93.2061,-18.6335,-28.9042,47.5377,93.2061,0.0129,-7.8849,-14.8257,-1.0014,-0.0000,-0.010853,-0.005929,-0.002055,0.0029,-0.0032,-0.0030,180.0000,0.0000,0.0000
43,0.4300,-0.0215,0.0552,0.0100,0.0601,0.0000,0.0000,0.0000,20.0000,1.2256,1.7520,43.9451,38.0772,0.0042,0.000734,93.2061,-18.6335,-28.9042,47.5377,93.2061,0.0129,-7.8849,-14.8257,-1.0014,-0.0000,-0.007826,-0.009071,-0.002585,0.0027,-0.0036,-0.0026,180.0000,0.0000,0.0000
44,0.4400,-0.0011,0.0544,-0.0065,0.0548,0.0000,0.0000,0.0000,20.0000,1.1532,1.7211,42.9114,38.3715,0.0041,0.000731,93.2061,-18.6335,-28.9042,47.5377,93.2061,0.0129,-7.8849,-14.8257,-1.0014,-0.0000,-0.004098,-0.010709,-0.001230,0.0015,-0.0044,-0.0012,180.0000,0.0000,0.0000
45,0.4500,0.0092,0.0408,-0.0281,0.0503,0.0000,0.0000,0.0000,20.0000,1.0414,1.6868,42.7966,38.6181,0.0041,0.000761,93.2061,-18.6335,-28.9042,47.5377,93.2061,0.0129,-7.8849,-14.8257,-1.0014,-0.0000,-0.000999,-0.010228,0.001682,-0.0003,-0.0037,-0.0020,180.0000,0.0000,0.0000
46,0.4600,0.0067,0.0106,-0.0404,0.0423,0.0000,0.0000,0.0000,20.0000,0.8287,1.6454,45.9590,38.9349,0.0041,0.000814,93.2061,-18.6335,-28.9042,47.5377,93.2061,0.0129,-7.8849,-14.8257,-1.0014,-0.0000,0.000466,-0.006927,0.004524,-0.0019,-0.0025,-0.0030,180.0000,0.0000,0.0000
47,0.4700,0.0055,-0.0233,-0.0423,0.0486,0.0000,0.0000,0.0000,20.0000,0.6602,1.5959,55.5664,39.5856,0.0041,0.000715,93.2061,-18.6335,-28.9042,47.5377,93.2061,0.0129,-7.8849,-14.8257,-1.0014,-0.0000,0.001152,-0.001698,0.006275,-0.0014,-0.0031,-0.0024,180.0000,0.0000,0.0000
48,0.4800,0.0039,-0.0427,-0.0406,0.0591,0.0000,0.0000,0.0000,20.0000,0.7849,1.5478,49.0550,40.2856,0.0042,0.000710,93.2061,-18.6335,-28.9042,47.5377,93.2061,0.0129,-7.8849,-14.8257,-1.0014,-0.0000,0.001372,0.003138,0.007062,-0.0013,-0.0022,-0.0023,180.0000,0.0000,0.0000
49,0.4900,-0.0004,-0.0504,-0.0373,0.0627,0.0000,0.0000,0.0000,20.0000,0.9770,1.5111,34.5006,40.3676,0.0042,0.000595,93.2061,-18.6335,-28.9042,47.5377,93.2061,0.0129,-7.8849,-14.8257,-1.0014,-0.0000,0.001061,0.006573,0.007150,-0.0018,-0.0010,-0.0019,180.0000,0.0000,0.0000
50,0.5000,-0.0014,-0.0534,-0.0305,0.0615,0.0000,0.0000,0.0000,20.0000,1.0939,1.4850,22.9557,39.7274,0.0043,0.000538,93.2061,-18.6335,-28.9042,47.5377,93.2061,0.0129,-7.8849,-14.8257,-1.0014,-0.0000,0.000784,0.008759,0.006506,-0.0015,-0.0008,-0.0018,180.0000,0.0000,0.0000
51,0.5100,0.0028,-0.0450,-0.0245,0.0514,0.0000,0.0000,0.0000,20.0000,1.0717,1.4628,10.6565,38.4665,0.0045,0.000604,93.2061,-18.6335,-28.9042,47.5377,93.2061,0.0129,-7.8849,-14.8257,-1.0014,-0.0000,0.001047,0.009116,0.005537,0.0002,-0.0016,-0.0011,180.0000,0.0000,0.0000
52,0.5200,0.0112,-0.0324,-0.0273,0.0438,0.0000,0.0000,0.0000,20.0000,0.9815,1.4389,14.9555,37.0550,0.0045,0.000690,93.2061,-18.6335,-28.9042,47.5377,93.2061,0.0129,-7.8849,-14.8257,-1.0014,-0.0000,0.002035,0.008026,0.005271,0.0019,-0.0015,-0.0009,180.0000,0.0000,0.0000
53,0.5300,0.0161,-0.0327,-0.0354,0.0508,0.0000,0.0000,0.0000,20.0000,0.9989,1.4142,13.5410,35.8004,0.0046,0.000558,93.2061,-18.6335,-28.9042,47.5377,93.2061,0.0129,-7.8849,-14.8257,-1.0014,-0.0000,0.003068,0.007438,0.005920,0.0013,-0.0020,-0.0013,180.0000,0.0000,0.0000
54,0.5400,0.0091,-0.0388,-0.0410,0.0572,0.0000,0.0000,0.0000,20.0000,1.0709,1.3933,9.5390,34.4659,0.0047,0.000569,93.2061,-18.6335,-28.9042,47.5377,93.2061,0.0129,-7.8849,-14.8257,-1.0014,-0.0000,0.002936,0.007714,0.006824,0.0017,-0.0021,-0.0023,180.0000,0.0000,0.0000
55,0.5500,-0.0015,-0.0385,-0.0464,0.0603,0.0000,0.0000,0.0000,20.0000,1.1709,1.3783,21.5545,33.4252,0.0048,0.000492,93.2321,-18.6362,-28.9494,47.5856,93.2321,-0.0019,-7.9383,-13.3685,-1.0041,0.0000,0.001467,0.008064,0.008362,0.0019,-0.0028,-0.0004,180.0000,0.0000,0.0000
56,0.5600,-0.0048,-0.0378,-0.0569,0.0685,0.0000,0.0000,0.0000,20.0000,1.3106,1.3708,22.0245,32.7852,0.0050,0.000526,93.2321,-18.6362,-28.9494,47.5856,93.2321,-0.0019,-7.9383,-13.3685,-1.0041,0.0000,0.000321,0.008174,0.010240,0.0002,-0.0024,0.0006,180.0000,0.0000,0.0000
57,0.5700,-0.0023,-0.0377,-0.0655,0.0756,0.0000,0.0000,0.0000,20.0000,1.4637,1.3717,19.1828,32.1151,0.0052,0.000497,93.2321,-18.6362,-28.9494,47.5856,93.2321,-0.0019,-7.9383,-13.3685,-1.0041,0.0000,-0.000064,0.008208,0.012119,-0.0014,-0.0021,0.0002,180.0000,0.0000,0.0000
58,0.5800,0.0056,-0.0288,-0.0721,0.0779,0.0000,0.0000,0.0000,20.0000,1.5627,1.3794,19.8888,31.4231,0.0053,0.000700,93.2321,-18.6362,-28.9494,47.5856,93.2321,-0.0019,-7.9383,-13.3685,-1.0041,0.0000,0.000518,0.007317,0.013799,-0.0002,-0.0013,0.0004,180.0000,0.0000,0.0000
59,0.5900,0.0177,-0.0198,-0.0845,0.0886,0.0000,0.0000,0.0000,20.0000,1.7122,1.3936,29.7614,31.0602,0.0055,0.000540,93.2321,-18.6362,-28.9494,47.5856,93.2321,-0.0019,-7.9383,-13.3685,-1.0041,0.0000,0.002043,0.005917,0.015937,0.0004,-0.0004,0.0011,180.0000,0.0000,0.0000
60,0.6000,0.0221,-0.0233,-0.0967,0.1019,0.0000,0.0000,0.0000,20.0000,1.9395,1.4174,27.2976,30.9210,0.0057,0.000518,93.2321,-18.6362,-28.9494,47.5856,93.2321,-0.0019,-7.9383,-13.3685,-1.0041,0.0000,0.003322,0.005473,0.018308,-0.0003,0.0007,-0.0005,180.0000,0.0000,0.0000
61,0.6100,0.0134,-0.0362,-0.1061,0.1130,0.0000,0.0000,0.0000,20.0000,2.1764,1.4526,24.5531,30.6462,0.0060,0.000662,93.2321,-18.6362,-28.9494,47.5856,93.2321,-0.0019,-7.9383,-13.3685,-1.0041,0.0000,0.003153,0.006514,0.020525,0.0007,0.0010,-0.0008,180.0000,0.0000,0.0000
62,0.6200,-0.0075,-0.0538,-0.1191,0.1309,0.0000,0.0000,0.0000,20.0000,2.4665,1.5004,40.4097,30.7471,0.0063,0.000813,93.2321,-18.6362,-28.9494,47.5856,93.2321,-0.0019,-7.9383,-13.3685,-1.0041,0.0000,0.000965,0.008833,0.023008,0.0015,0.0017,-0.0013,180.0000,0.0000,0.0000
63,0.6300,-0.0298,-0.0736,-0.1306,0.1528,0.0000,0.0000,0.0000,20.0000,2.8306,1.5636,53.3910,31.6357,0.0067,0.000731,93.2321,-18.6362,-28.9494,47.5856,93.2321,-0.0019,-7.9383,-13.3685,-1.0041,0.0000,-0.002478,0.012081,0.025478,0.0015,0.0008,-0.0012,180.0000,0.0000,0.0000
64,0.6400,-0.0463,-0.0943,-0.1308,0.1678,0.0000,0.0000,0.0000,20.0000,3.1763,1.6428,53.9270,32.8471,0.0072,0.000791,93.2321,-18.6362,-28.9494,47.5856,93.2321,-0.0019,-7.9383,-13.3685,-1.0041,0.0000,-0.006022,0.015919,0.026818,0.0015,0.0002,-0.0011,180.0000,0.0000,0.0000
65,0.6500,-0.0598,-0.1065,-0.1245,0.1744,0.0000,0.0000,0.0000,20.0000,3.4331,1.7342,46.7186,33.8084,0.0078,0.000590,93.2321,-18.6362,-28.9494,47.5856,93.2321,-0.0019,-7.9383,-13.3685,-1.0041,0.0000,-0.009324,0.019223,0.026873,0.0023,0.0011,-0.0016,180.0000,0.0000,0.0000
66,0.6600,-0.0660,-0.1072,-0.1084,0.1662,0.0000,0.0000,0.0000,20.0000,3.4927,1.8293,34.6399,34.1864,0.0084,0.000507,93.2321,-18.6362,-28.9494,47.5856,93.2321,-0.0019,-7.9383,-13.3685,-1.0041,0.0000,-0.011749,0.021086,0.025244,0.0008,0.0005,-0.0015,180.0000,0.0000,0.0000
67,0.6700,-0.0648,-0.1032,-0.0792,0.1453,0.0000,0.0000,0.0000,20.0000,3.3074,1.9157,40.9821,34.3858,0.0090,0.000624,93.2321,-18.6362,-28.9494,47.5856,93.2321,-0.0019,-7.9383,-13.3685,-1.0041,0.0000,-0.012939,0.021677,0.021368,0.0003,0.0005,-0.0013,180.0000,0.0000,0.0000
68,0.6800,-0.0695,-0.1005,-0.0494,0.1318,0.0000,0.0000,0.0000,20.0000,3.0500,1.9852,52.8349,35.0746,0.0096,0.000701,93.2321,-18.6362,-28.9494,47.5856,93.2321,-0.0019,-7.9383,-13.3685,-1.0041,0.0000,-0.014048,0.021689,0.016202,-0.0008,0.0021,-0.0026,180.0000,0.0000,0.0000
69,0.6900,-0.0771,-0.0949,-0.0282,0.1255,0.0000,0.0000,0.0000,20.0000,2.8406,2.0380,52.2016,36.0342,0.0101,0.000641,93.2321,-18.6362,-28.9494,47.5856,93.2321,-0.0019,-7.9383,-13.3685,-1.0041,0.0000,-0.015385,0.021094,0.011191,-0.0014,0.0016,-0.0033,180.0000,0.0000,0.0000
70,0.7000,-0.0699,-0.0872,-0.0146,0.1128,0.0000,0.0000,0.0000,20.0000,2.6159,2.0760,42.9837,36.6700,0.0106,0.000676,93.2321,-18.6362,-28.9494,47.5856,93.2321,-0.0019,-7.9383,-13.3685,-1.0041,0.0000,-0.015379,0.019953,0.007047,-0.0014,0.0005,-0.0024,180.0000,0.0000,0.0000
71,0.7100,-0.0560,-0.0811,-0.0093,0.0990,0.0000,0.0000,0.0000,20.0000,2.3684,2.0989,34.2888,36.7781,0.0110,0.000583,93.2321,-18.6362,-28.9494,47.5856,93.2321,-0.0019,-7.9383,-13.3685,-1.0041,0.0000,-0.013955,0.018669,0.004204,-0.0007,0.0013,-0.0029,180.0000,0.0000,0.0000
72,0.7200,-0.0429,-0.0775,-0.0136,0.0896,0.0000,0.0000,0.0000,20.0000,2.1392,2.1074,26.6029,36.4298,0.0114,0.000580,93.2321,-18.6362,-28.9494,47.5856,93.2321,-0.0019,-7.9383,-13.3685,-1.0041,0.0000,-0.011826,0.017563,0.003055,-0.0013,0.0016,-0.0029,180.0000,0.0000,0.0000
73,0.7300,-0.0219,-0.0853,-0.0182,0.0900,0.0000,0.0000,0.0000,20.0000,1.9855,2.1049,33.0690,36.0671,0.0117,0.000679,93.2321,-18.6362,-28.9494,47.5856,93.2321,-0.0019,-7.9383,-13.3685,-1.0041,0.0000,-0.008527,0.017699,0.002877,-0.0025,-0.0003,-0.0015,180.0000,0.0000,0.0000
74,0.7400,0.0011,-0.0965,-0.0126,0.0973,0.0000,0.0000,0.0000,20.0000,1.9928,2.0985,43.3269,36.1843,0.0121,0.000525,93.2379,-18.6265,-29.0052,47.6317,93.2379,0.0022,-7.9391,-15.4683,-1.0040,-0.0000,-0.004476,0.019228,0.002716,-0.0026,-0.0007,-0.0023,180.0000,0.0000,-0.0000
75,0.7500,0.0104,-0.1066,-0.0013,0.1071,0.0000,0.0000,0.0000,20.0000,2.1131,2.0960,38.5642,36.4462,0.0124,0.000648,93.2379,-18.6265,-29.0052,47.6317,93.2379,0.0022,-7.9391,-15.4683,-1.0040,-0.0000,-0.001297,0.021038,0.001496,-0.0032,0.0001,-0.0030,180.0000,0.0000,-0.0000
76,0.7600,0.0086,-0.1209,0.0050,0.1213,0.0000,0.0000,0.0000,20.0000,2.3429,2.1033,31.4349,36.3666,0.0127,0.000662,93.2379,-18.6265,-29.0052,47.6317,93.2379,0.0022,-7.9391,-15.4683,-1.0040,-0.0000,0.000275,0.023427,0.000190,-0.0030,0.0001,-0.0021,180.0000,0.0000,-0.0000
77,0.7700,-0.0005,-0.1376,0.0063,0.1377,0.0000,0.0000,0.0000,20.0000,2.6382,2.1246,30.6880,36.0748,0.0131,0.000538,93.2379,-18.6265,-29.0052,47.6317,93.2379,0.0022,-7.9391,-15.4683,-1.0040,-0.0000,0.000233,0.026373,-0.000669,-0.0030,-0.0002,-0.0009,180.0000,0.0000,-0.0000
78,0.7800,-0.0160,-0.1487,0.0048,0.1497,0.0000,0.0000,0.0000,20.0000,2.9113,2.1604,31.3501,35.7967,0.0136,0.000589,93.2379,-18.6265,-29.0052,47.6317,93.2379,0.0022,-7.9391,-15.4683,-1.0040,-0.0000,-0.001342,0.029065,-0.000988,-0.0029,-0.0006,-0.0005,180.0000,0.0000,-0.0000
79,0.7900,-0.0285,-0.1570,-0.0022,0.1595,0.0000,0.0000,0.0000,20.0000,3.1510,2.2083,31.3306,35.5516,0.0141,0.000659,93.2379,-18.6265,-29.0052,47.6317,93.2379,0.0022,-7.9391,-15.4683,-1.0040,-0.0000,-0.003455,0.031316,-0.000458,-0.0034,-0.0003,0.0001,180.0000,0.0000,-0.0000
80,0.8000,-0.0331,-0.1646,-0.0092,0.1682,0.0000,0.0000,0.0000,20.0000,3.3657,2.2660,27.2202,35.2063,0.0147,0.000750,93.2379,-18.6265,-29.0052,47.6317,93.2379,0.0022,-7.9391,-15.4683,-1.0040,-0.0000,-0.005074,0.033268,0.000531,-0.0037,-0.0013,-0.0005,180.0000,0.0000,-0.0000
81,0.8100,-0.0344,-0.1666,-0.0101,0.1705,0.0000,0.0000,0.0000,20.0000,3.5032,2.3303,17.0316,34.4868,0.0154,0.000623,93.2379,-18.6265,-29.0052,47.6317,93.2379,0.0022,-7.9391,-15.4683,-1.0040,-0.0000,-0.006090,0.034479,0.001166,-0.0039,-0.0012,-0.0014,180.0000,0.0000,-0.0000
82,0.8200,-0.0298,-0.1593,-0.0099,0.1624,0.0000,0.0000,0.0000,20.0000,3.4933,2.3945,3.6744,33.1592,0.0161,0.000684,93.2379,-18.6265,-29.0052,47.6317,93.2379,0.0022,-7.9391,-15.4683,-1.0040,-0.0000,-0.006176,0.034350,0.001499,-0.0036,-0.0009,-0.0021,180.0000,0.0000,-0.0000
83,0.8300,-0.0190,-0.1421,-0.0125,0.1439,0.0000,0.0000,0.0000,20.0000,3.2945,2.4495,21.8089,32.0361,0.0168,0.000598,93.2379,-18.6265,-29.0052,47.6317,93.2379,0.0022,-7.9391,-15.4683,-1.0040,-0.0000,-0.005134,0.032484,0.001939,-0.0015,0.0011,-0.0020,180.0000,0.0000,-0.0000
84,0.8400,-0.0141,-0.1252,-0.0158,0.1270,0.0000,0.0000,0.0000,20.0000,3.0079,2.4881,30.3907,31.7096,0.0174,0.000569,93.2379,-18.6265,-29.0052,47.6317,93.2379,0.0022,-7.9391,-15.4683,-1.0040,-0.0000,-0.004062,0.029698,0.002504,-0.0011,0.0015,-0.0005,180.0000,0.0000,-0.0000
85,0.8500,-0.0061,-0.1062,-0.0161,0.1076,0.0000,0.0000,0.0000,20.0000,2.6489,2.5068,37.8324,31.8417,0.0180,0.000619,93.2379,-18.6265,-29.0052,47.6317,93.2379,0.0022,-7.9391,-15.4683,-1.0040,-0.0000,-0.002659,0.026201,0.002846,-0.0003,0.0019,0.0002,180.0000,0.0000,-0.0000
86,0.8600,0.0108,-0.0821,-0.0099,0.0834,0.0000,0.0000,0.0000,20.0000,2.1937,2.5021,50.6436,32.5236,0.0185,0.000528,93.2379,-18.6265,-29.0052,47.6317,93.2379,0.0022,-7.9391,-15.4683,-1.0040,-0.0000,-0.000185,0.021804,0.002401,0.0004,0.0009,0.0008,180.0000,0.0000,-0.0000
87,0.8700,0.0241,-0.0618,0.0032,0.0664,0.0000,0.0000,0.0000,20.0000,1.7503,2.4730,54.7349,33.6329,0.0189,0.000447,93.2379,-18.6265,-29.0052,47.6317,93.2379,0.0022,-7.9391,-15.4683,-1.0040,-0.0000,0.002509,0.017302,0.000843,0.0006,0.0002,0.0003,180.0000,0.0000,-0.0000
88,0.8800,0.0347,-0.0480,0.0172,0.0617,0.0000,0.0000,0.0000,20.0000,1.4385,2.4246,51.8491,34.7143,0.0191,0.000552,93.2379,-18.6265,-29.0052,47.6317,93.2379,0.0022,-7.9391,-15.4683,-1.0040,-0.0000,0.005058,0.013392,-0.001415,0.0008,0.0000,0.0005,180.0000,0.0000,-0.0000
89,0.8900,0.0479,-0.0434,0.0265,0.0698,0.0000,0.0000,0.0000,20.0000,1.3739,2.3686,43.7170,35.4332,0.0192,0.000512,93.2379,-18.6265,-29.0052,47.6317,93.2379,0.0022,-7.9391,-15.4683,-1.0040,-0.0000,0.007771,0.010745,-0.003593,0.0014,0.0002,0.0011,180.0000,0.0000,-0.0000
90,0.9000,0.0540,-0.0528,0.0242,0.0793,0.0000,0.0000,0.0000,20.0000,1.4906,2.3171,23.7238,35.3389,0.0192,0.000568,93.2379,-18.6265,-29.0052,47.6317,93.2379,0.0022,-7.9391,-15.4683,-1.0040,-0.0000,0.009867,0.010199,-0.004561,0.0016,0.0003,0.0009,180.0000,0.0000,-0.0000
91,0.9100,0.0486,-0.0732,0.0068,0.0881,0.0000,0.0000,0.0000,20.0000,1.6213,2.2752,21.9410,34.6510,0.0193,0.000589,93.2379,-18.6265,-29.0052,47.6317,93.2379,0.0022,-7.9391,-15.4683,-1.0040,-0.0000,0.010467,0.011922,-0.003341,0.0009,0.0011,0.0013,180.0000,0.0000,-0.0000
92,0.9200,0.0536,-0.0946,-0.0159,0.1099,0.0000,0.0000,0.0000,20.0000,1.8763,2.2463,43.2920,34.5391,0.0195,0.000522,93.2379,-18.6265,-29.0052,47.6317,93.2379,0.0022,-7.9391,-15.4683,-1.0040,-0.0000,0.011279,0.014989,-0.000396,0.0011,-0.0002,0.0022,180.0000,0.0000,-0.0000
93,0.9300,0.0754,-0.1038,-0.0338,0.1326,0.0000,0.0000,0.0000,20.0000,2.2598,2.2365,50.1284,35.2086,0.0198,0.000580,93.2379,-18.6265,-29.0052,47.6317,93.2379,0.0022,-7.9391,-15.4683,-1.0040,-0.0000,0.013879,0.017576,0.003021,0.0011,-0.0016,0.0026,180.0000,0.0000,-0.0000
94,0.9400,0.1026,-0.0957,-0.0452,0.1474,0.0000,0.0000,0.0000,20.0000,2.6824,2.2494,52.9060,36.1057,0.0202,0.000580,93.2463,-18.5393,-29.0942,47.6334,93.2463,-0.0054,-7.9412,-15.4683,-1.0030,0.0000,0.017862,0.019033,0.006183,0.0017,-0.0020,0.0022,180.0000,0.0000,0.0000
95,0.9500,0.1294,-0.0773,-0.0464,0.1577,0.0000,0.0000,0.0000,20.0000,3.0056,2.2821,53.0293,37.0332,0.0205,0.000566,93.2463,-18.5393,-29.0942,47.6334,93.2463,-0.0054,-7.9412,-15.4683,-1.0030,0.0000,0.022711,0.017968,0.008048,0.0025,-0.0022,0.0023,180.0000,0.0000,0.0000
96,0.9600,0.1473,-0.0615,-0.0347,0.1633,0.0000,0.0000,0.0000,20.0000,3.2352,2.3282,49.4530,37.8148,0.0208,0.001011,93.2463,-18.5393,-29.0942,47.6334,93.2463,-0.0054,-7.9412,-15.4683,-1.0030,0.0000,0.027132,0.015757,0.007889,0.0019,-0.0019,0.0003,180.0000,0.0000,0.0000
97,0.9700,0.1420,-0.0592,-0.0118,0.1542,0.0000,0.0000,0.0000,20.0000,3.2777,2.3793,33.7691,38.0236,0.0210,0.000637,93.2463,-18.5393,-29.0942,47.6334,93.2463,-0.0054,-7.9412,-15.4683,-1.0030,0.0000,0.028991,0.014272,0.005493,0.0007,0.0002,-0.0023,180.0000,0.0000,0.0000
98,0.9800,0.1060,-0.0697,0.0116,0.1273,0.0000,0.0000,0.0000,20.0000,3.0128,2.4214,45.2424,38.1051,0.0212,0.000551,93.2463,-18.5393,-29.0942,47.6334,93.2463,-0.0054,-7.9412,-15.4683,-1.0030,0.0000,0.026363,0.014471,0.001816,0.0007,0.0014,-0.0048,180.0000,0.0000,0.0000
99,0.9900,0.0554,-0.0871,0.0274,0.1068,0.0000,0.0000,0.0000,20.0000,2.5703,2.4418,77.1558,39.3755,0.0214,0.000534,93.2463,-18.5393,-29.0942,47.6334,93.2463,-0.0054,-7.9412,-15.4683,-1.0030,0.0000,0.019796,0.016294,-0.001802,-0.0000,0.0020,-0.0051,180.0000,0.0000,0.0000
100,1.0000,0.0117,-0.0998,0.0341,0.1062,0.0000,0.0000,0.0000,20.0000,2.2412,2.4398,87.5896,41.7407,0.0217,0.000648,93.2463,-18.5393,-29.0942,47.6334,93.2463,-0.0054,-7.9412,-15.4683,-1.0030,0.0000,0.011763,0.018546,-0.004469,-0.0000,0.0021,-0.0040,180.0000,0.0000,0.0000
101,1.0100,-0.0198,-0.1003,0.0325,0.1073,0.0000,0.0000,0.0000,20.0000,2.1038,2.4251,78.3131,44.0076,0.0221,0.000579,93.2463,-18.5393,-29.0942,47.6334,93.2463,-0.0054,-7.9412,-15.4683,-1.0030,0.0000,0.004143,0.019804,-0.005766,0.0012,0.0019,-0.0026,180.0000,0.0000,0.0000
102,1.0200,-0.0401,-0.0882,0.0236,0.0997,0.0000,0.0000,0.0000,20.0000,2.0154,2.4050,62.7226,45.4659,0.0225,0.000509,93.2463,-18.5393,-29.0942,47.6334,93.2463,-0.0054,-7.9412,-15.4683,-1.0030,0.0000,-0.002102,0.019250,-0.005583,0.0013,0.0004,-0.0015,180.0000,0.0000,0.0000
103,1.0300,-0.0432,-0.0735,0.0122,0.0861,0.0000,0.0000,0.0000,20.0000,1.8897,2.3801,43.5898,45.8889,0.0229,0.000619,93.2463,-18.5393,-29.0942,47.6334,93.2463,-0.0054,-7.9412,-15.4683,-1.0030,0.0000,-0.005863,0.017434,-0.004334,0.0011,0.0003,-0.0010,180.0000,0.0000,0.0000
104,1.0400,-0.0416,-0.0671,0.0017,0.0790,0.0000,0.0000,0.0000,20.0000,1.7755,2.3500,30.9113,45.4137,0.0234,0.000600,93.2463,-18.5393,-29.0942,47.6334,93.2463,-0.0054,-7.9412,-15.4683,-1.0030,0.0000,-0.007774,0.015752,-0.002581,0.0018,0.0001,-0.0018,180.0000,0.0000,0.0000
105,1.0500,-0.0489,-0.0763,-0.0078,0.0909,0.0000,0.0000,0.0000,20.0000,1.8390,2.3201,26.1413,44.4848,0.0238,0.000650,93.2463,-18.5393,-29.0942,47.6334,93.2463,-0.0054,-7.9412,-15.4683,-1.0030,0.0000,-0.009540,0.015708,-0.000654,0.0004,-0.0002,-0.0032,180.0000,0.0000,0.0000
106,1.0600,-0.0590,-0.0970,-0.0110,0.1140,0.0000,0.0000,0.0000,20.0000,2.1143,2.3012,31.3608,43.6193,0.0244,0.000658,93.2463,-18.5393,-29.0942,47.6334,93.2463,-0.0054,-7.9412,-15.4683,-1.0030,0.0000,-0.011503,0.017725,0.000730,-0.0008,0.0002,-0.0031,180.0000,0.0000,0.0000
107,1.0700,-0.0626,-0.1147,-0.0106,0.1311,0.0000,0.0000,0.0000,20.0000,2.4348,2.2998,32.7048,42.9820,0.0251,0.000515,93.2463,-18.5393,-29.0942,47.6334,93.2463,-0.0054,-7.9412,-15.4683,-1.0030,0.0000,-0.012932,0.020578,0.001447,-0.0004,0.0013,-0.0019,180.0000,0.0000,0.0000
108,1.0800,-0.0609,-0.1230,-0.0092,0.1376,0.0000,0.0000,0.0000,20.0000,2.6689,2.3136,24.5254,42.1917,0.0258,0.000500,93.2463,-18.5393,-29.0942,47.6334,93.2463,-0.0054,-7.9412,-15.4683,-1.0030,0.0000,-0.013528,0.022943,0.001704,0.0001,0.0018,0.0002,180.0000,0.0000,0.0000
109,1.0900,-0.0557,-0.1179,-0.0081,0.1307,0.0000,0.0000,0.0000,20.0000,2.7234,2.3347,7.8487,40.7612,0.0266,0.000695,93.2463,-18.5393,-29.0942,47.6334,93.2463,-0.0054,-7.9412,-15.4683,-1.0030,0.0000,-0.013310,0.023697,0.001730,-0.0009,0.0013,0.0015,180.0000,0.0000,0.0000
110,1.1000,-0.0533,-0.1018,-0.0030,0.1149,0.0000,0.0000,0.0000,20.0000,2.5932,2.3525,13.9784,39.1193,0.0274,0.000609,93.2463,-18.5393,-29.0942,47.6334,93.2463,-0.0054,-7.9412,-15.4683,-1.0030,0.0000,-0.012921,0.022450,0.001233,-0.0014,0.0026,0.0018,180.0000,0.0000,0.0000
111,1.1100,-0.0586,-0.0867,0.0057,0.1048,0.0000,0.0000,0.0000,20.0000,2.4144,2.3608,25.3283,38.0486,0.0281,0.000569,93.2463,-18.5393,-29.0942,47.6334,93.2463,-0.0054,-7.9412,-15.4683,-1.0030,0.0000,-0.013210,0.020210,0.000086,-0.0008,0.0030,0.0015,180.0000,0.0000,0.0000
112,1.1200,-0.0683,-0.0806,0.0123,0.1064,0.0000,0.0000,0.0000,20.0000,2.3281,2.3614,25.4225,37.3514,0.0287,0.000660,93.2463,-18.5393,-29.0942,47.6334,93.2463,-0.0054,-7.9412,-15.4683,-1.0030,0.0000,-0.014315,0.018320,-0.001205,-0.0008,0.0023,0.0013,180.0000,0.0000,0.0000
113,1.1300,-0.0821,-0.0806,0.0149,0.1161,0.0000,0.0000,0.0000,20.0000,2.3811,2.3610,24.4090,36.6674,0.0293,0.000741,93.2463,-18.5393,-29.0942,47.6334,93.2463,-0.0054,-7.9412,-15.4683,-1.0030,0.0000,-0.016277,0.017242,-0.002180,-0.0021,0.0029,0.0018,180.0000,0.0000,0.0000
114,1.1400,-0.0932,-0.0818,0.0159,0.1251,0.0000,0.0000,0.0000,20.0000,2.5455,2.3666,20.6230,35.8889,0.0300,0.000742,93.2240,-18.4530,-29.1714,47.6244,93.2240,-0.0028,-7.9740,-17.0901,-1.0044,0.0000,-0.018220,0.017555,-0.002793,-0.0011,0.0028,0.0015,-180.0000,0.0000,-0.0000
115,1.1500,-0.0921,-0.0788,0.0125,0.1219,0.0000,0.0000,0.0000,20.0000,2.6014,2.3780,9.4015,34.7405,0.0307,0.000822,93.2240,-18.4530,-29.1714,47.6244,93.2240,-0.0028,-7.9740,-17.0901,-1.0044,0.0000,-0.019146,0.017390,-0.002789,0.0004,0.0015,0.0012,-180.0000,0.0000,-0.0000
116,1.1600,-0.0818,-0.0710,0.0032,0.1084,0.0000,0.0000,0.0000,20.0000,2.4911,2.3873,14.2319,33.4795,0.0313,0.000518,93.2240,-18.4530,-29.1714,47.6244,93.2240,-0.0028,-7.9740,-17.0901,-1.0044,0.0000,-0.018583,0.016487,-0.001844,0.0005,0.0006,0.0006,-180.0000,0.0000,-0.0000
117,1.1700,-0.0683,-0.0596,-0.0035,0.0907,0.0000,0.0000,0.0000,20.0000,2.2470,2.3863,26.6697,32.7629,0.0319,0.000528,93.2240,-18.4530,-29.1714,47.6244,93.2240,-0.0028,-7.9740,-17.0901,-1.0044,0.0000,-0.016885,0.014811,-0.000651,0.0007,0.0002,-0.0010,-180.0000,0.0000,-0.0000
118,1.1800,-0.0531,-0.0455,-0.0094,0.0706,0.0000,0.0000,0.0000,20.0000,1.9043,2.3692,36.5149,32.6985,0.0325,0.000638,93.2240,-18.4530,-29.1714,47.6244,93.2240,-0.0028,-7.9740,-17.0901,-1.0044,0.0000,-0.014398,0.012448,0.000599,0.0015,-0.0010,-0.0030,-180.0000,0.0000,-0.0000
119,1.1900,-0.0395,-0.0361,-0.0154,0.0556,0.0000,0.0000,0.0000,20.0000,1.5562,2.3340,38.1029,32.9521,0.0330,0.000643,93.2240,-18.4530,-29.1714,47.6244,93.2240,-0.0028,-7.9740,-17.0901,-1.0044,0.0000,-0.011628,0.010170,0.001885,-0.0005,-0.0021,-0.0028,-180.0000,0.0000,-0.0000
120,1.2000,-0.0306,-0.0352,-0.0171,0.0497,0.0000,0.0000,0.0000,20.0000,1.3023,2.2843,29.2951,32.9932,0.0334,0.000598,93.2240,-18.4530,-29.1714,47.6244,93.2240,-0.0028,-7.9740,-17.0901,-1.0044,0.0000,-0.009192,0.008801,0.002766,-0.0012,-0.0016,-0.0015,-180.0000,0.0000,-0.0000
121,1.2100,-0.0278,-0.0310,-0.0197,0.0460,0.0000,0.0000,0.0000,20.0000,1.1273,2.2254,21.6528,32.5795,0.0338,0.000691,93.2240,-18.4530,-29.1714,47.6244,93.2240,-0.0028,-7.9740,-17.0901,-1.0044,0.0000,-0.007543,0.007609,0.003506,-0.0001,-0.0009,-0.0009,-180.0000,0.0000,-0.0000
122,1.2200,-0.0295,-0.0196,-0.0308,0.0469,0.0000,0.0000,0.0000,20.0000,1.0235,2.1622,24.8506,32.0664,0.0341,0.000618,93.2240,-18.4530,-29.1714,47.6244,93.2240,-0.0028,-7.9740,-17.0901,-1.0044,0.0000,-0.006784,0.005791,0.005020,0.0007,0.0001,-0.0006,-180.0000,0.0000,-0.0000
123,1.2300,-0.0329,-0.0084,-0.0460,0.0571,0.0000,0.0000,0.0000,20.0000,1.0601,2.1005,31.7155,31.8583,0.0344,0.000604,93.2240,-18.4530,-29.1714,47.6244,93.2240,-0.0028,-7.9740,-17.0901,-1.0044,0.0000,-0.006692,0.003657,0.007364,0.0023,0.0004,-0.0001,-180.0000,0.0000,-0.0000
124,1.2400,-0.0400,-0.0024,-0.0609,0.0729,0.0000,0.0000,0.0000,20.0000,1.2657,2.0490,33.6270,31.9030,0.0347,0.000611,93.2240,-18.4530,-29.1714,47.6244,93.2240,-0.0028,-7.9740,-17.0901,-1.0044,0.0000,-0.007342,0.001872,0.010139,0.0030,0.0012,-0.0009,-180.0000,0.0000,-0.0000
125,1.2500,-0.0493,0.0039,-0.0780,0.0924,0.0000,0.0000,0.0000,20.0000,1.5903,2.0148,38.2739,32.1257,0.0350,0.000669,93.2240,-18.4530,-29.1714,47.6244,93.2240,-0.0028,-7.9740,-17.0901,-1.0044,0.0000,-0.008616,0.000251,0.013364,0.0042,0.0004,-0.0023,-180.0000,0.0000,-0.0000
126,1.2600,-0.0550,-0.0027,-0.0937,0.1087,0.0000,0.0000,0.0000,20.0000,1.9386,2.0010,35.5843,32.3899,0.0354,0.000641,93.2240,-18.4530,-29.1714,47.6244,93.2240,-0.0028,-7.9740,-17.0901,-1.0044,0.0000,-0.009866,0.000018,0.016687,0.0021,-0.0007,-0.0015,-180.0000,0.0000,-0.0000
127,1.2700,-0.0596,-0.0312,-0.1043,0.1241,0.0000,0.0000,0.0000,20.0000,2.2603,2.0064,41.1239,32.7180,0.0359,0.000630,93.2240,-18.4530,-29.1714,47.6244,93.2240,-0.0028,-7.9740,-17.0901,-1.0044,0.0000,-0.010998,0.002738,0.019556,0.0006,-0.0003,-0.0011,-180.0000,0.0000,-0.0000
128,1.2800,-0.0612,-0.0643,-0.1068,0.1388,0.0000,0.0000,0.0000,20.0000,2.5513,2.0284,51.8614,33.4757,0.0366,0.000562,93.2240,-18.4530,-29.1714,47.6244,93.2240,-0.0028,-7.9740,-17.0901,-1.0044,0.0000,-0.011764,0.007546,0.021345,-0.0012,0.0004,-0.0005,-180.0000,0.0000,-0.0000
129,1.2900,-0.0609,-0.0900,-0.0987,0.1468,0.0000,0.0000,0.0000,20.0000,2.7782,2.0634,52.3028,34.4992,0.0375,0.000606,93.2240,-18.4530,-29.1714,47.6244,93.2240,-0.0028,-7.9740,-17.0901,-1.0044,0.0000,-0.012135,0.012761,0.021488,-0.0011,0.0014,-0.0017,-180.0000,0.0000,-0.0000
130,1.3000,-0.0697,-0.1081,-0.0813,0.1522,0.0000,0.0000,0.0000,20.0000,2.9481,2.1074,50.8002,35.4372,0.0386,0.000635,93.2240,-18.4530,-29.1714,47.6244,93.2240,-0.0028,-7.9740,-17.0901,-1.0044,0.0000,-0.013199,0.017426,0.019780,-0.0022,0.0018,-0.0025,-180.0000,0.0000,-0.0000
131,1.3100,-0.0865,-0.1100,-0.0578,0.1514,0.0000,0.0000,0.0000,20.0000,3.0251,2.1558,48.5284,36.2198,0.0398,0.000537,93.2240,-18.4530,-29.1714,47.6244,93.2240,-0.0028,-7.9740,-17.0901,-1.0044,0.0000,-0.015434,0.020157,0.016450,-0.0013,0.0033,-0.0044,-180.0000,0.0000,-0.0000
132,1.3200,-0.1027,-0.0930,-0.0363,0.1432,0.0000,0.0000,0.0000,20.0000,2.9748,2.2022,49.2915,36.9179,0.0409,0.000584,93.2240,-18.4530,-29.1714,47.6244,93.2240,-0.0028,-7.9740,-17.0901,-1.0044,0.0000,-0.018267,0.019923,0.012423,-0.0011,0.0027,-0.0044,-180.0000,0.0000,-0.0000
133,1.3300,-0.1145,-0.0724,-0.0274,0.1382,0.0000,0.0000,0.0000,20.0000,2.8969,2.2426,47.1080,37.5385,0.0419,0.000584,93.2240,-18.4530,-29.1714,47.6244,93.2240,-0.0028,-7.9740,-17.0901,-1.0044,0.0000,-0.020976,0.017696,0.009278,-0.0012,0.0017,-0.0042,-180.0000,0.0000,-0.0000
134,1.3400,-0.1172,-0.0518,-0.0311,0.1318,0.0000,0.0000,0.0000,20.0000,2.8716,2.2779,37.9245,37.8123,0.0429,0.000545,93.2636,-18.4132,-29.2284,47.6416,93.2636,0.0012,-8.0292,-18.4518,-1.0060,0.0000,-0.023198,0.014844,0.008131,-0.0010,0.0013,-0.0027,180.0000,0.0000,0.0000
135,1.3500,-0.1070,-0.0332,-0.0402,0.1190,0.0000,0.0000,0.0000,20.0000,2.7308,2.3066,34.7505,37.7312,0.0438,0.000580,93.2636,-18.4132,-29.2284,47.6416,93.2636,0.0012,-8.0292,-18.4518,-1.0060,0.0000,-0.023362,0.011382,0.008389,-0.0012,0.0019,-0.0014,180.0000,0.0000,0.0000
136,1.3600,-0.0857,-0.0215,-0.0510,0.1020,0.0000,0.0000,0.0000,20.0000,2.4757,2.3230,39.4040,37.6952,0.0446,0.000531,93.2636,-18.4132,-29.2284,47.6416,93.2636,0.0012,-8.0292,-18.4518,-1.0060,0.0000,-0.021269,0.008270,0.009598,-0.0020,0.0005,0.0002,180.0000,0.0000,0.0000
137,1.3700,-0.0662,-0.0126,-0.0567,0.0881,0.0000,0.0000,0.0000,20.0000,2.1852,2.3234,42.6923,37.8796,0.0453,0.000535,93.2636,-18.4132,-29.2284,47.6416,93.2636,0.0012,-8.0292,-18.4518,-1.0060,0.0000,-0.018126,0.005651,0.010817,-0.0025,0.0013,0.0006,180.0000,0.0000,0.0000
138,1.3800,-0.0571,-0.0033,-0.0517,0.0771,0.0000,0.0000,0.0000,20.0000,1.9218,2.3085,36.0201,37.9609,0.0458,0.000608,93.2636,-18.4132,-29.2284,47.6416,93.2636,0.0012,-8.0292,-18.4518,-1.0060,0.0000,-0.015439,0.003257,0.010970,-0.0026,0.0019,-0.0009,180.0000,0.0000,0.0000
139,1.3900,-0.0524,0.0011,-0.0390,0.0654,0.0000,0.0000,0.0000,20.0000,1.6696,2.2803,29.1534,37.6652,0.0463,0.000646,93.2636,-18.4132,-29.2284,47.6416,93.2636,0.0012,-8.0292,-18.4518,-1.0060,0.0000,-0.013459,0.001487,0.009767,-0.0037,0.0012,-0.0005,180.0000,0.0000,0.0000
140,1.4000,-0.0496,-0.0024,-0.0310,0.0585,0.0000,0.0000,0.0000,20.0000,1.4648,2.2411,21.4236,36.9844,0.0467,0.000640,93.2636,-18.4132,-29.2284,47.6416,93.2636,0.0012,-8.0292,-18.4518,-1.0060,0.0000,-0.012055,0.000861,0.008275,-0.0025,0.0018,0.0001,180.0000,0.0000,0.0000
141,1.4100,-0.0514,-0.0138,-0.0301,0.0612,0.0000,0.0000,0.0000,20.0000,1.3692,2.1958,13.6679,35.9151,0.0471,0.000451,93.2636,-18.4132,-29.2284,47.6416,93.2636,0.0012,-8.0292,-18.4518,-1.0060,0.0000,-0.011435,0.001650,0.007347,-0.0018,0.0022,0.0004,180.0000,0.0000,0.0000
142,1.4200,-0.0564,-0.0297,-0.0285,0.0697,0.0000,0.0000,0.0000,20.0000,1.3836,2.1507,21.3546,34.9028,0.0475,0.000505,93.2636,-18.4132,-29.2284,47.6416,93.2636,0.0012,-8.0292,-18.4518,-1.0060,0.0000,-0.011562,0.003666,0.006656,-0.0028,0.0016,0.0004,180.0000,0.0000,0.0000
143,1.4300,-0.0572,-0.0403,-0.0218,0.0733,0.0000,0.0000,0.0000,20.0000,1.4216,2.1095,24.1933,34.2356,0.0480,0.000550,93.2636,-18.4132,-29.2284,47.6416,93.2636,0.0012,-8.0292,-18.4518,-1.0060,0.0000,-0.011695,0.005835,0.005592,-0.0022,0.0015,0.0011,180.0000,0.0000,0.0000
144,1.4400,-0.0506,-0.0470,-0.0080,0.0695,0.0000,0.0000,0.0000,20.0000,1.3964,2.0710,27.8226,33.7830,0.0486,0.000561,93.2636,-18.4132,-29.2284,47.6416,93.2636,0.0012,-8.0292,-18.4518,-1.0060,0.0000,-0.011081,0.007691,0.003612,-0.0009,0.0017,0.0004,180.0000,0.0000,0.0000
145,1.4500,-0.0414,-0.0515,0.0118,0.0672,0.0000,0.0000,0.0000,20.0000,1.3427,2.0324,36.4488,33.6924,0.0491,0.000550,93.2636,-18.4132,-29.2284,47.6416,93.2636,0.0012,-8.0292,-18.4518,-1.0060,0.0000,-0.009805,0.009157,0.000529,-0.0013,0.0010,0.0014,180.0000,0.0000,0.0000
146,1.4600,-0.0367,-0.0446,0.0334,0.0667,0.0000,0.0000,0.0000,20.0000,1.3073,1.9935,40.4272,33.9534,0.0495,0.000674,93.2636,-18.4132,-29.2284,47.6416,93.2636,0.0012,-8.0292,-18.4518,-1.0060,0.0000,-0.008610,0.009256,-0.003332,-0.0006,0.0012,0.0004,180.0000,0.0000,0.0000
147,1.4700,-0.0330,-0.0323,0.0476,0.0664,0.0000,0.0000,0.0000,20.0000,1.3023,1.9556,38.9146,34.2679,0.0498,0.000592,93.2636,-18.4132,-29.2284,47.6416,93.2636,0.0012,-8.0292,-18.4518,-1.0060,0.0000,-0.007559,0.008066,-0.006885,0.0008,0.0012,0.0009,180.0000,0.0000,0.0000
148,1.4800,-0.0311,-0.0262,0.0483,0.0632,0.0000,0.0000,0.0000,20.0000,1.3084,1.9198,25.1693,34.1455,0.0500,0.000530,93.2636,-18.4132,-29.2284,47.6416,93.2636,0.0012,-8.0292,-18.4518,-1.0060,0.0000,-0.006776,0.006782,-0.008903,0.0009,0.0019,0.0010,180.0000,0.0000,0.0000
149,1.4900,-0.0370,-0.0171,0.0366,0.0548,0.0000,0.0000,0.0000,20.0000,1.2341,1.8842,16.3994,33.4105,0.0501,0.000580,93.2636,-18.4132,-29.2284,47.6416,93.2636,0.0012,-8.0292,-18.4518,-1.0060,0.0000,-0.006915,0.005150,-0.008830,0.0007,0.0012,0.0020,180.0000,0.0000,0.0000
150,1.5000,-0.0390,-0.0026,0.0199,0.0439,0.0000,0.0000,0.0000,20.0000,1.0479,1.8433,29.4251,32.8330,0.0502,0.000559,93.2636,-18.4132,-29.2284,47.6416,93.2636,0.0012,-8.0292,-18.4518,-1.0060,0.0000,-0.007184,0.002783,-0.007102,0.0001,0.0011,0.0015,180.0000,0.0000,0.0000
151,1.5100,-0.0315,0.0049,0.0038,0.0321,0.0000,0.0000,0.0000,20.0000,0.8002,1.7927,33.5970,32.7603,0.0503,0.000548,93.2636,-18.4132,-29.2284,47.6416,93.2636,0.0012,-8.0292,-18.4518,-1.0060,0.0000,-0.006561,0.000722,-0.004523,-0.0003,0.0005,0.0019,180.0000,0.0000,0.0000
152,1.5200,-0.0187,0.0059,-0.0112,0.0226,0.0000,0.0000,0.0000,20.0000,0.5200,1.7304,35.8529,32.8684,0.0503,0.000544,93.2636,-18.4132,-29.2284,47.6416,93.2636,0.0012,-8.0292,-18.4518,-1.0060,0.0000,-0.004924,-0.000524,-0.001587,0.0001,-0.0006,0.0018,180.0000,0.0000,0.0000
153,1.5300,-0.0013,0.0102,-0.0249,0.0269,0.0000,0.0000,0.0000,20.0000,0.3133,1.6581,41.5533,33.1893,0.0503,0.000468,93.2636,-18.4132,-29.2284,47.6416,93.2636,0.0012,-8.0292,-18.4518,-1.0060,0.0000,-0.002269,-0.001636,0.001410,0.0002,-0.0014,0.0010,180.0000,0.0000,0.0000
154,1.5400,0.0191,0.0118,-0.0353,0.0418,0.0000,0.0000,0.0000,20.0000,0.4847,1.5889,41.7207,33.6540,0.0503,0.000509,93.3086,-18.3882,-29.2708,47.6590,93.3086,-0.0108,-7.9925,-17.8857,-1.0022,0.0000,0.000684,-0.002083,0.004323,-0.0007,-0.0017,0.0009,180.0000,0.0000,0.0000
155,1.5500,0.0301,0.0024,-0.0427,0.0523,0.0000,0.0000,0.0000,20.0000,0.7617,1.5358,36.6476,33.9582,0.0504,0.000558,93.3086,-18.3882,-29.2708,47.6590,93.3086,-0.0108,-7.9925,-17.8857,-1.0022,0.0000,0.003412,-0.001386,0.006668,-0.0009,-0.0020,0.0011,180.0000,0.0000,0.0000
156,1.5600,0.0347,-0.0149,-0.0461,0.0596,0.0000,0.0000,0.0000,20.0000,0.9901,1.4995,33.0582,34.0075,0.0504,0.000619,93.3086,-18.3882,-29.2708,47.6590,93.3086,-0.0108,-7.9925,-17.8857,-1.0022,0.0000,0.005374,0.000729,0.008284,-0.0014,-0.0020,0.0015,180.0000,0.0000,0.0000
157,1.5700,0.0376,-0.0274,-0.0405,0.0617,0.0000,0.0000,0.0000,20.0000,1.1374,1.4755,27.9817,33.8156,0.0506,0.000589,93.3086,-18.3882,-29.2708,47.6590,93.3086,-0.0108,-7.9925,-17.8857,-1.0022,0.0000,0.006740,0.003149,0.008603,-0.0013,-0.0018,0.0013,180.0000,0.0000,0.0000
158,1.5800,0.0338,-0.0335,-0.0305,0.0565,0.0000,0.0000,0.0000,20.0000,1.1688,1.4578,21.4564,33.3152,0.0508,0.000635,93.3086,-18.3882,-29.2708,47.6590,93.3086,-0.0108,-7.9925,-17.8857,-1.0022,0.0000,0.007095,0.005093,0.007767,-0.0008,-0.0014,0.0027,180.0000,0.0000,0.0000
159,1.5900,0.0214,-0.0380,-0.0245,0.0500,0.0000,0.0000,0.0000,20.0000,1.1170,1.4404,21.3279,32.6594,0.0511,0.000573,93.3086,-18.3882,-29.2708,47.6590,93.3086,-0.0108,-7.9925,-17.8857,-1.0022,0.0000,0.006037,0.006600,0.006691,-0.0002,-0.0004,0.0011,180.0000,0.0000,0.0000
160,1.6000,0.0061,-0.0307,-0.0212,0.0378,0.0000,0.0000,0.0000,20.0000,0.9654,1.4185,23.2197,32.0881,0.0513,0.000555,93.3086,-18.3882,-29.2708,47.6590,93.3086,-0.0108,-7.9925,-17.8857,-1.0022,0.0000,0.003919,0.006697,0.005744,0.0011,0.0007,-0.0013,180.0000,0.0000,0.0000
161,1.6100,-0.0045,-0.0099,-0.0206,0.0233,0.0000,0.0000,0.0000,20.0000,0.7143,1.3867,30.9260,31.8122,0.0516,0.000533,93.3086,-18.3882,-29.2708,47.6590,93.3086,-0.0108,-7.9925,-17.8857,-1.0022,0.0000,0.001671,0.004658,0.005151,0.0023,0.0007,-0.0027,180.0000,0.0000,0.0000
162,1.6200,-0.0137,0.0125,-0.0235,0.0299,0.0000,0.0000,0.0000,20.0000,0.5285,1.3446,40.1322,32.0167,0.0517,0.000563,93.3086,-18.3882,-29.2708,47.6590,93.3086,-0.0108,-7.9925,-17.8857,-1.0022,0.0000,-0.000494,0.001279,0.005104,0.0022,0.0006,-0.0026,180.0000,0.0000,0.0000
163,1.6300,-0.0163,0.0268,-0.0253,0.0403,0.0000,0.0000,0.0000,20.0000,0.5955,1.3015,36.0836,32.3517,0.0518,0.000648,93.3086,-18.3882,-29.2708,47.6590,93.3086,-0.0108,-7.9925,-17.8857,-1.0022,0.0000,-0.001951,-0.002019,0.005252,0.0021,0.0000,-0.0041,180.0000,0.0000,0.0000
164,1.6400,-0.0069,0.0341,-0.0283,0.0449,0.0000,0.0000,0.0000,20.0000,0.7469,1.2668,25.8286,32.2749,0.0518,0.000610,93.3086,-18.3882,-29.2708,47.6590,93.3086,-0.0108,-7.9925,-17.8857,-1.0022,0.0000,-0.001806,-0.004571,0.005624,0.0024,-0.0005,-0.0040,180.0000,0.0000,0.0000
165,1.6500,0.0058,0.0308,-0.0383,0.0495,0.0000,0.0000,0.0000,20.0000,0.8859,1.2421,20.9443,31.7860,0.0517,0.000505,93.3086,-18.3882,-29.2708,47.6590,93.3086,-0.0108,-7.9925,-17.8857,-1.0022,0.0000,-0.000457,-0.005645,0.006812,0.0017,-0.0007,-0.0023,180.0000,0.0000,0.0000
166,1.6600,0.0078,0.0175,-0.0515,0.0549,0.0000,0.0000,0.0000,20.0000,1.0062,1.2258,23.0384,31.2472,0.0517,0.000496,93.3086,-18.3882,-29.2708,47.6590,93.3086,-0.0108,-7.9925,-17.8857,-1.0022,0.0000,0.000488,-0.004898,0.008776,0.0002,-0.0000,-0.0013,180.0000,0.0000,0.0000
167,1.6700,0.0037,0.0053,-0.0623,0.0626,0.0000,0.0000,0.0000,20.0000,1.1416,1.2174,27.1301,30.9082,0.0518,0.000562,93.3086,-18.3882,-29.2708,47.6590,93.3086,-0.0108,-7.9925,-17.8857,-1.0022,0.0000,0.000605,-0.003249,0.010927,-0.0006,0.0005,-0.0008,180.0000,0.0000,0.0000
168,1.6800,-0.0053,-0.0008,-0.0706,0.0708,0.0000,0.0000,0.0000,20.0000,1.3036,1.2177,26.4319,30.6812,0.0520,0.000508,93.3086,-18.3882,-29.2708,47.6590,93.3086,-0.0108,-7.9925,-17.8857,-1.0022,0.0000,-0.000231,-0.001726,0.012919,-0.0007,0.0006,0.0003,180.0000,0.0000,0.0000
169,1.6900,-0.0185,0.0007,-0.0763,0.0785,0.0000,0.0000,0.0000,20.0000,1.4744,1.2271,25.2639,30.4153,0.0523,0.000510,93.3086,-18.3882,-29.2708,47.6590,93.3086,-0.0108,-7.9925,-17.8857,-1.0022,0.0000,-0.002012,-0.001030,0.014570,-0.0006,-0.0001,0.0013,180.0000,0.0000,0.0000
170,1.7000,-0.0261,0.0103,-0.0827,0.0874,0.0000,0.0000,0.0000,20.0000,1.6604,1.2459,23.8746,30.0937,0.0527,0.000479,93.3086,-18.3882,-29.2708,47.6590,93.3086,-0.0108,-7.9925,-17.8857,-1.0022,0.0000,-0.003758,-0.001605,0.016093,-0.0009,-0.0010,0.0000,180.0000,0.0000,0.0000
171,1.7100,-0.0286,0.0271,-0.0914,0.0995,0.0000,0.0000,0.0000,20.0000,1.8797,1.2747,28.7235,29.8850,0.0530,0.000556,93.3086,-18.3882,-29.2708,47.6590,93.3086,-0.0108,-7.9925,-17.8857,-1.0022,0.0000,-0.004963,-0.003603,0.017769,0.0004,-0.0016,0.0006,180.0000,0.0000,0.0000
172,1.7200,-0.0292,0.0444,-0.1048,0.1175,0.0000,0.0000,0.0000,20.0000,2.1763,1.3161,36.7119,30.0408,0.0533,0.000631,93.3086,-18.3882,-29.2708,47.6590,93.3086,-0.0108,-7.9925,-17.8857,-1.0022,0.0000,-0.005676,-0.006428,0.020002,0.0018,-0.0016,0.0002,180.0000,0.0000,0.0000
173,1.7300,-0.0276,0.0607,-0.1191,0.1365,0.0000,0.0000,0.0000,20.0000,2.5278,1.3731,41.2775,30.5334,0.0536,0.000560,93.3086,-18.3882,-29.2708,47.6590,93.3086,-0.0108,-7.9925,-17.8857,-1.0022,0.0000,-0.005904,-0.009609,0.022623,0.0014,-0.0016,-0.0003,180.0000,0.0000,0.0000
174,1.7400,-0.0198,0.0705,-0.1235,0.1436,0.0000,0.0000,0.0000,20.0000,2.8120,1.4444,35.0778,30.9538,0.0538,0.000673,93.3067,-18.4047,-29.2811,47.6858,93.3067,-0.0014,-8.0076,-17.1972,-1.0036,0.0000,-0.005214,-0.012326,0.024731,0.0006,-0.0013,-0.0003,180.0000,0.0000,0.0000
175,1.7500,-0.0073,0.0694,-0.1182,0.1372,0.0000,0.0000,0.0000,20.0000,2.9002,1.5221,22.1564,30.8253,0.0540,0.000643,93.3067,-18.4047,-29.2811,47.6858,93.3067,-0.0014,-8.0076,-17.1972,-1.0036,0.0000,-0.003570,-0.013693,0.025315,0.0006,-0.0012,0.0001,180.0000,0.0000,0.0000
176,1.7600,0.0086,0.0581,-0.1108,0.1254,0.0000,0.0000,0.0000,20.0000,2.8197,1.5957,25.8397,30.4498,0.0542,0.000588,93.3067,-18.4047,-29.2811,47.6858,93.3067,-0.0014,-8.0076,-17.1972,-1.0036,0.0000,-0.001061,-0.013289,0.024846,0.0003,-0.0013,-0.0004,180.0000,0.0000,0.0000
177,1.7700,0.0312,0.0384,-0.1015,0.1129,0.0000,0.0000,0.0000,20.0000,2.6202,1.6575,44.4555,30.7082,0.0543,0.000648,93.3067,-18.4047,-29.2811,47.6858,93.3067,-0.0014,-8.0076,-17.1972,-1.0036,0.0000,0.002586,-0.011069,0.023608,-0.0010,-0.0016,-0.0014,180.0000,0.0000,0.0000
178,1.7800,0.0533,0.0180,-0.0941,0.1096,0.0000,0.0000,0.0000,20.0000,2.4435,1.7056,55.4689,31.7673,0.0544,0.000643,93.3067,-18.4047,-29.2811,47.6858,93.3067,-0.0014,-8.0076,-17.1972,-1.0036,0.0000,0.006807,-0.007783,0.022140,0.0002,-0.0014,-0.0017,180.0000,0.0000,0.0000
179,1.7900,0.0627,-0.0035,-0.0911,0.1107,0.0000,0.0000,0.0000,20.0000,2.3584,1.7439,52.7548,32.9964,0.0547,0.000692,93.3067,-18.4047,-29.2811,47.6858,93.3067,-0.0014,-8.0076,-17.1972,-1.0036,0.0000,0.010069,-0.003801,0.020985,-0.0001,-0.0012,-0.0014,180.0000,0.0000,0.0000
180,1.8000,0.0569,-0.0309,-0.0844,0.1064,0.0000,0.0000,0.0000,20.0000,2.2671,1.7752,52.7268,34.0825,0.0550,0.000581,93.3067,-18.4047,-29.2811,47.6858,93.3067,-0.0014,-8.0076,-17.1972,-1.0036,0.0000,0.011269,0.001153,0.019638,-0.0005,-0.0005,-0.0021,180.0000,0.0000,0.0000
181,1.8100,0.0443,-0.0524,-0.0761,0.1025,0.0000,0.0000,0.0000,20.0000,2.1784,1.7998,51.7994,35.0826,0.0555,0.000592,93.3067,-18.4047,-29.2811,47.6858,93.3067,-0.0014,-8.0076,-17.1972,-1.0036,0.0000,0.010653,0.006035,0.018018,-0.0001,-0.0007,-0.0038,180.0000,0.0000,0.0000
182,1.8200,0.0294,-0.0614,-0.0731,0.0999,0.0000,0.0000,0.0000,20.0000,2.1258,1.8192,42.1642,35.7372,0.0561,0.000450,93.3067,-18.4047,-29.2811,47.6858,93.3067,-0.0014,-8.0076,-17.1972,-1.0036,0.0000,0.008798,0.009618,0.016792,0.0010,0.0001,-0.0023,180.0000,0.0000,0.0000
183,1.8300,0.0154,-0.0746,-0.0709,0.1041,0.0000,0.0000,0.0000,20.0000,2.1408,1.8364,42.0045,36.0863,0.0569,0.000674,93.3067,-18.4047,-29.2811,47.6858,93.3067,-0.0014,-8.0076,-17.1972,-1.0036,0.0000,0.006359,0.012906,0.015853,0.0001,0.0001,-0.0017,180.0000,0.0000,0.0000
184,1.8400,0.0015,-0.0866,-0.0683,0.1103,0.0000,0.0000,0.0000,20.0000,2.2186,1.8553,41.4483,36.3966,0.0578,0.000587,93.3067,-18.4047,-29.2811,47.6858,93.3067,-0.0014,-8.0076,-17.1972,-1.0036,0.0000,0.003604,0.015897,0.015050,0.0007,0.0005,-0.0032,180.0000,0.0000,0.0000
185,1.8500,-0.0080,-0.0788,-0.0698,0.1056,0.0000,0.0000,0.0000,20.0000,2.2318,1.8757,26.3599,36.2594,0.0588,0.000548,93.3067,-18.4047,-29.2811,47.6858,93.3067,-0.0014,-8.0076,-17.1972,-1.0036,0.0000,0.001127,0.016735,0.014723,0.0028,0.0005,-0.0014,180.0000,0.0000,0.0000
186,1.8600,-0.0120,-0.0678,-0.0720,0.0997,0.0000,0.0000,0.0000,20.0000,2.1813,1.8939,18.9796,35.5119,0.0598,0.000593,93.3067,-18.4047,-29.2811,47.6858,93.3067,-0.0014,-8.0076,-17.1972,-1.0036,0.0000,-0.000651,0.016071,0.014735,0.0026,0.0004,-0.0001,180.0000,0.0000,0.0000
187,1.8700,-0.0201,-0.0679,-0.0739,0.1024,0.0000,0.0000,0.0000,20.0000,2.1768,1.9096,18.4016,34.5866,0.0608,0.000611,93.3067,-18.4047,-29.2811,47.6858,93.3067,-0.0014,-8.0076,-17.1972,-1.0036,0.0000,-0.002441,0.015676,0.014905,0.0025,0.0006,0.0002,180.0000,0.0000,0.0000
188,1.8800,-0.0290,-0.0640,-0.0792,0.1059,0.0000,0.0000,0.0000,20.0000,2.2016,1.9249,20.6948,33.7594,0.0619,0.000503,93.3067,-18.4047,-29.2811,47.6858,93.3067,-0.0014,-8.0076,-17.1972,-1.0036,0.0000,-0.004317,0.015033,0.015495,0.0029,0.0014,0.0001,180.0000,0.0000,0.0000
189,1.8900,-0.0310,-0.0596,-0.0879,0.1106,0.0000,0.0000,0.0000,20.0000,2.2584,1.9417,18.8083,32.9888,0.0630,0.000534,93.3067,-18.4047,-29.2811,47.6858,93.3067,-0.0014,-8.0076,-17.1972,-1.0036,0.0000,-0.005547,0.014208,0.016655,0.0033,0.0014,0.0021,180.0000,0.0000,0.0000
190,1.9000,-0.0270,-0.0629,-0.0927,0.1153,0.0000,0.0000,0.0000,20.0000,2.3375,1.9613,11.3879,32.0047,0.0641,0.000580,93.3067,-18.4047,-29.2811,47.6858,93.3067,-0.0014,-8.0076,-17.1972,-1.0036,0.0000,-0.005811,0.014054,0.017752,0.0026,0.0001,0.0015,180.0000,0.0000,0.0000
191,1.9100,-0.0152,-0.0650,-0.0915,0.1132,0.0000,0.0000,0.0000,20.0000,2.3540,1.9825,11.3729,30.8702,0.0652,0.000578,93.3067,-18.4047,-29.2811,47.6858,93.3067,-0.0014,-8.0076,-17.1972,-1.0036,0.0000,-0.004770,0.014149,0.018199,0.0020,-0.0001,0.0016,180.0000,0.0000,0.0000
192,1.9200,0.0035,-0.0677,-0.0830,0.1071,0.0000,0.0000,0.0000,20.0000,2.2853,2.0010,25.5654,30.1880,0.0664,0.000656,93.3067,-18.4047,-29.2811,47.6858,93.3067,-0.0014,-8.0076,-17.1972,-1.0036,0.0000,-0.002313,0.014445,0.017557,0.0004,-0.0006,-0.0002,180.0000,0.0000,0.0000
193,1.9300,0.0132,-0.0786,-0.0641,0.1023,0.0000,0.0000,0.0000,20.0000,2.2372,2.0153,31.4359,30.0952,0.0674,0.000526,93.3034,-18.4405,-29.3102,47.7506,93.3034,0.0009,-8.0334,-17.3961,-1.0061,-0.0000,0.000057,0.015712,0.015925,0.0001,-0.0014,-0.0012,-180.0000,0.0000,0.0000
194,1.9400,0.0117,-0.0898,-0.0438,0.1006,0.0000,0.0000,0.0000,20.0000,2.1804,2.0260,36.5289,30.3090,0.0685,0.000587,93.3034,-18.4405,-29.3102,47.7506,93.3034,0.0009,-8.0334,-17.3961,-1.0061,-0.0000,0.001220,0.017494,0.012957,-0.0009,-0.0023,-0.0020,-180.0000,0.0000,0.0000
195,1.9500,0.0084,-0.0979,-0.0307,0.1029,0.0000,0.0000,0.0000,20.0000,2.1744,2.0343,34.6880,30.6006,0.0695,0.000637,93.3034,-18.4405,-29.3102,47.7506,93.3034,0.0009,-8.0334,-17.3961,-1.0061,-0.0000,0.001528,0.019256,0.009984,-0.0007,-0.0023,-0.0023,-180.0000,0.0000,0.0000
196,1.9600,-0.0046,-0.0973,-0.0242,0.1004,0.0000,0.0000,0.0000,20.0000,2.1547,2.0415,27.2298,30.6203,0.0705,0.000722,93.3034,-18.4405,-29.3102,47.7506,93.3034,0.0009,-8.0334,-17.3961,-1.0061,-0.0000,0.000398,0.020132,0.007667,0.0015,-0.0003,-0.0015,-180.0000,0.0000,0.0000
197,1.9700,-0.0277,-0.0859,-0.0286,0.0946,0.0000,0.0000,0.0000,20.0000,2.0748,2.0455,31.4219,30.5491,0.0715,0.000759,93.3034,-18.4405,-29.3102,47.7506,93.3034,0.0009,-8.0334,-17.3961,-1.0061,-0.0000,-0.002542,0.019433,0.006808,0.0024,0.0011,-0.0003,-180.0000,0.0000,0.0000
198,1.9800,-0.0438,-0.0802,-0.0406,0.1000,0.0000,0.0000,0.0000,20.0000,2.0736,2.0471,34.5654,30.6835,0.0726,0.000632,93.3034,-18.4405,-29.3102,47.7506,93.3034,0.0009,-8.0334,-17.3961,-1.0061,-0.0000,-0.005774,0.018439,0.007527,0.0018,0.0025,0.0006,-180.0000,0.0000,0.0000
199,1.9900,-0.0543,-0.0791,-0.0472,0.1069,0.0000,0.0000,0.0000,20.0000,2.1493,2.0506,30.8223,30.7941,0.0738,0.000616,93.3034,-18.4405,-29.3102,47.7506,93.3034,0.0009,-8.0334,-17.3961,-1.0061,-0.0000,-0.008592,0.017743,0.008561,0.0023,0.0036,-0.0001,-180.0000,0.0000,0.0000
200,2.0000,-0.0646,-0.0782,-0.0494,0.1128,0.0000,0.0000,0.0000,20.0000,2.2563,2.0590,27.3365,30.6998,0.0750,0.000633,93.3034,-18.4405,-29.3102,47.7506,93.3034,0.0009,-8.0334,-17.3961,-1.0061,-0.0000,-0.011164,0.017239,0.009341,0.0022,0.0038,0.0010,-180.0000,0.0000,0.0000
201,2.0100,-0.0678,-0.0828,-0.0468,0.1168,0.0000,0.0000,0.0000,20.0000,2.3628,2.0728,17.3745,30.2408,0.0762,0.000528,93.3034,-18.4405,-29.3102,47.7506,93.3034,0.0009,-8.0334,-17.3961,-1.0061,-0.0000,-0.012889,0.017381,0.009489,0.0016,0.0030,0.0004,-180.0000,0.0000,0.0000
202,2.0200,-0.0582,-0.0843,-0.0354,0.1084,0.0000,0.0000,0.0000,20.0000,2.3340,2.0879,10.9684,29.3568,0.0774,0.000529,93.3034,-18.4405,-29.3102,47.7506,93.3034,0.0009,-8.0334,-17.3961,-1.0061,-0.0000,-0.012848,0.017577,0.008411,0.0016,0.0010,0.0012,-180.0000,0.0000,0.0000
203,2.0300,-0.0406,-0.0771,-0.0216,0.0898,0.0000,0.0000,0.0000,20.0000,2.1212,2.0956,27.6089,28.8030,0.0786,0.000575,93.3034,-18.4405,-29.3102,47.7506,93.3034,0.0009,-8.0334,-17.3961,-1.0061,-0.0000,-0.011046,0.016933,0.006421,0.0023,0.0009,0.0005,-180.0000,0.0000,0.0000
204,2.0400,-0.0246,-0.0676,-0.0086,0.0724,0.0000,0.0000,0.0000,20.0000,1.8168,2.0886,38.0360,29.0241,0.0795,0.000538,93.3034,-18.4405,-29.3102,47.7506,93.3034,0.0009,-8.0334,-17.3961,-1.0061,-0.0000,-0.008428,0.015587,0.004012,0.0013,0.0000,0.0012,-180.0000,0.0000,0.0000
205,2.0500,-0.0138,-0.0602,0.0016,0.0618,0.0000,0.0000,0.0000,20.0000,1.5346,2.0659,37.8628,29.5151,0.0803,0.000564,93.3034,-18.4405,-29.3102,47.7506,93.3034,0.0009,-8.0334,-17.3961,-1.0061,-0.0000,-0.005884,0.014077,0.001649,-0.0002,0.0005,0.0014,-180.0000,0.0000,0.0000
206,2.0600,-0.0073,-0.0568,0.0072,0.0577,0.0000,0.0000,0.0000,20.0000,1.3421,2.0314,30.4268,29.7697,0.0809,0.000548,93.3034,-18.4405,-29.3102,47.7506,93.3034,0.0009,-8.0334,-17.3961,-1.0061,-0.0000,-0.003810,0.012868,-0.000220,-0.0021,0.0003,0.0009,-180.0000,0.0000,0.0000
207,2.0700,-0.0101,-0.0586,0.0115,0.0606,0.0000,0.0000,0.0000,20.0000,1.2817,1.9918,17.7973,29.4585,0.0814,0.000525,93.3034,-18.4405,-29.3102,47.7506,93.3034,0.0009,-8.0334,-17.3961,-1.0061,-0.0000,-0.002937,0.012362,-0.001687,-0.0022,0.0027,-0.0002,-180.0000,0.0000,0.0000
208,2.0800,-0.0250,-0.0621,0.0171,0.0691,0.0000,0.0000,0.0000,20.0000,1.3368,1.9543,16.9756,28.7945,0.0819,0.000638,93.3034,-18.4405,-29.3102,47.7506,93.3034,0.0009,-8.0334,-17.3961,-1.0061,-0.0000,-0.003944,0.012402,-0.003053,-0.0035,0.0015,-0.0011,-180.0000,0.0000,0.0000
209,2.0900,-0.0423,-0.0667,0.0206,0.0817,0.0000,0.0000,0.0000,20.0000,1.4882,1.9245,25.7222,28.3849,0.0825,0.000503,93.3034,-18.4405,-29.3102,47.7506,93.3034,0.0009,-8.0334,-17.3961,-1.0061,-0.0000,-0.006224,0.012865,-0.004150,-0.0037,0.0020,-0.0016,-180.0000,0.0000,0.0000
210,2.1000,-0.0518,-0.0761,0.0207,0.0943,0.0000,0.0000,0.0000,20.0000,1.7036,1.9064,25.5504,28.2337,0.0831,0.000590,93.3034,-18.4405,-29.3102,47.7506,93.3034,0.0009,-8.0334,-17.3961,-1.0061,-0.0000,-0.008417,0.014027,-0.004756,-0.0021,0.0014,-0.0020,-180.0000,0.0000,0.0000
211,2.1100,-0.0481,-0.0892,0.0173,0.1028,0.0000,0.0000,0.0000,20.0000,1.9042,1.9008,20.9917,27.9607,0.0839,0.000589,93.3034,-18.4405,-29.3102,47.7506,93.3034,0.0009,-8.0334,-17.3961,-1.0061,-0.0000,-0.009245,0.015957,-0.004746,-0.0012,0.0009,-0.0007,-180.0000,0.0000,0.0000
212,2.1200,-0.0335,-0.1072,0.0126,0.1130,0.0000,0.0000,0.0000,20.0000,2.0943,1.9062,30.4913,27.8387,0.0847,0.000464,93.3034,-18.4405,-29.3102,47.7506,93.3034,0.0009,-8.0334,-17.3961,-1.0061,-0.0000,-0.008221,0.018786,-0.004254,-0.0015,-0.0001,-0.0007,-180.0000,0.0000,0.0000
213,2.1300,-0.0125,-0.1253,0.0083,0.1262,0.0000,0.0000,0.0000,20.0000,2.3696,1.9241,48.2909,28.4741,0.0858,0.000473,93.3160,-18.3929,-29.3872,47.7801,93.3160,0.0005,-7.9981,-16.4934,-1.0022,-0.0000,-0.005725,0.022775,-0.003167,0.0003,0.0010,-0.0011,-180.0000,0.0000,0.0000
214,2.1400,0.0126,-0.1397,0.0003,0.1403,0.0000,0.0000,0.0000,20.0000,2.6494,1.9563,54.8852,29.7456,0.0869,0.000463,93.3160,-18.3929,-29.3872,47.7801,93.3160,0.0005,-7.9981,-16.4934,-1.0022,-0.0000,-0.001825,0.026372,-0.001762,0.0012,0.0000,-0.0010,-180.0000,0.0000,0.0000
215,2.1500,0.0392,-0.1469,-0.0088,0.1522,0.0000,0.0000,0.0000,20.0000,2.9176,2.0018,57.4811,31.1999,0.0882,0.000391,93.3160,-18.3929,-29.3872,47.7801,93.3160,0.0005,-7.9981,-16.4934,-1.0022,-0.0000,0.002988,0.029023,-0.000074,0.0015,0.0006,-0.0017,-180.0000,0.0000,0.0000
216,2.1600,0.0522,-0.1438,-0.0147,0.1537,0.0000,0.0000,0.0000,20.0000,3.0951,2.0571,43.8633,32.2710,0.0895,0.000439,93.3160,-18.3929,-29.3872,47.7801,93.3160,0.0005,-7.9981,-16.4934,-1.0022,-0.0000,0.006949,0.030126,0.001455,0.0011,0.0017,-0.0030,-180.0000,0.0000,0.0000
217,2.1700,0.0490,-0.1300,-0.0239,0.1410,0.0000,0.0000,0.0000,20.0000,3.0762,2.1136,26.8977,32.4420,0.0908,0.000427,93.3160,-18.3929,-29.3872,47.7801,93.3160,0.0005,-7.9981,-16.4934,-1.0022,-0.0000,0.008805,0.029299,0.003217,0.0015,0.0018,-0.0025,-180.0000,0.0000,0.0000
218,2.1800,0.0411,-0.1088,-0.0396,0.1229,0.0000,0.0000,0.0000,20.0000,2.8731,2.1610,36.6542,32.4054,0.0921,0.000482,93.3160,-18.3929,-29.3872,47.7801,93.3160,0.0005,-7.9981,-16.4934,-1.0022,-0.0000,0.009025,0.026663,0.005754,0.0013,0.0020,-0.0012,-180.0000,0.0000,0.0000
219,2.1900,0.0272,-0.0840,-0.0552,0.1041,0.0000,0.0000,0.0000,20.0000,2.5482,2.1912,51.3288,33.0427,0.0933,0.000577,93.3160,-18.3929,-29.3872,47.7801,93.3160,0.0005,-7.9981,-16.4934,-1.0022,-0.0000,0.007737,0.022666,0.008705,0.0019,0.0038,-0.0015,-180.0000,0.0000,0.0000
220,2.2000,-0.0029,-0.0614,-0.0665,0.0906,0.0000,0.0000,0.0000,20.0000,2.1830,2.2008,64.6827,34.4159,0.0944,0.000671,93.3160,-18.3929,-29.3872,47.7801,93.3160,0.0005,-7.9981,-16.4934,-1.0022,-0.0000,0.004001,0.018153,0.011447,0.0014,0.0049,-0.0004,-180.0000,0.0000,0.0000
221,2.2100,-0.0430,-0.0455,-0.0731,0.0962,0.0000,0.0000,0.0000,20.0000,1.9652,2.1939,76.6128,36.4089,0.0956,0.000625,93.3160,-18.3929,-29.3872,47.7801,93.3160,0.0005,-7.9981,-16.4934,-1.0022,-0.0000,-0.002084,0.014028,0.013604,0.0028,0.0048,-0.0008,-180.0000,0.0000,0.0000
222,2.2200,-0.0734,-0.0345,-0.0759,0.1111,0.0000,0.0000,0.0000,20.0000,2.0280,2.1830,73.9683,38.5477,0.0968,0.000560,93.3160,-18.3929,-29.3872,47.7801,93.3160,0.0005,-7.9981,-16.4934,-1.0022,-0.0000,-0.008489,0.010621,0.015046,0.0036,0.0043,-0.0022,-180.0000,0.0000,0.0000
223,2.2300,-0.0943,-0.0267,-0.0715,0.1213,0.0000,0.0000,0.0000,20.0000,2.2319,2.1801,62.2863,40.1748,0.0979,0.000557,93.3160,-18.3929,-29.3872,47.7801,93.3160,0.0005,-7.9981,-16.4934,-1.0022,-0.0000,-0.014103,0.007942,0.015369,0.0032,0.0033,-0.0025,-180.0000,0.0000,0.0000
224,2.2400,-0.1099,-0.0187,-0.0570,0.1252,0.0000,0.0000,0.0000,20.0000,2.4101,2.1878,53.3705,41.1459,0.0991,0.000593,93.3160,-18.3929,-29.3872,47.7801,93.3160,0.0005,-7.9981,-16.4934,-1.0022,-0.0000,-0.018738,0.005639,0.014068,0.0025,0.0028,-0.0021,-180.0000,0.0000,0.0000
225,2.2500,-0.1164,-0.0151,-0.0377,0.1232,0.0000,0.0000,0.0000,20.0000,2.5012,2.2026,44.6008,41.5772,0.1001,0.000598,93.3160,-18.3929,-29.3872,47.7801,93.3160,0.0005,-7.9981,-16.4934,-1.0022,-0.0000,-0.021906,0.003996,0.011392,0.0009,0.0010,-0.0029,-180.0000,0.0000,0.0000
226,2.2600,-0.1151,-0.0220,-0.0177,0.1185,0.0000,0.0000,0.0000,20.0000,2.5056,2.2191,38.4932,41.5755,0.1011,0.000553,93.3160,-18.3929,-29.3872,47.7801,93.3160,0.0005,-7.9981,-16.4934,-1.0022,-0.0000,-0.023482,0.003769,0.007887,-0.0013,0.0004,-0.0029,-180.0000,0.0000,0.0000
227,2.2700,-0.1195,-0.0417,0.0035,0.1266,0.0000,0.0000,0.0000,20.0000,2.5661,2.2365,46.4569,41.6250,0.1020,0.000580,93.3160,-18.3929,-29.3872,47.7801,93.3160,0.0005,-7.9981,-16.4934,-1.0022,-0.0000,-0.024749,0.005606,0.003813,-0.0022,0.0016,-0.0017,-180.0000,0.0000,0.0000
228,2.2800,-0.1324,-0.0722,0.0201,0.1521,0.0000,0.0000,0.0000,20.0000,2.8385,2.2622,59.5849,42.2519,0.1031,0.000619,93.3160,-18.3929,-29.3872,47.7801,93.3160,0.0005,-7.9981,-16.4934,-1.0022,-0.0000,-0.026691,0.009660,-0.000099,-0.0022,0.0024,-0.0020,-180.0000,0.0000,0.0000
229,2.2900,-0.1379,-0.1026,0.0283,0.1742,0.0000,0.0000,0.0000,20.0000,3.2106,2.3041,62.5084,43.2857,0.1044,0.000588,93.3160,-18.3929,-29.3872,47.7801,93.3160,0.0005,-7.9981,-16.4934,-1.0022,-0.0000,-0.028258,0.014926,-0.003080,-0.0023,0.0018,-0.0005,-180.0000,0.0000,0.0000
230,2.3000,-0.1315,-0.1210,0.0322,0.1816,0.0000,0.0000,0.0000,20.0000,3.4939,2.3618,51.4743,44.0397,0.1058,0.000555,93.3160,-18.3929,-29.3872,47.7801,93.3160,0.0005,-7.9981,-16.4934,-1.0022,-0.0000,-0.028433,0.019650,-0.005117,-0.0015,0.0021,-0.0000,-180.0000,0.0000,0.0000
231,2.3100,-0.1226,-0.1184,0.0316,0.1734,0.0000,0.0000,0.0000,20.0000,3.5795,2.4264,26.8173,43.7705,0.1074,0.000656,93.3160,-18.3929,-29.3872,47.7801,93.3160,0.0005,-7.9981,-16.4934,-1.0022,-0.0000,-0.027583,0.021962,-0.006175,0.0006,0.0028,0.0005,-180.0000,0.0000,0.0000
232,2.3200,-0.1146,-0.0927,0.0266,0.1498,0.0000,0.0000,0.0000,20.0000,3.3970,2.4848,18.8318,42.6183,0.1089,0.000593,93.3160,-18.3929,-29.3872,47.7801,93.3160,0.0005,-7.9981,-16.4934,-1.0022,-0.0000,-0.026257,0.020627,-0.006249,0.0010,0.0029,-0.0002,-180.0000,0.0000,0.0000
233,2.3300,-0.1068,-0.0581,0.0266,0.1245,0.0000,0.0000,0.0000,20.0000,3.0857,2.5264,37.8621,41.8332,0.1102,0.000548,93.3360,-18.3275,-29.4602,47.7877,93.3360,0.0037,-8.0404,-17.0748,-1.0054,-0.0000,-0.024972,0.017068,-0.006103,0.0009,0.0034,-0.0009,-180.0000,0.0000,0.0000
234,2.3400,-0.1064,-0.0316,0.0303,0.1150,0.0000,0.0000,0.0000,20.0000,2.7909,2.5491,47.3138,41.8747,0.1113,0.000534,93.3360,-18.3275,-29.4602,47.7877,93.3360,0.0037,-8.0404,-17.0748,-1.0054,-0.0000,-0.024168,0.012414,-0.006382,0.0013,0.0033,-0.0031,-180.0000,0.0000,0.0000
235,2.3500,-0.1153,-0.0103,0.0304,0.1197,0.0000,0.0000,0.0000,20.0000,2.6559,2.5587,47.4686,42.1782,0.1121,0.000634,93.3360,-18.3275,-29.4602,47.7877,93.3360,0.0037,-8.0404,-17.0748,-1.0054,-0.0000,-0.024570,0.007686,-0.006527,0.0025,0.0037,-0.0031,-180.0000,0.0000,0.0000
236,2.3600,-0.1235,0.0076,0.0240,0.1260,0.0000,0.0000,0.0000,20.0000,2.6447,2.5637,45.6299,42.4186,0.1127,0.000616,93.3360,-18.3275,-29.4602,47.7877,93.3360,0.0037,-8.0404,-17.0748,-1.0054,-0.0000,-0.025559,0.003268,-0.005961,0.0032,0.0031,-0.0026,-180.0000,0.0000,0.0000
237,2.3700,-0.1243,0.0143,0.0097,0.1255,0.0000,0.0000,0.0000,20.0000,2.6475,2.5682,36.2429,42.3371,0.1133,0.000637,93.3360,-18.3275,-29.4602,47.7877,93.3360,0.0037,-8.0404,-17.0748,-1.0054,-0.0000,-0.026138,0.000149,-0.004208,0.0026,0.0020,-0.0014,-180.0000,0.0000,0.0000
238,2.3800,-0.1135,0.0223,-0.0136,0.1165,0.0000,0.0000,0.0000,20.0000,2.5452,2.5698,42.4709,42.1732,0.1138,0.000633,93.3360,-18.3275,-29.4602,47.7877,93.3360,0.0037,-8.0404,-17.0748,-1.0054,-0.0000,-0.025325,-0.002378,-0.000893,0.0037,0.0015,-0.0004,-180.0000,0.0000,0.0000
239,2.3900,-0.0929,0.0415,-0.0415,0.1099,0.0000,0.0000,0.0000,20.0000,2.3755,2.5638,62.3586,42.7365,0.1143,0.000576,93.3360,-18.3275,-29.4602,47.7877,93.3360,0.0037,-8.0404,-17.0748,-1.0054,-0.0000,-0.022761,-0.005683,0.003732,0.0039,0.0024,0.0006,-180.0000,0.0000,0.0000
240,2.4000,-0.0690,0.0603,-0.0674,0.1137,0.0000,0.0000,0.0000,20.0000,2.2896,2.5510,74.0372,44.1371,0.1147,0.000618,93.3360,-18.3275,-29.4602,47.7877,93.3360,0.0037,-8.0404,-17.0748,-1.0054,-0.0000,-0.018912,-0.009378,0.008865,0.0044,0.0022,0.0007,-180.0000,0.0000,0.0000
241,2.4100,-0.0428,0.0709,-0.0854,0.1190,0.0000,0.0000,0.0000,20.0000,2.3173,2.5374,73.3389,45.7627,0.1149,0.000604,93.3360,-18.3275,-29.4602,47.7877,93.3360,0.0037,-8.0404,-17.0748,-1.0054,-0.0000,-0.014129,-0.012467,0.013488,0.0041,0.0025,0.0003,-180.0000,0.0000,0.0000
242,2.4200,-0.0172,0.0780,-0.0873,0.1183,0.0000,0.0000,0.0000,20.0000,2.3719,2.5268,63.6478,47.0130,0.1149,0.000594,93.3360,-18.3275,-29.4602,47.7877,93.3360,0.0037,-8.0404,-17.0748,-1.0054,-0.0000,-0.008895,-0.014860,0.016207,0.0046,0.0025,-0.0003,-180.0000,0.0000,0.0000
243,2.4300,0.0024,0.0794,-0.0740,0.1085,0.0000,0.0000,0.0000,20.0000,2.3424,2.5175,50.7867,47.5743,0.1147,0.000558,93.3360,-18.3275,-29.4602,47.7877,93.3360,0.0037,-8.0404,-17.0748,-1.0054,-0.0000,-0.004024,-0.016291,0.016344,0.0039,0.0027,-0.0013,-180.0000,0.0000,0.0000
244,2.4400,0.0198,0.0730,-0.0532,0.0925,0.0000,0.0000,0.0000,20.0000,2.1776,2.5033,48.8931,47.6990,0.1144,0.000612,93.3360,-18.3275,-29.4602,47.7877,93.3360,0.0037,-8.0404,-17.0748,-1.0054,-0.0000,0.000421,-0.016406,0.014312,0.0039,0.0018,-0.0007,-180.0000,0.0000,0.0000
245,2.4500,0.0396,0.0559,-0.0319,0.0755,0.0000,0.0000,0.0000,20.0000,1.9028,2.4778,57.6685,48.0060,0.1139,0.000582,93.3360,-18.3275,-29.4602,47.7877,93.3360,0.0037,-8.0404,-17.0748,-1.0054,-0.0000,0.004853,-0.014729,0.011025,0.0017,0.0004,-0.0005,-180.0000,0.0000,0.0000
246,2.4600,0.0565,0.0360,-0.0132,0.0683,0.0000,0.0000,0.0000,20.0000,1.6526,2.4393,62.8503,48.6800,0.1133,0.000562,93.3360,-18.3275,-29.4602,47.7877,93.3360,0.0037,-8.0404,-17.0748,-1.0054,-0.0000,0.008985,-0.011782,0.007318,0.0011,0.0008,-0.0014,-180.0000,0.0000,0.0000
247,2.4700,0.0673,0.0230,0.0008,0.0711,0.0000,0.0000,0.0000,20.0000,1.5650,2.3936,56.4375,49.2831,0.1126,0.000562,93.3360,-18.3275,-29.4602,47.7877,93.3360,0.0037,-8.0404,-17.0748,-1.0054,-0.0000,0.012329,-0.008832,0.003859,0.0004,0.0004,-0.0003,-180.0000,0.0000,0.0000
248,2.4800,0.0695,0.0127,0.0070,0.0709,0.0000,0.0000,0.0000,20.0000,1.5686,2.3482,42.2351,49.2861,0.1119,0.000519,93.3360,-18.3275,-29.4602,47.7877,93.3360,0.0037,-8.0404,-17.0748,-1.0054,-0.0000,0.014371,-0.006150,0.001314,-0.0003,-0.0002,-0.0006,-180.0000,0.0000,0.0000
249,2.4900,0.0536,0.0054,0.0042,0.0541,0.0000,0.0000,0.0000,20.0000,1.4432,2.3018,25.4279,48.4359,0.1114,0.000609,93.3360,-18.3275,-29.4602,47.7877,93.3360,0.0037,-8.0404,-17.0748,-1.0054,-0.0000,0.013887,-0.003926,0.000181,-0.0004,0.0008,-0.0025,-180.0000,0.0000,0.0000
250,2.5000,0.0250,0.0002,-0.0072,0.0260,0.0000,0.0000,0.0000,20.0000,1.0967,2.2451,36.5112,47.4752,0.1110,0.000570,93.3360,-18.3275,-29.4602,47.7877,93.3360,0.0037,-8.0404,-17.0748,-1.0054,-0.0000,0.010726,-0.002175,0.000702,-0.0007,0.0016,-0.0033,-180.0000,0.0000,0.0000
251,2.5100,-0.0022,-0.0061,-0.0235,0.0243,0.0000,0.0000,0.0000,20.0000,0.6794,2.1704,51.2657,47.2779,0.1109,0.000569,93.3360,-18.3275,-29.4602,47.7877,93.3360,0.0037,-8.0404,-17.0748,-1.0054,-0.0000,0.006246,-0.000573,0.002611,-0.0014,0.0007,-0.0037,-180.0000,0.0000,0.0000
252,2.5200,-0.0203,-0.0123,-0.0390,0.0457,0.0000,0.0000,0.0000,20.0000,0.5649,2.0853,52.5209,47.5317,0.1110,0.000572,93.3360,-18.3275,-29.4602,47.7877,93.3360,0.0037,-8.0404,-17.0748,-1.0054,-0.0000,0.001945,0.000940,0.005219,-0.0016,-0.0003,-0.0046,-180.0000,0.0000,0.0000
253,2.5300,-0.0226,-0.0184,-0.0511,0.0588,0.0000,0.0000,0.0000,20.0000,0.8448,2.0093,45.0998,47.6021,0.1115,0.000625,93.3895,-18.3364,-29.4666,47.8031,93.3895,-0.0049,-8.0617,-17.6868,-1.0043,0.0000,-0.001306,0.002351,0.008008,-0.0012,-0.0013,-0.0044,180.0000,0.0000,0.0000
254,2.5400,-0.0115,-0.0252,-0.0608,0.0668,0.0000,0.0000,0.0000,20.0000,1.1351,1.9532,29.7104,47.0412,0.1121,0.000607,93.3895,-18.3364,-29.4666,47.8031,93.3895,-0.0049,-8.0617,-17.6868,-1.0043,0.0000,-0.001989,0.003804,0.010508,-0.0010,-0.0014,-0.0037,180.0000,0.0000,0.0000
255,2.5500,0.0038,-0.0303,-0.0641,0.0710,0.0000,0.0000,0.0000,20.0000,1.3248,1.9135,24.2221,45.9369,0.1128,0.000614,93.3895,-18.3364,-29.4666,47.8031,93.3895,-0.0049,-8.0617,-17.6868,-1.0043,0.0000,-0.000842,0.005110,0.012194,-0.0010,-0.0006,-0.0038,180.0000,0.0000,0.0000
256,2.5600,0.0171,-0.0405,-0.0540,0.0697,0.0000,0.0000,0.0000,20.0000,1.3942,1.8830,26.2506,44.7982,0.1135,0.000591,93.3895,-18.3364,-29.4666,47.8031,93.3895,-0.0049,-8.0617,-17.6868,-1.0043,0.0000,0.001125,0.006846,0.012094,-0.0013,-0.0001,-0.0035,180.0000,0.0000,0.0000
257,2.5700,0.0252,-0.0601,-0.0421,0.0776,0.0000,0.0000,0.0000,20.0000,1.4876,1.8587,36.9214,44.0714,0.1143,0.000580,93.3895,-18.3364,-29.4666,47.8031,93.3895,-0.0049,-8.0617,-17.6868,-1.0043,0.0000,0.003026,0.009745,0.010825,-0.0012,0.0007,-0.0035,180.0000,0.0000,0.0000
258,2.5800,0.0194,-0.0767,-0.0356,0.0867,0.0000,0.0000,0.0000,20.0000,1.6436,1.8425,35.5230,43.6396,0.1152,0.000527,93.3895,-18.3364,-29.4666,47.8031,93.3895,-0.0049,-8.0617,-17.6868,-1.0043,0.0000,0.003488,0.012988,0.009449,-0.0006,0.0029,-0.0032,180.0000,0.0000,0.0000
259,2.5900,0.0041,-0.0896,-0.0251,0.0931,0.0000,0.0000,0.0000,20.0000,1.7900,1.8356,37.8899,43.2583,0.1162,0.000521,93.3895,-18.3364,-29.4666,47.8031,93.3895,-0.0049,-8.0617,-17.6868,-1.0043,0.0000,0.002209,0.016047,0.007616,-0.0020,0.0030,-0.0030,180.0000,0.0000,0.0000
260,2.6000,-0.0065,-0.1035,-0.0109,0.1043,0.0000,0.0000,0.0000,20.0000,1.9787,1.8383,42.8743,43.1001,0.1174,0.000490,93.3895,-18.3364,-29.4666,47.8031,93.3895,-0.0049,-8.0617,-17.6868,-1.0043,0.0000,0.000435,0.019093,0.005176,-0.0019,0.0017,-0.0022,180.0000,0.0000,0.0000
261,2.6100,-0.0133,-0.1117,-0.0028,0.1126,0.0000,0.0000,0.0000,20.0000,2.1807,1.8516,36.8859,42.9229,0.1186,0.000455,93.3895,-18.3364,-29.4666,47.8031,93.3895,-0.0049,-8.0617,-17.6868,-1.0043,0.0000,-0.001227,0.021565,0.003000,-0.0010,0.0015,-0.0016,180.0000,0.0000,0.0000
262,2.6200,-0.0183,-0.1162,0.0046,0.1177,0.0000,0.0000,0.0000,20.0000,2.3504,1.8744,29.8449,42.3972,0.1200,0.000479,93.3895,-18.3364,-29.4666,47.8031,93.3895,-0.0049,-8.0617,-17.6868,-1.0043,0.0000,-0.002638,0.023331,0.001052,-0.0013,0.0007,-0.0002,180.0000,0.0000,0.0000
263,2.6300,-0.0155,-0.1241,0.0159,0.1261,0.0000,0.0000,0.0000,20.0000,2.5280,1.9054,28.4909,41.6695,0.1213,0.000460,93.3895,-18.3364,-29.4666,47.8031,93.3895,-0.0049,-8.0617,-17.6868,-1.0043,0.0000,-0.003140,0.025057,-0.001159,-0.0015,-0.0010,0.0005,180.0000,0.0000,0.0000
264,2.6400,-0.0047,-0.1285,0.0235,0.1307,0.0000,0.0000,0.0000,20.0000,2.6689,1.9435,25.2029,40.8541,0.1227,0.000589,93.3895,-18.3364,-29.4666,47.8031,93.3895,-0.0049,-8.0617,-17.6868,-1.0043,0.0000,-0.002330,0.026402,-0.003131,0.0003,-0.0017,0.0001,180.0000,0.0000,0.0000
265,2.6500,0.0019,-0.1188,0.0242,0.1212,0.0000,0.0000,0.0000,20.0000,2.6492,1.9829,16.3371,39.7493,0.1239,0.000571,93.3895,-18.3364,-29.4666,47.8031,93.3895,-0.0049,-8.0617,-17.6868,-1.0043,0.0000,-0.001217,0.026114,-0.004292,0.0001,-0.0004,0.0003,180.0000,0.0000,0.0000
266,2.6600,-0.0002,-0.0999,0.0204,0.1020,0.0000,0.0000,0.0000,20.0000,2.4455,2.0140,21.5139,38.6038,0.1251,0.000505,93.3895,-18.3364,-29.4666,47.8031,93.3895,-0.0049,-8.0617,-17.6868,-1.0043,0.0000,-0.000812,0.024016,-0.004543,-0.0004,-0.0008,0.0008,180.0000,0.0000,0.0000
267,2.6700,-0.0062,-0.0755,0.0115,0.0767,0.0000,0.0000,0.0000,20.0000,2.0756,2.0275,37.3966,38.1006,0.1261,0.000538,93.3895,-18.3364,-29.4666,47.8031,93.3895,-0.0049,-8.0617,-17.6868,-1.0043,0.0000,-0.001187,0.020373,-0.003785,0.0004,-0.0003,0.0005,180.0000,0.0000,0.0000
268,2.6800,-0.0195,-0.0446,0.0029,0.0487,0.0000,0.0000,0.0000,20.0000,1.5661,2.0161,55.2737,38.5536,0.1269,0.000558,93.3895,-18.3364,-29.4666,47.8031,93.3895,-0.0049,-8.0617,-17.6868,-1.0043,0.0000,-0.002716,0.015221,-0.002493,0.0005,0.0004,-0.0014,180.0000,0.0000,0.0000
269,2.6900,-0.0388,-0.0147,0.0036,0.0416,0.0000,0.0000,0.0000,20.0000,1.1003,1.9786,65.1761,39.7457,0.1275,0.000623,93.3895,-18.3364,-29.4666,47.8031,93.3895,-0.0049,-8.0617,-17.6868,-1.0043,0.0000,-0.005487,0.009357,-0.001845,0.0005,0.0013,-0.0002,180.0000,0.0000,0.0000
270,2.7000,-0.0481,0.0031,0.0131,0.0500,0.0000,0.0000,0.0000,20.0000,0.9363,1.9258,56.3486,40.9018,0.1279,0.000654,93.3895,-18.3364,-29.4666,47.8031,93.3895,-0.0049,-8.0617,-17.6868,-1.0043,0.0000,-0.007943,0.004320,-0.002432,0.0012,0.0005,0.0001,180.0000,0.0000,0.0000
271,2.7100,-0.0420,0.0045,0.0240,0.0486,0.0000,0.0000,0.0000,20.0000,0.9587,1.8719,33.3481,41.1188,0.1281,0.000577,93.3895,-18.3364,-29.4666,47.8031,93.3895,-0.0049,-8.0617,-17.6868,-1.0043,0.0000,-0.008674,0.001387,-0.003841,0.0022,0.0007,0.0018,180.0000,0.0000,0.0000
272,2.7200,-0.0318,-0.0005,0.0352,0.0475,0.0000,0.0000,0.0000,20.0000,0.9881,1.8225,22.9377,40.4051,0.1281,0.000523,93.3895,-18.3364,-29.4666,47.8031,93.3895,-0.0049,-8.0617,-17.6868,-1.0043,0.0000,-0.008041,0.000263,-0.005737,0.0027,0.0011,0.0022,180.0000,0.0000,0.0000
273,2.7300,-0.0190,-0.0067,0.0430,0.0474,0.0000,0.0000,0.0000,20.0000,0.9775,1.7763,24.8902,39.4979,0.1281,0.000566,93.3793,-18.2892,-29.5179,47.8071,93.3793,-0.0003,-8.0516,-18.3447,-1.0069,-0.0000,-0.006294,0.000758,-0.007440,0.0036,0.0015,0.0028,180.0000,0.0000,0.0000
274,2.7400,-0.0006,-0.0178,0.0394,0.0432,0.0000,0.0000,0.0000,20.0000,0.8985,1.7302,31.9097,38.8874,0.1280,0.000675,93.3793,-18.2892,-29.5179,47.8071,93.3793,-0.0003,-8.0516,-18.3447,-1.0069,-0.0000,-0.003474,0.002140,-0.008005,0.0026,0.0009,0.0022,180.0000,0.0000,0.0000
275,2.7500,0.0101,-0.0227,0.0286,0.0379,0.0000,0.0000,0.0000,20.0000,0.8028,1.6818,30.2338,38.4575,0.1279,0.000547,93.3793,-18.2892,-29.5179,47.8071,93.3793,-0.0003,-8.0516,-18.3447,-1.0069,-0.0000,-0.000838,0.003398,-0.007225,0.0004,0.0022,0.0010,180.0000,0.0000,0.0000
276,2.7600,0.0239,0.0022,0.0107,0.0262,0.0000,0.0000,0.0000,20.0000,0.5603,1.6268,40.3280,38.2828,0.1278,0.000550,93.3793,-18.2892,-29.5179,47.8071,93.3793,-0.0003,-8.0516,-18.3447,-1.0069,-0.0000,0.001992,0.001594,-0.004989,-0.0077,0.0099,-0.0009,180.0000,0.0000,0.0000
277,2.7700,0.0508,0.0522,-0.0262,0.0774,0.0000,0.0000,0.0000,20.0000,0.7641,1.5737,88.5782,39.7224,0.1274,0.000640,93.3793,-18.2892,-29.5179,47.8071,93.3793,-0.0003,-8.0516,-18.3447,-1.0069,-0.0000,0.006242,-0.004407,-0.000051,-0.0136,0.0146,-0.0025,180.0000,0.0000,0.0000
278,2.7800,0.0949,0.1129,-0.0970,0.1765,0.0000,0.0000,0.0000,20.0000,2.1305,1.5668,151.5243,44.1411,0.1266,0.000615,93.3793,-18.2892,-29.5179,47.8071,93.3793,-0.0003,-8.0516,-18.3447,-1.0069,-0.0000,0.012989,-0.013786,0.009752,-0.0214,0.0235,-0.0017,180.0000,0.0000,0.0000
279,2.7900,0.1672,0.1889,-0.2088,0.3275,0.0000,0.0000,0.0000,20.0000,4.4394,1.6613,236.1120,52.3745,0.1254,0.000605,93.3793,-18.2892,-29.5179,47.8071,93.3793,-0.0003,-8.0516,-18.3447,-1.0069,-0.0000,0.023926,-0.026546,0.026337,-0.0281,0.0334,-0.0013,180.0000,0.0000,0.0000
280,2.8000,0.2631,0.2654,-0.3564,0.5164,0.0000,0.0000,0.0000,20.0000,7.6020,1.9011,320.5199,64.8031,0.1239,0.000662,93.3793,-18.2892,-29.5179,47.8071,93.3793,-0.0003,-8.0516,-18.3447,-1.0069,-0.0000,0.039516,-0.041192,0.050208,-0.0322,0.0438,-0.0000,180.0000,0.0000,0.0000
281,2.8100,0.3619,0.3245,-0.5191,0.7112,0.0000,0.0000,0.0000,20.0000,11.2813,2.3159,373.5820,80.3290,0.1225,0.000395,93.3793,-18.2892,-29.5179,47.8071,93.3793,-0.0003,-8.0516,-18.3447,-1.0069,-0.0000,0.057932,-0.055123,0.079575,-0.0302,0.0492,0.0003,180.0000,0.0000,0.0000
282,2.8200,0.4526,0.3644,-0.6806,0.8950,0.0000,0.0000,0.0000,20.0000,15.1293,2.9149,392.3258,96.9758,0.1215,0.000649,93.3793,-18.2892,-29.5179,47.8071,93.3793,-0.0003,-8.0516,-18.3447,-1.0069,-0.0000,0.077072,-0.066703,0.111805,-0.0300,0.0611,0.0017,180.0000,0.0000,0.0000
283,2.8300,0.5425,0.3856,-0.8284,1.0627,0.0000,0.0000,0.0000,20.0000,18.9035,3.6906,386.6657,113.0667,0.1216,0.000584,93.3793,-18.2892,-29.5179,47.8071,93.3793,-0.0003,-8.0516,-18.3447,-1.0069,-0.0000,0.096486,-0.075088,0.144175,-0.0300,0.0702,0.0018,180.0000,0.0000,0.0000
284,2.8400,0.6299,0.3934,-0.9484,1.2046,0.0000,0.0000,0.0000,20.0000,22.3737,4.6229,357.2066,127.3066,0.1231,0.000527,93.3793,-18.2892,-29.5179,47.8071,93.3793,-0.0003,-8.0516,-18.3447,-1.0069,-0.0000,0.115766,-0.080353,0.173781,-0.0291,0.0830,0.0022,180.0000,0.0000,0.0000
285,2.8500,0.7294,0.3940,-1.0493,1.3372,0.0000,0.0000,0.0000,20.0000,25.5739,5.6873,332.2960,139.2678,0.1264,0.000519,93.3793,-18.2892,-29.5179,47.8071,93.3793,-0.0003,-8.0516,-18.3447,-1.0069,-0.0000,0.136136,-0.083158,0.199885,-0.0302,0.0988,0.0037,180.0000,0.0000,0.0000
286,2.8600,0.8647,0.3901,-1.1495,1.4904,0.0000,0.0000,0.0000,20.0000,28.8167,6.8704,343.6198,150.1974,0.1320,0.000773,93.3793,-18.2892,-29.5179,47.8071,93.3793,-0.0003,-8.0516,-18.3447,-1.0069,-0.0000,0.160656,-0.084152,0.223938,-0.0284,0.1212,0.0049,180.0000,0.0000,0.0000
287,2.8700,1.0494,0.3833,-1.2493,1.6760,0.0000,0.0000,0.0000,20.0000,32.3924,8.1760,390.6820,162.1316,0.1403,0.000597,93.3793,-18.2892,-29.5179,47.8071,93.3793,-0.0003,-8.0516,-18.3447,-1.0069,-0.0000,0.192362,-0.083857,0.246763,-0.0275,0.1463,0.0044,180.0000,0.0000,0.0000
288,2.8800,1.2783,0.3692,-1.3425,1.8901,0.0000,0.0000,0.0000,20.0000,36.4257,9.6190,454.4419,176.4573,0.1519,0.000620,93.3793,-18.2892,-29.5179,47.8071,93.3793,-0.0003,-8.0516,-18.3447,-1.0069,-0.0000,0.232391,-0.082118,0.268206,-0.0233,0.1775,0.0054,180.0000,0.0000,0.0000
289,2.8900,1.5498,0.3489,-1.4272,2.1355,0.0000,0.0000,0.0000,20.0000,41.0187,11.2199,527.6694,193.7628,0.1677,0.000601,93.3793,-18.2892,-29.5179,47.8071,93.3793,-0.0003,-8.0516,-18.3447,-1.0069,-0.0000,0.281204,-0.078963,0.287998,-0.0182,0.2123,0.0066,180.0000,0.0000,0.0000
290,2.9000,1.8653,0.3275,-1.4961,2.4135,0.0000,0.0000,0.0000,20.0000,46.2418,13.0028,606.1831,214.2897,0.1888,0.000600,93.3793,-18.2892,-29.5179,47.8071,93.3793,-0.0003,-8.0516,-18.3447,-1.0069,-0.0000,0.339174,-0.074917,0.305252,-0.0090,0.2500,0.0072,180.0000,0.0000,0.0000
291,2.9100,2.2136,0.2929,-1.5477,2.7169,0.0000,0.0000,0.0000,20.0000,52.0651,14.9913,679.3614,237.8597,0.2164,0.000595,93.3793,-18.2892,-29.5179,47.8071,93.3793,-0.0003,-8.0516,-18.3447,-1.0069,-0.0000,0.405375,-0.069071,0.319339,0.0002,0.2870,0.0081,180.0000,0.0000,0.0000
292,2.9200,2.5908,0.2345,-1.5917,3.0497,0.0000,0.0000,0.0000,20.0000,58.5141,17.2081,749.6688,264.0796,0.2526,0.000565,93.3793,-18.2892,-29.5179,47.8071,93.3793,-0.0003,-8.0516,-18.3447,-1.0069,-0.0000,0.478873,-0.059864,0.330888,0.0102,0.3241,0.0120,180.0000,0.0000,0.0000
293,2.9300,2.9961,0.1587,-1.6286,3.4138,0.0000,0.0000,0.0000,20.0000,65.7488,19.6792,826.3755,292.9006,0.3000,0.000567,93.3116,-18.4106,-29.5106,47.9212,93.3116,-0.0107,-8.0617,-18.1611,-1.0036,0.0000,0.559916,-0.047555,0.341355,0.0216,0.3589,0.0129,180.0000,0.0000,0.0000
294,2.9400,3.4087,0.0625,-1.6587,3.7914,0.0000,0.0000,0.0000,20.0000,73.4122,22.4242,869.1489,323.4224,0.3614,0.000544,93.3116,-18.4106,-29.5106,47.9212,93.3116,-0.0107,-8.0617,-18.1611,-1.0036,0.0000,0.644861,-0.031040,0.349465,0.0350,0.3933,0.0119,180.0000,0.0000,0.0000
295,2.9500,3.8143,-0.0496,-1.6872,4.1711,0.0000,0.0000,0.0000,20.0000,81.3267,25.4466,888.5167,353.9745,0.4405,0.000484,93.3116,-18.4106,-29.5106,47.9212,93.3116,-0.0107,-8.0617,-18.1611,-1.0036,0.0000,0.731082,-0.010634,0.356101,0.0473,0.4283,0.0108,180.0000,0.0000,0.0000
296,2.9600,4.2104,-0.1654,-1.7101,4.5475,0.0000,0.0000,0.0000,20.0000,89.3332,28.7407,889.6902,383.4108,0.5409,0.000951,93.3116,-18.4106,-29.5106,47.9212,93.3116,-0.0107,-8.0617,-18.1611,-1.0036,0.0000,0.816899,0.012248,0.361342,0.0583,0.4641,0.0111,180.0000,0.0000,0.0000
297,2.9700,4.5959,-0.2758,-1.7250,4.9167,0.0000,0.0000,0.0000,20.0000,97.3017,32.2929,876.7886,410.9054,0.6668,0.000612,93.3116,-18.4106,-29.5106,47.9212,93.3116,-0.0107,-8.0617,-18.1611,-1.0036,0.0000,0.901245,0.035909,0.365008,0.0716,0.4997,0.0091,180.0000,0.0000,0.0000
298,2.9800,4.9813,-0.3787,-1.7378,5.2893,0.0000,0.0000,0.0000,20.0000,105.2653,36.0880,865.9438,436.2345,0.8225,0.000623,93.3116,-18.4106,-29.5106,47.9212,93.3116,-0.0107,-8.0617,-18.1611,-1.0036,0.0000,0.984607,0.059206,0.367589,0.0820,0.5392,0.0105,180.0000,0.0000,0.0000
299,2.9900,5.3808,-0.4823,-1.7532,5.6797,0.0000,0.0000,0.0000,20.0000,113.3846,40.1166,872.1819,460.0435,1.0131,0.000516,93.3116,-18.4106,-29.5106,47.9212,93.3116,-0.0107,-8.0617,-18.1611,-1.0036,0.0000,1.068676,0.082325,0.369815,0.0919,0.5791,0.0132,180.0000,0.0000,0.0000
300,3.0000,5.7964,-0.5899,-1.7749,6.0907,0.0000,0.0000,0.0000,20.0000,121.7765,44.3777,890.6258,483.2217,1.2446,0.000604,93.3116,-18.4106,-29.5106,47.9212,93.3116,-0.0107,-8.0617,-18.1611,-1.0036,0.0000,1.154573,0.105707,0.372478,0.1015,0.6179,0.0163,180.0000,0.0000,0.0000
301,3.0100,6.2239,-0.7032,-1.8038,6.5181,0.0000,0.0000,0.0000,20.0000,130.4637,48.8742,912.2099,506.2258,1.5238,0.000588,93.3116,-18.4106,-29.5106,47.9212,93.3116,-0.0107,-8.0617,-18.1611,-1.0036,0.0000,1.242495,0.129745,0.376098,0.1127,0.6539,0.0178,180.0000,0.0000,0.0000
302,3.0200,6.6538,-0.8193,-1.8270,6.9485,0.0000,0.0000,0.0000,20.0000,139.3244,53.6060,925.1433,528.9139,1.8576,0.000485,93.3116,-18.4106,-29.5106,47.9212,93.3116,-0.0107,-8.0617,-18.1611,-1.0036,0.0000,1.331596,0.154387,0.379665,0.1230,0.6904,0.0206,180.0000,0.0000,0.0000
303,3.0300,7.0714,-0.9275,-1.8371,7.3647,0.0000,0.0000,0.0000,20.0000,148.1198,58.5631,916.1293,550.4618,2.2531,0.000436,93.3116,-18.4106,-29.5106,47.9212,93.3116,-0.0107,-8.0617,-18.1611,-1.0036,0.0000,1.419945,0.178523,0.381884,0.1370,0.7248,0.0217,180.0000,0.0000,0.0000
304,3.0400,7.5052,-1.0311,-1.8395,7.7958,0.0000,0.0000,0.0000,20.0000,157.0092,63.7339,923.8196,570.7879,2.7180,0.000418,93.3116,-18.4106,-29.5106,47.9212,93.3116,-0.0107,-8.0617,-18.1611,-1.0036,0.0000,1.509326,0.201864,0.382588,0.1563,0.7781,0.0237,180.0000,0.0000,0.0000
305,3.0500,7.9560,-1.1399,-1.8321,8.2434,0.0000,0.0000,0.0000,20.0000,166.0962,69.1147,944.1293,590.7661,3.2612,0.000457,93.3116,-18.4106,-29.5106,47.9212,93.3116,-0.0107,-8.0617,-18.1611,-1.0036,0.0000,1.600793,0.225239,0.381475,0.1688,0.8151,0.0249,180.0000,0.0000,0.0000
306,3.0600,8.3911,-1.2436,-1.8176,8.6753,0.0000,0.0000,0.0000,20.0000,175.1192,74.6977,937.4968,610.0215,3.8910,0.000467,93.3116,-18.4106,-29.5106,47.9212,93.3116,-0.0107,-8.0617,-18.1611,-1.0036,0.0000,1.691673,0.248084,0.378644,0.1797,0.8506,0.0257,180.0000,0.0000,0.0000
307,3.0700,8.8110,-1.3449,-1.8040,9.0938,0.0000,0.0000,0.0000,20.0000,183.9539,80.4646,916.5942,627.4604,4.6161,0.000636,93.3116,-18.4106,-29.5106,47.9212,93.3116,-0.0107,-8.0617,-18.1611,-1.0036,0.0000,1.780512,0.270343,0.374962,0.1871,0.8842,0.0257,180.0000,0.0000,0.0000
308,3.0800,9.2100,-1.4487,-1.7897,9.4934,0.0000,0.0000,0.0000,20.0000,192.4785,86.3918,883.6931,642.4601,5.4447,0.000575,93.3116,-18.4106,-29.5106,47.9212,93.3116,-0.0107,-8.0617,-18.1611,-1.0036,0.0000,1.865957,0.292489,0.370746,0.1932,0.9136,0.0257,180.0000,0.0000,0.0000
309,3.0900,9.5782,-1.5450,-1.7711,9.8624,0.0000,0.0000,0.0000,20.0000,200.5070,92.4483,832.4766,654.3212,6.3840,0.000594,93.3116,-18.4106,-29.5106,47.9212,93.3116,-0.0107,-8.0617,-18.1611,-1.0036,0.0000,1.946285,0.313780,0.365815,0.1957,0.9397,0.0246,180.0000,0.0000,0.0000
310,3.1000,9.9080,-1.6208,-1.7573,10.1924,0.0000,0.0000,0.0000,20.0000,207.8546,98.5945,759.9078,662.1253,7.4403,0.000598,93.3116,-18.4106,-29.5106,47.9212,93.3116,-0.0107,-8.0617,-18.1611,-1.0036,0.0000,2.019775,0.332499,0.360977,0.1975,0.9606,0.0238,180.0000,0.0000,0.0000
311,3.1100,10.1974,-1.6668,-1.7618,10.4818,0.0000,0.0000,0.0000,20.0000,214.4040,104.7848,671.2358,665.0652,8.6186,0.000521,93.3116,-18.4106,-29.5106,47.9212,93.3116,-0.0107,-8.0617,-18.1611,-1.0036,0.0000,2.085296,0.346779,0.358036,0.1958,0.9752,0.0238,180.0000,0.0000,0.0000
312,3.1200,10.4378,-1.6820,-1.7898,10.7229,0.0000,0.0000,0.0000,20.0000,221.9446,111.0221,755.7824,667.7300,9.9345,0.000602,91.7711,-18.9647,-29.7982,48.7628,91.7711,2.7794,-9.5127,-15.9224,-1.4364,1.0750,2.159832,0.355768,0.366735,0.1911,0.9789,0.0226,-180.0000,0.0000,0.0000
313,3.1300,10.6078,-1.6634,-1.8385,10.8936,0.0000,0.0000,0.0000,20.0000,227.3747,117.2731,546.6805,666.8225,11.3848,0.000520,91.7711,-18.9647,-29.7982,48.7628,91.7711,2.7794,-9.5127,-15.9224,-1.4364,1.0750,2.213710,0.358158,0.375684,0.1816,0.9730,0.0212,-180.0000,0.0000,0.0000
314,3.1400,10.6978,-1.6070,-1.9015,10.9837,0.0000,0.0000,0.0000,20.0000,230.8169,123.4242,362.7587,655.1551,12.9634,0.000506,91.7711,-18.9647,-29.7982,48.7628,91.7711,2.7794,-9.5127,-15.9224,-1.4364,1.0750,2.248069,0.353129,0.386177,0.1708,0.9580,0.0199,-180.0000,0.0000,0.0000
315,3.1500,10.7035,-1.5231,-1.9694,10.9893,0.0000,0.0000,0.0000,20.0000,232.3071,129.3727,225.3761,635.2924,14.6609,0.000588,91.7711,-18.9647,-29.7982,48.7628,91.7711,2.7794,-9.5127,-15.9224,-1.4364,1.0750,2.263142,0.341250,0.397994,0.1560,0.9364,0.0188,-180.0000,0.0000,0.0000
316,3.1600,10.6239,-1.4247,-2.0327,10.9100,0.0000,0.0000,0.0000,20.0000,231.8667,135.0228,213.3380,612.4126,16.4642,0.000561,91.7711,-18.9647,-29.7982,48.7628,91.7711,2.7794,-9.5127,-15.9224,-1.4364,1.0750,2.258978,0.324159,0.410065,0.1403,0.9135,0.0169,-180.0000,0.0000,0.0000
317,3.1700,10.4753,-1.3076,-2.0828,10.7601,0.0000,0.0000,0.0000,20.0000,229.6542,140.2891,326.0957,593.5616,18.3577,0.000520,91.7711,-18.9647,-29.7982,48.7628,91.7711,2.7794,-9.5127,-15.9224,-1.4364,1.0750,2.237299,0.302354,0.420924,0.1248,0.8942,0.0153,-180.0000,0.0000,0.0000
318,3.1800,10.2931,-1.1741,-2.1206,10.5747,0.0000,0.0000,0.0000,20.0000,226.1130,145.1075,442.5703,582.0524,20.3264,0.000546,91.7711,-18.9647,-29.7982,48.7628,91.7711,2.7794,-9.5127,-15.9224,-1.4364,1.0750,2.202625,0.276346,0.429867,0.1090,0.8795,0.0150,-180.0000,0.0000,0.0000
319,3.1900,10.1138,-1.0376,-2.1513,10.3920,0.0000,0.0000,0.0000,20.0000,221.8743,149.4469,508.9775,576.2062,22.3584,0.000515,91.7711,-18.9647,-29.7982,48.7628,91.7711,2.7794,-9.5127,-15.9224,-1.4364,1.0750,2.161122,0.247764,0.437018,0.0941,0.8697,0.0143,-180.0000,0.0000,0.0000
320,3.2000,9.9620,-0.8926,-2.1723,10.2351,0.0000,0.0000,0.0000,20.0000,217.5177,153.3111,526.9650,573.0028,24.4464,0.000493,91.7711,-18.9647,-29.7982,48.7628,91.7711,2.7794,-9.5127,-15.9224,-1.4364,1.0750,2.118674,0.216969,0.442196,0.0798,0.8670,0.0130,-180.0000,0.0000,0.0000
321,3.2100,9.8640,-0.7428,-2.1804,10.1293,0.0000,0.0000,0.0000,20.0000,213.6198,156.7358,496.6390,569.6363,26.5884,0.000663,91.7711,-18.9647,-29.7982,48.7628,91.7711,2.7794,-9.5127,-15.9224,-1.4364,1.0750,2.081172,0.184530,0.444986,0.0669,0.8692,0.0141,-180.0000,0.0000,0.0000
322,3.2200,9.8276,-0.6051,-2.1786,10.0843,0.0000,0.0000,0.0000,20.0000,210.5947,159.7817,429.2291,563.7668,28.7880,0.000803,91.7711,-18.9647,-29.7982,48.7628,91.7711,2.7794,-9.5127,-15.9224,-1.4364,1.0750,2.052640,0.152466,0.445459,0.0570,0.8766,0.0130,-180.0000,0.0000,0.0000
323,3.2300,9.8418,-0.4792,-2.1739,10.0904,0.0000,0.0000,0.0000,20.0000,208.5713,162.5212,357.7207,554.3994,31.0515,0.000694,91.7711,-18.9647,-29.7982,48.7628,91.7711,2.7794,-9.5127,-15.9224,-1.4364,1.0750,2.034181,0.121845,0.444365,0.0491,0.8888,0.0115,-180.0000,0.0000,0.0000
324,3.2400,9.8987,-0.3621,-2.1637,10.1389,0.0000,0.0000,0.0000,20.0000,207.5318,165.0257,302.2935,542.0560,33.3871,0.000715,91.7711,-18.9647,-29.7982,48.7628,91.7711,2.7794,-9.5127,-15.9224,-1.4364,1.0750,2.025604,0.092967,0.441846,0.0443,0.9029,0.0122,-180.0000,0.0000,0.0000
325,3.2500,9.9971,-0.2582,-2.1405,10.2270,0.0000,0.0000,0.0000,20.0000,207.4350,167.3612,269.5824,527.9675,35.8042,0.000660,91.7711,-18.9647,-29.7982,48.7628,91.7711,2.7794,-9.5127,-15.9224,-1.4364,1.0750,2.026653,0.066423,0.437255,0.0436,0.9178,0.0125,-180.0000,0.0000,0.0000
326,3.2600,10.1218,-0.1582,-2.0944,10.3375,0.0000,0.0000,0.0000,20.0000,208.0828,169.5834,275.7636,513.9242,38.3109,0.000461,91.7711,-18.9647,-29.7982,48.7628,91.7711,2.7794,-9.5127,-15.9224,-1.4364,1.0750,2.035651,0.041624,0.429226,0.0435,0.9307,0.0100,-180.0000,0.0000,0.0000
327,3.2700,10.2541,-0.0612,-2.0231,10.4519,0.0000,0.0000,0.0000,20.0000,209.1801,171.7313,300.9707,501.5168,40.9131,0.000595,91.7711,-18.9647,-29.7982,48.7628,91.7711,2.7794,-9.5127,-15.9224,-1.4364,1.0750,2.049775,0.018129,0.416802,0.0416,0.9379,0.0112,-180.0000,0.0000,0.0000
328,3.2800,10.3785,0.0120,-1.9308,10.5566,0.0000,0.0000,0.0000,20.0000,210.4270,173.8256,310.1204,490.7368,43.6134,0.000629,91.7711,-18.9647,-29.7982,48.7628,91.7711,2.7794,-9.5127,-15.9224,-1.4364,1.0750,2.065926,-0.002220,0.399867,0.0379,0.9372,0.0115,-180.0000,0.0000,0.0000
329,3.2900,10.4655,0.0529,-1.8240,10.6234,0.0000,0.0000,0.0000,20.0000,211.3761,175.8651,291.8334,480.2985,46.4093,0.000550,91.7711,-18.9647,-29.7982,48.7628,91.7711,2.7794,-9.5127,-15.9224,-1.4364,1.0750,2.079426,-0.017554,0.379028,0.0300,0.9340,0.0108,-180.0000,0.0000,0.0000
330,3.3000,10.5062,0.0791,-1.7244,10.6471,0.0000,0.0000,0.0000,20.0000,211.7273,177.8281,259.0775,469.0305,49.2941,0.000675,91.7711,-18.9647,-29.7982,48.7628,91.7711,2.7794,-9.5127,-15.9224,-1.4364,1.0750,2.086798,-0.028612,0.356788,0.0216,0.9304,0.0099,-180.0000,0.0000,0.0000
331,3.3100,10.5223,0.1104,-1.6567,10.6525,0.0000,0.0000,0.0000,20.0000,211.5663,179.6884,218.5382,456.3664,52.2612,0.000528,91.7711,-18.9647,-29.7982,48.7628,91.7711,2.7794,-9.5127,-15.9224,-1.4364,1.0750,2.088307,-0.037795,0.337015,0.0101,0.9305,0.0091,-180.0000,0.0000,0.0000
332,3.3200,10.5495,0.1542,-1.6254,10.6751,0.0000,0.0000,0.0000,20.0000,217.1997,181.5969,573.2626,453.0403,55.3984,0.000501,86.9662,-18.9494,-31.0336,49.9830,86.9662,2.1592,-8.0967,-13.9714,-1.8934,1.4713,2.145541,-0.040678,0.335518,-0.0015,0.9379,0.0080,180.0000,0.0000,0.0000
333,3.3300,10.6147,0.2252,-1.6186,10.7397,0.0000,0.0000,0.0000,20.0000,220.5297,183.6469,350.0627,453.5146,58.6773,0.000630,86.9662,-18.9494,-31.0336,49.9830,86.9662,2.1592,-8.0967,-13.9714,-1.8934,1.4713,2.179401,-0.049292,0.333343,-0.0115,0.9539,0.0064,180.0000,0.0000,0.0000
334,3.3400,10.7348,0.3264,-1.6238,10.8618,0.0000,0.0000,0.0000,20.0000,223.1538,185.7480,302.5971,446.5184,62.0905,0.000475,86.9662,-18.9494,-31.0336,49.9830,86.9662,2.1592,-8.0967,-13.9714,-1.8934,1.4713,2.205773,-0.064068,0.331995,-0.0184,0.9739,0.0048,180.0000,0.0000,0.0000
335,3.3500,10.9092,0.4399,-1.6266,11.0385,0.0000,0.0000,0.0000,20.0000,225.9292,187.8819,337.5180,439.5620,65.6428,0.000587,86.9662,-18.9494,-31.0336,49.9830,86.9662,2.1592,-8.0967,-13.9714,-1.8934,1.4713,2.233374,-0.083461,0.330866,-0.0252,0.9946,0.0032,180.0000,0.0000,0.0000
336,3.3600,11.1088,0.5520,-1.6158,11.2392,0.0000,0.0000,0.0000,20.0000,229.0253,190.0600,377.4945,435.0483,69.3420,0.000586,86.9662,-18.9494,-31.0336,49.9830,86.9662,2.1592,-8.0967,-13.9714,-1.8934,1.4713,2.264128,-0.105224,0.328498,-0.0310,1.0111,0.0033,180.0000,0.0000,0.0000
337,3.3700,11.3017,0.6624,-1.5897,11.4322,0.0000,0.0000,0.0000,20.0000,232.2167,192.2912,394.0511,432.3378,73.1931,0.000584,86.9662,-18.9494,-31.0336,49.9830,86.9662,2.1592,-8.0967,-13.9714,-1.8934,1.4713,2.295894,-0.128086,0.323919,-0.0376,1.0228,0.0024,180.0000,0.0000,0.0000
338,3.3800,11.4716,0.7677,-1.5556,11.6020,0.0000,0.0000,0.0000,20.0000,235.2245,194.5701,382.7732,429.9215,77.1964,0.000550,86.9662,-18.9494,-31.0336,49.9830,86.9662,2.1592,-8.0967,-13.9714,-1.8934,1.4713,2.325846,-0.150993,0.317334,-0.0429,1.0337,0.0028,180.0000,0.0000,0.0000
339,3.3900,11.6255,0.8679,-1.5296,11.7578,0.0000,0.0000,0.0000,20.0000,237.9865,196.8824,359.6879,426.6930,81.3516,0.000591,86.9662,-18.9494,-31.0336,49.9830,86.9662,2.1592,-8.0967,-13.9714,-1.8934,1.4713,2.353150,-0.173376,0.310461,-0.0474,1.0446,0.0022,180.0000,0.0000,0.0000
340,3.4000,11.7736,0.9636,-1.5215,11.9106,0.0000,0.0000,0.0000,20.0000,240.5762,199.2147,335.9208,422.3535,85.6598,0.000647,86.9662,-18.9494,-31.0336,49.9830,86.9662,2.1592,-8.0967,-13.9714,-1.8934,1.4713,2.378342,-0.194974,0.305234,-0.0521,1.0584,0.0031,180.0000,0.0000,0.0000
341,3.4100,11.9270,1.0494,-1.5298,12.0704,0.0000,0.0000,0.0000,20.0000,243.1354,201.5603,318.2705,417.1136,90.1247,0.000730,86.9662,-18.9494,-31.0336,49.9830,86.9662,2.1592,-8.0967,-13.9714,-1.8934,1.4713,2.402846,-0.215107,0.302560,-0.0554,1.0759,0.0033,180.0000,0.0000,0.0000
342,3.4200,12.0856,1.1317,-1.5519,12.2373,0.0000,0.0000,0.0000,20.0000,245.7419,203.9189,310.4380,411.4610,94.7518,0.000704,86.9662,-18.9494,-31.0336,49.9830,86.9662,2.1592,-8.0967,-13.9714,-1.8934,1.4713,2.427451,-0.234036,0.302686,-0.0581,1.0930,0.0027,180.0000,0.0000,0.0000
343,3.4300,12.2328,1.2114,-1.5881,12.3948,0.0000,0.0000,0.0000,20.0000,248.2736,206.2892,297.0700,405.5362,99.5442,0.000692,86.9662,-18.9494,-31.0336,49.9830,86.9662,2.1592,-8.0967,-13.9714,-1.8934,1.4713,2.450914,-0.251994,0.305770,-0.0662,1.0991,0.0023,180.0000,0.0000,0.0000
344,3.4400,12.3572,1.2929,-1.6355,12.5318,0.0000,0.0000,0.0000,20.0000,250.5536,208.6614,276.3652,399.0003,104.5013,0.000696,86.9662,-18.9494,-31.0336,49.9830,86.9662,2.1592,-8.0967,-13.9714,-1.8934,1.4713,2.471426,-0.269573,0.311603,-0.0800,1.0973,0.0015,180.0000,0.0000,0.0000
345,3.4500,12.4653,1.3884,-1.6867,12.6553,0.0000,0.0000,0.0000,20.0000,252.5540,211.0208,265.7202,391.9616,109.6205,0.000725,86.9662,-18.9494,-31.0336,49.9830,86.9662,2.1592,-8.0967,-13.9714,-1.8934,1.4713,2.488629,-0.288295,0.319323,-0.0977,1.0907,0.0002,180.0000,0.0000,0.0000
346,3.4600,12.5640,1.4971,-1.7363,12.7715,0.0000,0.0000,0.0000,20.0000,254.3257,213.3542,266.0376,385.0260,114.8991,0.000679,86.9662,-18.9494,-31.0336,49.9830,86.9662,2.1592,-8.0967,-13.9714,-1.8934,1.4713,2.503035,-0.308945,0.327915,-0.1146,1.0871,-0.0009,180.0000,0.0000,0.0000
347,3.4700,12.6594,1.6068,-1.7805,12.8846,0.0000,0.0000,0.0000,20.0000,255.9383,215.6523,264.9719,378.4514,120.3358,0.000729,86.9662,-18.9494,-31.0336,49.9830,86.9662,2.1592,-8.0967,-13.9714,-1.8934,1.4713,2.515531,-0.330707,0.336423,-0.1297,1.0866,-0.0015,180.0000,0.0000,0.0000
348,3.4800,12.7559,1.7257,-1.8157,12.9996,0.0000,0.0000,0.0000,20.0000,257.4812,217.9108,270.4190,372.3589,125.9303,0.000773,86.9662,-18.9494,-31.0336,49.9830,86.9662,2.1592,-8.0967,-13.9714,-1.8934,1.4713,2.527062,-0.353970,0.343980,-0.1415,1.0911,-0.0021,180.0000,0.0000,0.0000
349,3.4900,12.8303,1.8580,-1.8415,13.0943,0.0000,0.0000,0.0000,20.0000,258.7824,220.1233,275.2404,366.8840,131.6777,0.000782,86.9662,-18.9494,-31.0336,49.9830,86.9662,2.1592,-8.0967,-13.9714,-1.8934,1.4713,2.535822,-0.379347,0.350049,-0.1528,1.0945,-0.0019,180.0000,0.0000,0.0000
350,3.5000,12.8593,1.9951,-1.8702,13.1468,0.0000,0.0000,0.0000,20.0000,259.5275,222.2703,276.6607,361.8819,137.5659,0.000695,86.9662,-18.9494,-31.0336,49.9830,86.9662,2.1592,-8.0967,-13.9714,-1.8934,1.4713,2.538488,-0.406325,0.355570,-0.1638,1.0907,-0.0019,180.0000,0.0000,0.0000
351,3.5100,12.8452,2.1308,-1.9152,13.1608,0.0000,0.0000,0.0000,20.0000,259.5800,224.3212,289.4427,357.5456,143.5786,0.000732,86.9662,-18.9494,-31.0336,49.9830,86.9662,2.1592,-8.0967,-13.9714,-1.8934,1.4713,2.533472,-0.433998,0.362411,-0.1799,1.0783,-0.0012,180.0000,0.0000,0.0000
352,3.5200,12.8103,2.2733,-1.9723,13.1591,0.0000,0.0000,0.0000,20.0000,265.9897,226.4370,675.6267,364.4211,149.8737,0.000728,81.3164,-18.7778,-32.3132,51.0909,81.3164,4.6856,-12.2636,-16.9466,-2.0866,1.7458,2.591249,-0.461918,0.383555,-0.1962,1.0667,-0.0011,-180.0000,0.0000,0.0000
353,3.5300,12.7760,2.4267,-2.0280,13.1616,0.0000,0.0000,0.0000,20.0000,269.0325,228.6964,413.1180,374.3198,156.3745,0.000804,81.3164,-18.7778,-32.3132,51.0909,81.3164,4.6856,-12.2636,-16.9466,-2.0866,1.7458,2.614570,-0.491761,0.400053,-0.2122,1.0620,-0.0016,-180.0000,0.0000,0.0000
354,3.5400,12.7611,2.5762,-2.0756,13.1829,0.0000,0.0000,0.0000,20.0000,270.4015,230.9529,337.2285,374.3668,163.0413,0.000551,81.3164,-18.7778,-32.3132,51.0909,81.3164,4.6856,-12.2636,-16.9466,-2.0866,1.7458,2.620744,-0.522227,0.413128,-0.2252,1.0620,0.0000,-180.0000,0.0000,0.0000
355,3.5500,12.7809,2.7106,-2.1126,13.2349,0.0000,0.0000,0.0000,20.0000,271.1521,233.1435,309.3991,371.5584,169.8595,0.000610,81.3164,-18.7778,-32.3132,51.0909,81.3164,4.6856,-12.2636,-16.9466,-2.0866,1.7458,2.620897,-0.551469,0.423235,-0.2370,1.0683,-0.0003,-180.0000,0.0000,0.0000
356,3.5600,12.8257,2.8318,-2.1462,13.3088,0.0000,0.0000,0.0000,20.0000,271.7803,235.2516,283.6645,367.4314,176.8270,0.000642,81.3164,-18.7778,-32.3132,51.0909,81.3164,4.6856,-12.2636,-16.9466,-2.0866,1.7458,2.620224,-0.578646,0.431335,-0.2491,1.0803,-0.0025,-180.0000,0.0000,0.0000
357,3.5700,12.8686,2.9455,-2.1938,13.3824,0.0000,0.0000,0.0000,20.0000,272.3352,237.2762,266.2606,362.3448,183.9433,0.000679,81.3164,-18.7778,-32.3132,51.0909,81.3164,4.6856,-12.2636,-16.9466,-2.0866,1.7458,2.618898,-0.603888,0.439705,-0.2599,1.0798,-0.0033,-180.0000,0.0000,0.0000
358,3.5800,12.8968,3.0558,-2.2648,13.4460,0.0000,0.0000,0.0000,20.0000,272.7471,239.2161,263.2325,356.9762,191.2058,0.000643,81.3164,-18.7778,-32.3132,51.0909,81.3164,4.6856,-12.2636,-16.9466,-2.0866,1.7458,2.615748,-0.627663,0.450555,-0.2723,1.0759,-0.0039,-180.0000,0.0000,0.0000
359,3.5900,12.9038,3.1857,-2.3494,13.4972,0.0000,0.0000,0.0000,20.0000,272.9567,241.0663,290.1085,352.5587,198.6084,0.000681,81.3164,-18.7778,-32.3132,51.0909,81.3164,4.6856,-12.2636,-16.9466,-2.0866,1.7458,2.609471,-0.652534,0.464107,-0.2875,1.0707,-0.0061,-180.0000,0.0000,0.0000
360,3.6000,12.8800,3.3354,-2.4287,13.5247,0.0000,0.0000,0.0000,20.0000,272.8200,242.8168,329.2437,350.1998,206.1384,0.000703,81.3164,-18.7778,-32.3132,51.0909,81.3164,4.6856,-12.2636,-16.9466,-2.0866,1.7458,2.598401,-0.679945,0.478602,-0.3031,1.0651,-0.0078,-180.0000,0.0000,0.0000
361,3.6100,12.8428,3.4906,-2.4954,13.5406,0.0000,0.0000,0.0000,20.0000,272.3825,244.4551,356.9033,349.8078,213.7840,0.000754,81.3164,-18.7778,-32.3132,51.0909,81.3164,4.6856,-12.2636,-16.9466,-2.0866,1.7458,2.583367,-0.709262,0.492325,-0.3169,1.0587,-0.0105,-180.0000,0.0000,0.0000
362,3.6200,12.8045,3.6423,-2.5531,13.5551,0.0000,0.0000,0.0000,20.0000,271.7692,245.9745,367.4473,350.4881,221.5371,0.000659,81.3164,-18.7778,-32.3132,51.0909,81.3164,4.6856,-12.2636,-16.9466,-2.0866,1.7458,2.566063,-0.739222,0.504700,-0.3276,1.0523,-0.0119,-180.0000,0.0000,0.0000
