GerardoEmirSanchez/Integraci-n-de-xArm5-5-DOF-en-NVIDIA-Isaac-Sim-con-ROS-2-Humble-para-pHRI/mediciones/2026.04.28_VIC_pHRI_tanh_2026-04-28_13-56-12.csv
Index,Time_s,Fx,Fy,Fz,F_Amp,Psi_Imp,Psi_Int,Beta,K_Stiffness,Vel_Raw,Vel_Filt,Acc_Raw,Acc_Filt,Lyapunov_V_Nmm,Loop_Duration_s,q1,q2,q3,q4,q5,tau1,tau2,tau3,tau4,tau5,deltaXcmd,deltaYcmd,deltaZcmd,Tx_EE,Ty_EE,Tz_EE,Roll,Pitch,Yaw
0,0.0000,-0.1099,-0.0035,-0.0361,0.1157,0.0000,0.0000,0.0000,20.0000,1.9492,0.2063,52.5297,8.9276,0.0000,0.000794,-0.0000,-0.0000,-0.0000,0.0000,-0.0000,-0.0000,-6.3731,-3.6122,-0.9928,0.0000,-0.018722,-0.000692,0.005381,-0.0010,0.0032,-0.0032,-180.0000,0.0000,0.0000
1,0.0100,-0.1018,-0.0006,-0.0566,0.1164,0.0000,0.0000,0.0000,20.0000,2.2174,0.3096,36.7362,10.8917,0.0001,0.000728,-0.0000,-0.0000,-0.0000,0.0000,-0.0000,-0.0000,-6.3731,-3.6122,-0.9928,0.0000,-0.020432,-0.000310,0.008610,-0.0013,0.0022,-0.0016,-180.0000,0.0000,0.0000
2,0.0200,-0.0684,0.0064,-0.0788,0.1045,0.0000,0.0000,0.0000,20.0000,2.1981,0.4140,47.0000,12.5956,0.0001,0.000746,-0.0000,-0.0000,-0.0000,0.0000,-0.0000,-0.0000,-6.3731,-3.6122,-0.9928,0.0000,-0.017995,-0.000801,0.012599,-0.0013,0.0013,0.0007,-180.0000,0.0000,0.0000
3,0.0300,-0.0227,0.0106,-0.1003,0.1034,0.0000,0.0000,0.0000,20.0000,2.0835,0.5090,73.8706,15.2272,0.0001,0.000809,-0.0000,-0.0000,-0.0000,0.0000,-0.0000,-0.0000,-6.3731,-3.6122,-0.9928,0.0000,-0.012051,-0.001483,0.016932,-0.0002,0.0008,0.0025,-180.0000,0.0000,0.0000
4,0.0400,0.0228,0.0205,-0.1163,0.1203,0.0000,0.0000,0.0000,20.0000,2.1496,0.5974,89.0628,18.8709,0.0002,0.000705,-0.0000,-0.0000,-0.0000,0.0000,-0.0000,-0.0000,-6.3731,-3.6122,-0.9928,0.0000,-0.004190,-0.002851,0.020889,-0.0002,0.0005,0.0033,-180.0000,0.0000,0.0000
5,0.0500,0.0556,0.0299,-0.1254,0.1404,0.0000,0.0000,0.0000,20.0000,2.4616,0.6914,83.9907,22.5925,0.0002,0.001268,-0.0000,-0.0000,-0.0000,0.0000,-0.0000,-0.0000,-6.3731,-3.6122,-0.9928,0.0000,0.003447,-0.004542,0.023947,-0.0002,0.0004,0.0036,-180.0000,0.0000,0.0000
6,0.0600,0.0741,0.0288,-0.1305,0.1529,0.0000,0.0000,0.0000,20.0000,2.8295,0.7989,64.9271,25.4456,0.0002,0.000917,-0.0000,-0.0000,-0.0000,0.0000,-0.0000,-0.0000,-6.3731,-3.6122,-0.9928,0.0000,0.009517,-0.005359,0.026102,0.0000,0.0008,0.0049,-180.0000,0.0000,0.0000
7,0.0700,0.0822,0.0233,-0.1280,0.1539,0.0000,0.0000,0.0000,20.0000,3.0702,0.9172,42.4116,26.9981,0.0003,0.000800,-0.0000,-0.0000,-0.0000,0.0000,-0.0000,-0.0000,-6.3731,-3.6122,-0.9928,0.0000,0.013663,-0.005244,0.026990,0.0002,0.0014,0.0050,-180.0000,0.0000,0.0000
8,0.0800,0.0808,0.0219,-0.1217,0.1477,0.0000,0.0000,0.0000,20.0000,3.1501,1.0378,21.3956,27.2680,0.0004,0.000737,-0.0000,-0.0000,-0.0000,0.0000,-0.0000,-0.0000,-6.3731,-3.6122,-0.9928,0.0000,0.015783,-0.005030,0.026794,0.0018,0.0022,0.0036,-180.0000,0.0000,0.0000
9,0.0900,0.0805,0.0299,-0.1192,0.1469,0.0000,0.0000,0.0000,20.0000,3.1842,1.1550,13.6352,26.7315,0.0004,0.002304,-0.0000,-0.0000,-0.0000,0.0000,-0.0000,-0.0000,-6.3731,-3.6122,-0.9928,0.0000,0.016891,-0.005709,0.026382,0.0040,0.0026,0.0036,-180.0000,0.0000,0.0000
10,0.1000,0.0891,0.0438,-0.1170,0.1535,0.0000,0.0000,0.0000,20.0000,3.2584,1.2686,23.1972,26.2741,0.0005,0.000748,-0.0000,-0.0000,-0.0000,0.0000,-0.0000,-0.0000,-6.3731,-3.6122,-0.9928,0.0000,0.018328,-0.007461,0.025887,0.0044,0.0022,0.0043,-180.0000,0.0000,0.0000
11,0.1100,0.0983,0.0622,-0.1145,0.1632,0.0000,0.0000,0.0000,20.0000,3.3852,1.3816,33.1500,26.3786,0.0007,0.000720,-0.0000,-0.0000,-0.0000,0.0000,-0.0000,-0.0000,-6.3731,-3.6122,-0.9928,0.0000,0.020011,-0.010257,0.025304,0.0054,0.0025,0.0036,-180.0000,0.0000,0.0000
12,0.1200,0.0994,0.0835,-0.1158,0.1740,0.0000,0.0000,0.0000,20.0000,3.5542,1.4964,37.9551,26.8832,0.0008,0.000735,-0.0000,-0.0000,-0.0000,0.0000,-0.0000,-0.0000,-6.3731,-3.6122,-0.9928,0.0000,0.021012,-0.013911,0.025064,0.0057,0.0023,0.0024,-180.0000,0.0000,0.0000
13,0.1300,0.0970,0.0968,-0.1184,0.1811,0.0000,0.0000,0.0000,20.0000,3.7169,1.6141,33.3140,27.3646,0.0010,0.000717,-0.0000,-0.0000,-0.0000,0.0000,-0.0000,-0.0000,-6.3731,-3.6122,-0.9928,0.0000,0.021280,-0.017230,0.025136,0.0038,0.0012,0.0030,-180.0000,0.0000,0.0000
14,0.1400,0.0948,0.0954,-0.1230,0.1823,0.0000,0.0000,0.0000,20.0000,3.8208,1.7326,17.2489,27.2500,0.0012,0.000774,-0.0000,-0.0000,-0.0000,0.0000,-0.0000,-0.0000,-6.3731,-3.6122,-0.9928,0.0000,0.021170,-0.018891,0.025589,0.0038,-0.0005,0.0024,-180.0000,0.0000,0.0000
15,0.1500,0.0889,0.0840,-0.1325,0.1804,0.0000,0.0000,0.0000,20.0000,3.8641,1.8487,15.6942,26.6571,0.0015,0.001085,-0.0068,-0.0547,0.0131,0.0415,-0.0068,0.0006,-6.3863,-3.6191,-0.9941,0.0000,0.020429,-0.018684,0.026956,0.0034,-0.0003,0.0011,-180.0000,0.0000,0.0000
16,0.1600,0.0795,0.0613,-0.1424,0.1742,0.0000,0.0000,0.0000,20.0000,3.8044,1.9579,32.6695,26.5210,0.0018,0.000686,-0.0068,-0.0547,0.0131,0.0415,-0.0068,0.0006,-6.3863,-3.6191,-0.9941,0.0000,0.019033,-0.016262,0.028647,0.0019,-0.0007,0.0009,-180.0000,0.0000,0.0000
17,0.1700,0.0796,0.0318,-0.1529,0.1753,0.0000,0.0000,0.0000,20.0000,3.7545,2.0581,47.9827,27.2804,0.0021,0.000832,-0.0068,-0.0547,0.0131,0.0415,-0.0068,0.0006,-6.3863,-3.6191,-0.9941,0.0000,0.018237,-0.011939,0.030570,0.0017,-0.0011,0.0015,-180.0000,0.0000,0.0000
18,0.1800,0.0874,0.0054,-0.1670,0.1886,0.0000,0.0000,0.0000,20.0000,3.8458,2.1539,56.1085,28.6426,0.0024,0.000771,-0.0068,-0.0547,0.0131,0.0415,-0.0068,0.0006,-6.3863,-3.6191,-0.9941,0.0000,0.018542,-0.006882,0.032983,0.0035,0.0000,0.0020,-180.0000,0.0000,0.0000
19,0.1900,0.0890,-0.0210,-0.1812,0.2030,0.0000,0.0000,0.0000,20.0000,4.0367,2.2523,60.8170,30.2830,0.0028,0.000710,-0.0068,-0.0547,0.0131,0.0415,-0.0068,0.0006,-6.3863,-3.6191,-0.9941,0.0000,0.018831,-0.001438,0.035677,0.0027,0.0020,0.0024,-180.0000,0.0000,0.0000
20,0.2000,0.0841,-0.0389,-0.1938,0.2148,0.0000,0.0000,0.0000,20.0000,4.2700,2.3568,55.1068,31.8055,0.0033,0.000749,-0.0068,-0.0547,0.0131,0.0415,-0.0068,0.0006,-6.3863,-3.6191,-0.9941,0.0000,0.018466,0.003365,0.038354,0.0038,0.0030,0.0035,-180.0000,0.0000,0.0000
21,0.2100,0.0756,-0.0428,-0.2035,0.2212,0.0000,0.0000,0.0000,20.0000,4.4732,2.4677,40.0370,32.6728,0.0038,0.000732,-0.0068,-0.0547,0.0131,0.0415,-0.0068,0.0006,-6.3863,-3.6191,-0.9941,0.0000,0.017371,0.006403,0.040721,0.0027,0.0024,0.0029,-180.0000,0.0000,0.0000
22,0.2200,0.0620,-0.0423,-0.2080,0.2211,0.0000,0.0000,0.0000,20.0000,4.5811,2.5809,30.6936,32.8209,0.0043,0.000728,-0.0068,-0.0547,0.0131,0.0415,-0.0068,0.0006,-6.3863,-3.6191,-0.9941,0.0000,0.015375,0.008019,0.042402,0.0018,0.0020,0.0026,-180.0000,0.0000,0.0000
23,0.2300,0.0517,-0.0290,-0.2073,0.2156,0.0000,0.0000,0.0000,20.0000,4.5780,2.6909,23.4186,32.5038,0.0049,0.000786,-0.0068,-0.0547,0.0131,0.0415,-0.0068,0.0006,-6.3863,-3.6191,-0.9941,0.0000,0.013211,0.007568,0.043174,0.0015,0.0009,0.0022,-180.0000,0.0000,0.0000
24,0.2400,0.0467,-0.0151,-0.2008,0.2067,0.0000,0.0000,0.0000,20.0000,4.4773,2.7919,24.0651,32.0218,0.0055,0.000743,-0.0068,-0.0547,0.0131,0.0415,-0.0068,0.0006,-6.3863,-3.6191,-0.9941,0.0000,0.011488,0.005916,0.042868,-0.0004,0.0003,0.0008,-180.0000,0.0000,0.0000
25,0.2500,0.0421,-0.0071,-0.1885,0.1932,0.0000,0.0000,0.0000,20.0000,4.2787,2.8792,26.9395,31.6632,0.0061,0.000784,-0.0068,-0.0547,0.0131,0.0415,-0.0068,0.0006,-6.3863,-3.6191,-0.9941,0.0000,0.010058,0.004187,0.041376,-0.0001,0.0004,0.0014,-180.0000,0.0000,0.0000
26,0.2600,0.0341,0.0050,-0.1745,0.1779,0.0000,0.0000,0.0000,20.0000,4.0026,2.9486,35.5612,31.6405,0.0067,0.000738,-0.0068,-0.0547,0.0131,0.0415,-0.0068,0.0006,-6.3863,-3.6191,-0.9941,0.0000,0.008440,0.002013,0.039075,-0.0003,0.0011,0.0003,-180.0000,0.0000,0.0000
27,0.2700,0.0214,0.0151,-0.1584,0.1606,0.0000,0.0000,0.0000,20.0000,3.6655,2.9973,42.9008,32.0580,0.0073,0.000700,-0.0068,-0.0547,0.0131,0.0415,-0.0068,0.0006,-6.3863,-3.6191,-0.9941,0.0000,0.006258,-0.000200,0.036117,-0.0005,0.0023,-0.0019,-180.0000,0.0000,0.0000
28,0.2800,0.0077,0.0225,-0.1357,0.1378,0.0000,0.0000,0.0000,20.0000,3.2416,3.0224,51.3918,32.8880,0.0079,0.000673,-0.0068,-0.0547,0.0131,0.0415,-0.0068,0.0006,-6.3863,-3.6191,-0.9941,0.0000,0.003673,-0.002167,0.032135,-0.0001,0.0026,-0.0032,-180.0000,0.0000,0.0000
29,0.2900,-0.0117,0.0363,-0.1130,0.1193,0.0000,0.0000,0.0000,20.0000,2.7991,3.0223,61.6432,34.1878,0.0084,0.000743,-0.0068,-0.0547,0.0131,0.0415,-0.0068,0.0006,-6.3863,-3.6191,-0.9941,0.0000,0.000296,-0.004631,0.027604,0.0007,0.0028,-0.0038,-180.0000,0.0000,0.0000
30,0.3000,-0.0374,0.0520,-0.0991,0.1180,0.0000,0.0000,0.0000,20.0000,2.5171,3.0022,66.2140,35.8238,0.0088,0.000661,-0.0068,-0.0547,0.0131,0.0415,-0.0068,0.0006,-6.3863,-3.6191,-0.9941,0.0000,-0.004143,-0.007550,0.023652,0.0011,0.0033,-0.0058,-180.0000,0.0000,0.0000
31,0.3100,-0.0567,0.0612,-0.0925,0.1246,0.0000,0.0000,0.0000,20.0000,2.4593,2.9740,58.1899,37.2748,0.0091,0.000787,-0.0068,-0.0547,0.0131,0.0415,-0.0068,0.0006,-6.3863,-3.6191,-0.9941,0.0000,-0.008516,-0.010072,0.020757,0.0024,0.0042,-0.0057,-180.0000,0.0000,0.0000
32,0.3200,-0.0652,0.0641,-0.0885,0.1273,0.0000,0.0000,0.0000,20.0000,2.5029,2.9468,41.8316,37.9754,0.0095,0.000729,-0.0068,-0.0547,0.0131,0.0415,-0.0068,0.0006,-6.3863,-3.6191,-0.9941,0.0000,-0.011767,-0.011734,0.018716,0.0020,0.0033,-0.0047,-180.0000,0.0000,0.0000
33,0.3300,-0.0662,0.0588,-0.0889,0.1254,0.0000,0.0000,0.0000,20.0000,2.5330,2.9233,22.1385,37.6459,0.0098,0.000789,-0.0068,-0.0547,0.0131,0.0415,-0.0068,0.0006,-6.3863,-3.6191,-0.9941,0.0000,-0.013638,-0.012093,0.017589,0.0011,0.0023,-0.0044,-180.0000,0.0000,0.0000
34,0.3400,-0.0551,0.0525,-0.0918,0.1192,0.0000,0.0000,0.0000,20.0000,2.4807,2.9003,5.9053,36.3464,0.0101,0.000740,-0.0068,-0.0547,0.0131,0.0415,-0.0068,0.0006,-6.3863,-3.6191,-0.9941,0.0000,-0.013540,-0.011642,0.017220,0.0014,0.0003,-0.0030,-180.0000,0.0000,0.0000
35,0.3500,-0.0349,0.0455,-0.0902,0.1069,0.0000,0.0000,0.0000,20.0000,2.3576,2.8739,26.3972,35.2355,0.0104,0.000754,-0.0312,-0.2622,0.0182,0.2440,-0.0312,-0.0034,-7.1744,-3.6511,-1.4612,0.0000,-0.011081,-0.010847,0.017759,0.0005,-0.0008,-0.0018,-180.0000,0.0000,0.0000
36,0.3600,-0.0131,0.0324,-0.0881,0.0947,0.0000,0.0000,0.0000,20.0000,2.1353,2.8394,39.8153,35.1184,0.0108,0.000714,-0.0312,-0.2622,0.0182,0.2440,-0.0312,-0.0034,-7.1744,-3.6511,-1.4612,0.0000,-0.007517,-0.009072,0.017808,-0.0009,-0.0013,-0.0001,-180.0000,0.0000,0.0000
37,0.3700,0.0067,0.0209,-0.0884,0.0911,0.0000,0.0000,0.0000,20.0000,1.9456,2.7954,45.0993,35.5221,0.0112,0.000711,-0.0312,-0.2622,0.0182,0.2440,-0.0312,-0.0034,-7.1744,-3.6511,-1.4612,0.0000,-0.003551,-0.006927,0.017831,-0.0007,-0.0008,0.0005,-180.0000,0.0000,0.0000
38,0.3800,0.0209,0.0151,-0.0874,0.0912,0.0000,0.0000,0.0000,20.0000,1.8447,2.7459,40.3125,35.9172,0.0115,0.000739,-0.0312,-0.2622,0.0182,0.2440,-0.0312,-0.0034,-7.1744,-3.6511,-1.4612,0.0000,0.000064,-0.005145,0.017715,0.0002,0.0002,0.0017,-180.0000,0.0000,0.0000
39,0.3900,0.0247,0.0080,-0.0852,0.0891,0.0000,0.0000,0.0000,20.0000,1.7895,2.6948,29.4810,35.8611,0.0119,0.000759,-0.0312,-0.2622,0.0182,0.2440,-0.0312,-0.0034,-7.1744,-3.6511,-1.4612,0.0000,0.002449,-0.003444,0.017389,-0.0003,0.0021,0.0009,-180.0000,0.0000,0.0000
40,0.4000,0.0236,0.0033,-0.0891,0.0922,0.0000,0.0000,0.0000,20.0000,1.8051,2.6454,18.7100,35.2139,0.0123,0.000715,-0.0312,-0.2622,0.0182,0.2440,-0.0312,-0.0034,-7.1744,-3.6511,-1.4612,0.0000,0.003650,-0.002019,0.017562,-0.0002,0.0027,0.0005,-180.0000,0.0000,0.0000
41,0.4100,0.0196,0.0006,-0.1019,0.1037,0.0000,0.0000,0.0000,20.0000,1.9326,2.6027,17.2639,34.2663,0.0127,0.000695,-0.0312,-0.2622,0.0182,0.2440,-0.0312,-0.0034,-7.1744,-3.6511,-1.4612,0.0000,0.003908,-0.000962,0.018903,0.0010,0.0027,0.0003,-180.0000,0.0000,0.0000
42,0.4200,0.0126,-0.0100,-0.1163,0.1174,0.0000,0.0000,0.0000,20.0000,2.1324,2.5714,27.6906,33.6178,0.0132,0.000760,-0.0312,-0.2622,0.0182,0.2440,-0.0312,-0.0034,-7.1744,-3.6511,-1.4612,0.0000,0.003335,0.000690,0.021050,0.0003,0.0029,0.0010,-180.0000,0.0000,0.0000
43,0.4300,0.0068,-0.0244,-0.1267,0.1292,0.0000,0.0000,0.0000,20.0000,2.3558,2.5533,33.2948,33.4459,0.0137,0.000643,-0.0312,-0.2622,0.0182,0.2440,-0.0312,-0.0034,-7.1744,-3.6511,-1.4612,0.0000,0.002431,0.003034,0.023235,-0.0011,0.0034,0.0011,-180.0000,0.0000,0.0000
44,0.4400,0.0049,-0.0356,-0.1356,0.1402,0.0000,0.0000,0.0000,20.0000,2.5922,2.5490,32.3683,33.4121,0.0143,0.000711,-0.0312,-0.2622,0.0182,0.2440,-0.0312,-0.0034,-7.1744,-3.6511,-1.4612,0.0000,0.001744,0.005444,0.025284,-0.0008,0.0028,0.0020,-180.0000,0.0000,0.0000
45,0.4500,0.0051,-0.0466,-0.1376,0.1454,0.0000,0.0000,0.0000,20.0000,2.7747,2.5564,27.7319,33.2271,0.0149,0.000762,-0.0312,-0.2622,0.0182,0.2440,-0.0312,-0.0034,-7.1744,-3.6511,-1.4612,0.0000,0.001380,0.007873,0.026570,0.0002,0.0022,0.0031,-180.0000,0.0000,0.0000
46,0.4600,0.0046,-0.0478,-0.1213,0.1305,0.0000,0.0000,0.0000,20.0000,2.7266,2.5671,17.5977,32.6461,0.0155,0.000687,-0.0312,-0.2622,0.0182,0.2440,-0.0312,-0.0034,-7.1744,-3.6511,-1.4612,0.0000,0.001120,0.009318,0.025600,-0.0010,0.0026,0.0029,-180.0000,0.0000,0.0000
47,0.4700,0.0025,-0.0417,-0.0998,0.1082,0.0000,0.0000,0.0000,20.0000,2.4762,2.5690,27.6861,32.0958,0.0160,0.000804,-0.0312,-0.2622,0.0182,0.2440,-0.0312,-0.0034,-7.1744,-3.6511,-1.4612,0.0000,0.000771,0.009489,0.022859,-0.0014,0.0031,0.0026,-180.0000,0.0000,0.0000
48,0.4800,-0.0060,-0.0445,-0.0836,0.0949,0.0000,0.0000,0.0000,20.0000,2.2004,2.5563,33.6746,32.0180,0.0165,0.000725,-0.0312,-0.2622,0.0182,0.2440,-0.0312,-0.0034,-7.1744,-3.6511,-1.4612,0.0000,-0.000273,0.009845,0.019677,-0.0013,0.0025,0.0018,-180.0000,0.0000,0.0000
49,0.4900,-0.0218,-0.0554,-0.0687,0.0909,0.0000,0.0000,0.0000,20.0000,1.9947,2.5310,41.3148,32.3192,0.0168,0.000683,-0.0312,-0.2622,0.0182,0.2440,-0.0312,-0.0034,-7.1744,-3.6511,-1.4612,0.0000,-0.002436,0.011105,0.016390,-0.0015,0.0026,0.0016,-180.0000,0.0000,0.0000
50,0.5000,-0.0335,-0.0698,-0.0574,0.0964,0.0000,0.0000,0.0000,20.0000,1.9435,2.5001,43.5456,32.8754,0.0171,0.000851,-0.0312,-0.2622,0.0182,0.2440,-0.0312,-0.0034,-7.1744,-3.6511,-1.4612,0.0000,-0.004796,0.013227,0.013408,-0.0020,0.0019,0.0014,-180.0000,0.0000,0.0000
51,0.5100,-0.0359,-0.0851,-0.0585,0.1093,0.0000,0.0000,0.0000,20.0000,2.0812,2.4733,34.5453,33.2148,0.0173,0.000702,-0.0312,-0.2622,0.0182,0.2440,-0.0312,-0.0034,-7.1744,-3.6511,-1.4612,0.0000,-0.006333,0.015897,0.011846,-0.0007,0.0015,0.0009,-180.0000,0.0000,0.0000
52,0.5200,-0.0337,-0.0867,-0.0723,0.1178,0.0000,0.0000,0.0000,20.0000,2.2516,2.4564,17.9234,32.8308,0.0176,0.000724,-0.0312,-0.2622,0.0182,0.2440,-0.0312,-0.0034,-7.1744,-3.6511,-1.4612,0.0000,-0.006950,0.017507,0.012335,0.0012,0.0006,0.0003,-180.0000,0.0000,0.0000
53,0.5300,-0.0274,-0.0671,-0.0914,0.1166,0.0000,0.0000,0.0000,20.0000,2.2870,2.4461,24.4972,32.1916,0.0179,0.000750,-0.0312,-0.2622,0.0182,0.2440,-0.0312,-0.0034,-7.1744,-3.6511,-1.4612,0.0000,-0.006640,0.016396,0.014496,0.0036,0.0009,0.0001,-180.0000,0.0000,0.0000
54,0.5400,-0.0098,-0.0357,-0.1070,0.1132,0.0000,0.0000,0.0000,20.0000,2.1857,2.4346,50.4968,32.4834,0.0183,0.000671,-0.0312,-0.2622,0.0182,0.2440,-0.0312,-0.0034,-7.1744,-3.6511,-1.4612,0.0000,-0.004697,0.012614,0.017221,0.0039,-0.0004,-0.0004,-180.0000,0.0000,0.0000
55,0.5500,0.0107,0.0004,-0.1139,0.1144,0.0000,0.0000,0.0000,20.0000,2.1566,2.4201,73.7681,34.1144,0.0189,0.000751,-0.0451,-0.5093,0.0539,0.4554,-0.0451,0.0026,-7.2125,-3.6617,-1.6672,-0.0000,-0.001498,0.006786,0.020416,0.0037,0.0005,-0.0022,-180.0000,0.0000,0.0000
56,0.5600,0.0230,0.0357,-0.1169,0.1244,0.0000,0.0000,0.0000,20.0000,2.2490,2.4081,76.7663,36.3781,0.0195,0.000809,-0.0451,-0.5093,0.0539,0.4554,-0.0451,0.0026,-7.2125,-3.6617,-1.6672,-0.0000,0.001510,0.000019,0.022440,0.0036,0.0006,-0.0038,-180.0000,0.0000,0.0000
57,0.5700,0.0297,0.0562,-0.1163,0.1325,0.0000,0.0000,0.0000,20.0000,2.4452,2.4048,63.1888,38.2264,0.0202,0.000851,-0.0451,-0.5093,0.0539,0.4554,-0.0451,0.0026,-7.2125,-3.6617,-1.6672,-0.0000,0.003834,-0.005770,0.023451,0.0022,0.0014,-0.0044,-180.0000,0.0000,0.0000
58,0.5800,0.0347,0.0536,-0.1082,0.1256,0.0000,0.0000,0.0000,20.0000,2.5362,2.4095,34.4261,38.8084,0.0209,0.000756,-0.0451,-0.5093,0.0539,0.4554,-0.0451,0.0026,-7.2125,-3.6617,-1.6672,-0.0000,0.005612,-0.008702,0.023151,0.0002,0.0010,-0.0042,-180.0000,0.0000,0.0000
59,0.5900,0.0405,0.0388,-0.0960,0.1112,0.0000,0.0000,0.0000,20.0000,2.4515,2.4141,21.1286,38.2016,0.0215,0.000773,-0.0451,-0.5093,0.0539,0.4554,-0.0451,0.0026,-7.2125,-3.6617,-1.6672,-0.0000,0.007163,-0.008821,0.021722,0.0008,0.0011,-0.0038,-180.0000,0.0000,0.0000
60,0.6000,0.0461,0.0254,-0.0886,0.1030,0.0000,0.0000,0.0000,20.0000,2.3152,2.4125,24.6812,37.3602,0.0222,0.000798,-0.0451,-0.5093,0.0539,0.4554,-0.0451,0.0026,-7.2125,-3.6617,-1.6672,-0.0000,0.008562,-0.007533,0.020148,0.0016,0.0009,-0.0028,-180.0000,0.0000,0.0000
61,0.6100,0.0527,0.0166,-0.0808,0.0979,0.0000,0.0000,0.0000,20.0000,2.1804,2.4034,27.2942,36.7346,0.0228,0.000724,-0.0451,-0.5093,0.0539,0.4554,-0.0451,0.0026,-7.2125,-3.6617,-1.6672,-0.0000,0.009978,-0.005922,0.018461,0.0014,-0.0006,-0.0019,-180.0000,0.0000,0.0000
62,0.6200,0.0570,0.0170,-0.0668,0.0894,0.0000,0.0000,0.0000,20.0000,2.0228,2.3868,27.9534,36.2334,0.0233,0.000744,-0.0451,-0.5093,0.0539,0.4554,-0.0451,0.0026,-7.2125,-3.6617,-1.6672,-0.0000,0.011173,-0.005061,0.016085,0.0025,-0.0012,-0.0012,-180.0000,0.0000,0.0000
63,0.6300,0.0588,0.0300,-0.0589,0.0885,0.0000,0.0000,0.0000,20.0000,1.9319,2.3643,24.2674,35.6766,0.0238,0.000693,-0.0451,-0.5093,0.0539,0.4554,-0.0451,0.0026,-7.2125,-3.6617,-1.6672,-0.0000,0.011997,-0.005878,0.013954,0.0021,-0.0020,-0.0018,-180.0000,0.0000,0.0000
64,0.6400,0.0553,0.0439,-0.0615,0.0937,0.0000,0.0000,0.0000,20.0000,1.9351,2.3406,20.6101,34.9484,0.0243,0.000785,-0.0451,-0.5093,0.0539,0.4554,-0.0451,0.0026,-7.2125,-3.6617,-1.6672,-0.0000,0.012080,-0.007706,0.013006,0.0011,-0.0011,-0.0027,-180.0000,0.0000,0.0000
65,0.6500,0.0410,0.0459,-0.0666,0.0907,0.0000,0.0000,0.0000,20.0000,1.9009,2.3173,18.5161,34.1021,0.0247,0.000713,-0.0451,-0.5093,0.0539,0.4554,-0.0451,0.0026,-7.2125,-3.6617,-1.6672,-0.0000,0.010668,-0.008904,0.012972,-0.0002,0.0001,-0.0021,-180.0000,0.0000,0.0000
66,0.6600,0.0132,0.0330,-0.0722,0.0805,0.0000,0.0000,0.0000,20.0000,1.7329,2.2898,36.7488,33.7462,0.0252,0.000705,-0.0451,-0.5093,0.0539,0.4554,-0.0451,0.0026,-7.2125,-3.6617,-1.6672,-0.0000,0.007087,-0.008257,0.013486,-0.0011,0.0014,-0.0021,-180.0000,0.0000,0.0000
67,0.6700,-0.0158,0.0107,-0.0757,0.0781,0.0000,0.0000,0.0000,20.0000,1.5337,2.2537,55.8362,34.4363,0.0257,0.000722,-0.0451,-0.5093,0.0539,0.4554,-0.0451,0.0026,-7.2125,-3.6617,-1.6672,-0.0000,0.002189,-0.005645,0.014091,-0.0020,0.0010,-0.0017,-180.0000,0.0000,0.0000
68,0.6800,-0.0392,-0.0119,-0.0747,0.0852,0.0000,0.0000,0.0000,20.0000,1.4708,2.2124,62.7080,35.8025,0.0261,0.000873,-0.0451,-0.5093,0.0539,0.4554,-0.0451,0.0026,-7.2125,-3.6617,-1.6672,-0.0000,-0.002863,-0.001936,0.014296,-0.0005,0.0027,-0.0007,-180.0000,0.0000,0.0000
69,0.6900,-0.0572,-0.0234,-0.0694,0.0929,0.0000,0.0000,0.0000,20.0000,1.5772,2.1745,56.1067,37.1010,0.0265,0.000734,-0.0451,-0.5093,0.0539,0.4554,-0.0451,0.0026,-7.2125,-3.6617,-1.6672,-0.0000,-0.007446,0.001269,0.013846,0.0009,0.0028,0.0015,-180.0000,0.0000,0.0000
70,0.7000,-0.0639,-0.0286,-0.0585,0.0912,0.0000,0.0000,0.0000,20.0000,1.6780,2.1444,41.5498,37.7461,0.0269,0.000728,-0.0451,-0.5093,0.0539,0.4554,-0.0451,0.0026,-7.2125,-3.6617,-1.6672,-0.0000,-0.010635,0.003557,0.012482,0.0013,0.0016,0.0018,-180.0000,0.0000,0.0000
71,0.7100,-0.0592,-0.0282,-0.0445,0.0793,0.0000,0.0000,0.0000,20.0000,1.6461,2.1179,28.0087,37.5829,0.0271,0.000652,-0.0451,-0.5093,0.0539,0.4554,-0.0451,0.0026,-7.2125,-3.6617,-1.6672,-0.0000,-0.011912,0.004776,0.010308,0.0023,0.0017,0.0015,-180.0000,0.0000,0.0000
72,0.7200,-0.0502,-0.0167,-0.0353,0.0636,0.0000,0.0000,0.0000,20.0000,1.4885,2.0876,22.1325,36.8946,0.0273,0.000704,-0.0451,-0.5093,0.0539,0.4554,-0.0451,0.0026,-7.2125,-3.6617,-1.6672,-0.0000,-0.011685,0.004293,0.008160,0.0028,0.0025,0.0006,-180.0000,0.0000,0.0000
73,0.7300,-0.0425,-0.0018,-0.0322,0.0534,0.0000,0.0000,0.0000,20.0000,1.2909,2.0492,24.9562,36.1602,0.0275,0.000726,-0.0451,-0.5093,0.0539,0.4554,-0.0451,0.0026,-7.2125,-3.6617,-1.6672,-0.0000,-0.010771,0.002529,0.006651,0.0017,0.0019,0.0002,-180.0000,0.0000,0.0000
74,0.7400,-0.0369,0.0078,-0.0360,0.0521,0.0000,0.0000,0.0000,20.0000,1.1502,2.0036,22.7359,35.4828,0.0277,0.000797,-0.0451,-0.5093,0.0539,0.4554,-0.0451,0.0026,-7.2125,-3.6617,-1.6672,-0.0000,-0.009684,0.000588,0.006179,0.0007,0.0014,0.0001,-180.0000,0.0000,0.0000
75,0.7500,-0.0245,0.0183,-0.0476,0.0565,0.0000,0.0000,0.0000,20.0000,1.1211,1.9559,33.6981,35.0832,0.0279,0.000716,-0.0407,-0.7238,0.0828,0.6409,-0.0407,-0.0004,-7.2484,-3.7175,-1.4932,0.0000,-0.007742,-0.001506,0.007967,0.0014,0.0007,-0.0017,-180.0000,-0.0000,0.0000
76,0.7600,-0.0007,0.0365,-0.0626,0.0725,0.0000,0.0000,0.0000,20.0000,1.2141,1.9125,51.9398,35.5087,0.0282,0.000800,-0.0407,-0.7238,0.0828,0.6409,-0.0407,-0.0004,-7.2484,-3.7175,-1.4932,0.0000,-0.004279,-0.004485,0.010439,0.0019,-0.0000,-0.0026,-180.0000,-0.0000,0.0000
77,0.7700,0.0227,0.0517,-0.0757,0.0944,0.0000,0.0000,0.0000,20.0000,1.5161,1.8824,59.3184,36.6155,0.0287,0.000910,-0.0407,-0.7238,0.0828,0.6409,-0.0407,-0.0004,-7.2484,-3.7175,-1.4932,0.0000,-0.000017,-0.007643,0.013094,0.0015,-0.0006,-0.0033,-180.0000,-0.0000,0.0000
78,0.7800,0.0416,0.0576,-0.0820,0.1085,0.0000,0.0000,0.0000,20.0000,1.8636,1.8718,52.6840,37.6818,0.0293,0.000827,-0.0407,-0.7238,0.0828,0.6409,-0.0407,-0.0004,-7.2484,-3.7175,-1.4932,0.0000,0.004234,-0.009962,0.015170,0.0013,-0.0003,-0.0050,-180.0000,-0.0000,0.0000
79,0.7900,0.0582,0.0591,-0.0776,0.1136,0.0000,0.0000,0.0000,20.0000,2.1167,1.8783,42.9204,38.2385,0.0299,0.000732,-0.0407,-0.7238,0.0828,0.6409,-0.0407,-0.0004,-7.2484,-3.7175,-1.4932,0.0000,0.008231,-0.011374,0.015840,0.0003,0.0008,-0.0063,-180.0000,-0.0000,0.0000
80,0.8000,0.0642,0.0600,-0.0655,0.1096,0.0000,0.0000,0.0000,20.0000,2.2252,1.8944,30.4713,38.1537,0.0305,0.000860,-0.0407,-0.7238,0.0828,0.6409,-0.0407,-0.0004,-7.2484,-3.7175,-1.4932,0.0000,0.011028,-0.012220,0.014974,0.0007,0.0004,-0.0052,-180.0000,-0.0000,0.0000
81,0.8100,0.0565,0.0603,-0.0585,0.1013,0.0000,0.0000,0.0000,20.0000,2.2123,1.9123,15.0134,37.3059,0.0311,0.000654,-0.0407,-0.7238,0.0828,0.6409,-0.0407,-0.0004,-7.2484,-3.7175,-1.4932,0.0000,0.011781,-0.012695,0.013766,0.0015,0.0008,-0.0049,-180.0000,-0.0000,0.0000
82,0.8200,0.0519,0.0655,-0.0623,0.1042,0.0000,0.0000,0.0000,20.0000,2.2335,1.9293,8.1877,35.8919,0.0316,0.000709,-0.0407,-0.7238,0.0828,0.6409,-0.0407,-0.0004,-7.2484,-3.7175,-1.4932,0.0000,0.011712,-0.013446,0.013449,0.0012,-0.0009,-0.0024,-180.0000,-0.0000,0.0000
83,0.8300,0.0609,0.0726,-0.0811,0.1247,0.0000,0.0000,0.0000,20.0000,2.4452,1.9519,21.7479,34.7409,0.0323,0.000688,-0.0407,-0.7238,0.0828,0.6409,-0.0407,-0.0004,-7.2484,-3.7175,-1.4932,0.0000,0.012547,-0.014547,0.015128,0.0017,-0.0025,-0.0014,-180.0000,-0.0000,0.0000
84,0.8400,0.0774,0.0823,-0.1154,0.1615,0.0000,0.0000,0.0000,20.0000,2.9186,1.9921,50.4652,34.8161,0.0331,0.000783,-0.0407,-0.7238,0.0828,0.6409,-0.0407,-0.0004,-7.2484,-3.7175,-1.4932,0.0000,0.014634,-0.016101,0.019453,0.0028,-0.0023,-0.0007,-180.0000,-0.0000,0.0000
85,0.8500,0.0901,0.0884,-0.1536,0.1988,0.0000,0.0000,0.0000,20.0000,3.5415,2.0601,67.7401,36.1520,0.0342,0.000771,-0.0407,-0.7238,0.0828,0.6409,-0.0407,-0.0004,-7.2484,-3.7175,-1.4932,0.0000,0.017031,-0.017539,0.025623,0.0018,-0.0007,0.0000,-180.0000,-0.0000,0.0000
86,0.8600,0.0981,0.0764,-0.1806,0.2193,0.0000,0.0000,0.0000,20.0000,4.0767,2.1564,64.3153,37.7954,0.0356,0.000745,-0.0407,-0.7238,0.0828,0.6409,-0.0407,-0.0004,-7.2484,-3.7175,-1.4932,0.0000,0.019121,-0.017093,0.031689,0.0006,-0.0008,0.0014,-180.0000,-0.0000,0.0000
87,0.8700,0.0935,0.0537,-0.1913,0.2196,0.0000,0.0000,0.0000,20.0000,4.3614,2.2698,50.9130,38.8856,0.0371,0.000672,-0.0407,-0.7238,0.0828,0.6409,-0.0407,-0.0004,-7.2484,-3.7175,-1.4932,0.0000,0.019784,-0.014543,0.036046,0.0006,0.0016,0.0002,-180.0000,-0.0000,0.0000
88,0.8800,0.0744,0.0360,-0.1876,0.2050,0.0000,0.0000,0.0000,20.0000,4.3645,2.3850,40.8687,39.2709,0.0388,0.000736,-0.0407,-0.7238,0.0828,0.6409,-0.0407,-0.0004,-7.2484,-3.7175,-1.4932,0.0000,0.018196,-0.011335,0.038017,0.0008,0.0025,0.0003,-180.0000,-0.0000,0.0000
89,0.8900,0.0520,0.0191,-0.1743,0.1829,0.0000,0.0000,0.0000,20.0000,4.1342,2.4875,47.1344,39.5312,0.0404,0.000740,-0.0407,-0.7238,0.0828,0.6409,-0.0407,-0.0004,-7.2484,-3.7175,-1.4932,0.0000,0.015038,-0.007850,0.037701,0.0008,0.0023,0.0020,-180.0000,-0.0000,0.0000
90,0.9000,0.0292,-0.0016,-0.1581,0.1608,0.0000,0.0000,0.0000,20.0000,3.7668,2.5680,59.9937,40.3031,0.0419,0.000680,-0.0407,-0.7238,0.0828,0.6409,-0.0407,-0.0004,-7.2484,-3.7175,-1.4932,0.0000,0.010991,-0.003838,0.035824,-0.0004,0.0010,0.0025,-180.0000,-0.0000,0.0000
91,0.9100,0.0160,-0.0086,-0.1420,0.1432,0.0000,0.0000,0.0000,20.0000,3.3943,2.6237,53.5933,41.2102,0.0433,0.000648,-0.0407,-0.7238,0.0828,0.6409,-0.0407,-0.0004,-7.2484,-3.7175,-1.4932,0.0000,0.007413,-0.000913,0.033111,0.0002,-0.0007,0.0026,-180.0000,-0.0000,0.0000
92,0.9200,0.0231,-0.0066,-0.1304,0.1326,0.0000,0.0000,0.0000,20.0000,3.0998,2.6580,33.3558,41.3348,0.0446,0.000777,-0.0407,-0.7238,0.0828,0.6409,-0.0407,-0.0004,-7.2484,-3.7175,-1.4932,0.0000,0.006122,0.000508,0.030383,-0.0000,-0.0030,0.0040,-180.0000,-0.0000,0.0000
93,0.9300,0.0320,-0.0120,-0.1254,0.1300,0.0000,0.0000,0.0000,20.0000,2.9061,2.6770,24.6549,40.6565,0.0458,0.000752,-0.0407,-0.7238,0.0828,0.6409,-0.0407,-0.0004,-7.2484,-3.7175,-1.4932,0.0000,0.006290,0.001836,0.028313,-0.0004,-0.0021,0.0034,-180.0000,-0.0000,0.0000
94,0.9400,0.0321,-0.0170,-0.1235,0.1287,0.0000,0.0000,0.0000,20.0000,2.8541,2.6881,11.9231,39.4261,0.0470,0.000858,-0.0792,-0.8881,0.0952,0.7929,-0.0792,-0.0071,-8.0525,-3.7469,-1.6296,0.0000,0.006558,0.002781,0.027637,-0.0007,-0.0018,0.0010,-180.0000,0.0000,0.0000
95,0.9500,0.0386,-0.0083,-0.1230,0.1292,0.0000,0.0000,0.0000,20.0000,2.8242,2.6964,9.7961,37.8548,0.0482,0.000733,-0.0792,-0.8881,0.0952,0.7929,-0.0792,-0.0071,-8.0525,-3.7469,-1.6296,0.0000,0.007342,0.002434,0.027163,0.0003,-0.0013,0.0008,-180.0000,0.0000,0.0000
96,0.9600,0.0448,0.0029,-0.1246,0.1325,0.0000,0.0000,0.0000,20.0000,2.8300,2.7036,16.8047,36.5041,0.0494,0.001187,-0.0792,-0.8881,0.0952,0.7929,-0.0792,-0.0071,-8.0525,-3.7469,-1.6296,0.0000,0.008376,0.001118,0.027009,-0.0001,-0.0000,0.0005,-180.0000,0.0000,0.0000
97,0.9700,0.0355,0.0116,-0.1267,0.1321,0.0000,0.0000,0.0000,20.0000,2.8239,2.7104,16.4739,35.4113,0.0506,0.001078,-0.0792,-0.8881,0.0952,0.7929,-0.0792,-0.0071,-8.0525,-3.7469,-1.6296,0.0000,0.008007,-0.000486,0.027076,-0.0004,0.0019,-0.0006,-180.0000,0.0000,0.0000
98,0.9800,0.0248,0.0263,-0.1290,0.1340,0.0000,0.0000,0.0000,20.0000,2.8246,2.7167,26.9450,34.6576,0.0519,0.000775,-0.0792,-0.8881,0.0952,0.7929,-0.0792,-0.0071,-8.0525,-3.7469,-1.6296,0.0000,0.006710,-0.002838,0.027291,-0.0009,0.0018,-0.0003,-180.0000,0.0000,0.0000
99,0.9900,0.0254,0.0421,-0.1304,0.1394,0.0000,0.0000,0.0000,20.0000,2.8725,2.7239,29.5857,34.3060,0.0532,0.000713,-0.0792,-0.8881,0.0952,0.7929,-0.0792,-0.0071,-8.0525,-3.7469,-1.6296,0.0000,0.006046,-0.005714,0.027494,-0.0009,0.0014,0.0002,-180.0000,0.0000,0.0000
100,1.0000,0.0282,0.0456,-0.1298,0.1405,0.0000,0.0000,0.0000,20.0000,2.9149,2.7333,19.3363,33.7645,0.0546,0.000788,-0.0792,-0.8881,0.0952,0.7929,-0.0792,-0.0071,-8.0525,-3.7469,-1.6296,0.0000,0.005945,-0.007645,0.027493,-0.0021,0.0016,-0.0013,-180.0000,0.0000,0.0000
101,1.0100,0.0300,0.0357,-0.1333,0.1412,0.0000,0.0000,0.0000,20.0000,2.9464,2.7441,3.2017,32.5270,0.0559,0.000771,-0.0792,-0.8881,0.0952,0.7929,-0.0792,-0.0071,-8.0525,-3.7469,-1.6296,0.0000,0.006062,-0.007710,0.027784,-0.0017,0.0013,-0.0021,-180.0000,0.0000,0.0000
102,1.0200,0.0343,0.0342,-0.1428,0.1508,0.0000,0.0000,0.0000,20.0000,3.0529,2.7582,11.6746,31.1469,0.0574,0.003254,-0.0792,-0.8881,0.0952,0.7929,-0.0792,-0.0071,-8.0525,-3.7469,-1.6296,0.0000,0.006535,-0.007579,0.028843,-0.0003,0.0008,-0.0039,-180.0000,0.0000,0.0000
103,1.0300,0.0392,0.0437,-0.1547,0.1655,0.0000,0.0000,0.0000,20.0000,3.2530,2.7799,20.6158,30.3217,0.0589,0.000742,-0.0792,-0.8881,0.0952,0.7929,-0.0792,-0.0071,-8.0525,-3.7469,-1.6296,0.0000,0.007276,-0.008443,0.030561,0.0003,0.0007,-0.0047,-180.0000,0.0000,0.0000
104,1.0400,0.0404,0.0500,-0.1690,0.1808,0.0000,0.0000,0.0000,20.0000,3.5108,2.8130,26.1194,29.9392,0.0606,0.000741,-0.0792,-0.8881,0.0952,0.7929,-0.0792,-0.0071,-8.0525,-3.7469,-1.6296,0.0000,0.007797,-0.009532,0.032878,-0.0000,0.0006,-0.0035,-180.0000,0.0000,0.0000
105,1.0500,0.0391,0.0601,-0.1830,0.1966,0.0000,0.0000,0.0000,20.0000,3.8034,2.8594,30.6636,29.8540,0.0625,0.000729,-0.0792,-0.8881,0.0952,0.7929,-0.0792,-0.0071,-8.0525,-3.7469,-1.6296,0.0000,0.007936,-0.011126,0.035493,0.0012,0.0009,-0.0028,-180.0000,0.0000,0.0000
106,1.0600,0.0355,0.0816,-0.1910,0.2107,0.0000,0.0000,0.0000,20.0000,4.0950,2.9194,37.1919,30.0781,0.0645,0.000792,-0.0792,-0.8881,0.0952,0.7929,-0.0792,-0.0071,-8.0525,-3.7469,-1.6296,0.0000,0.007638,-0.014127,0.037670,0.0011,0.0020,-0.0032,-180.0000,0.0000,0.0000
107,1.0700,0.0336,0.0931,-0.1891,0.2135,0.0000,0.0000,0.0000,20.0000,4.2772,2.9891,29.6488,30.2620,0.0667,0.000725,-0.0792,-0.8881,0.0952,0.7929,-0.0792,-0.0071,-8.0525,-3.7469,-1.6296,0.0000,0.007269,-0.016916,0.038606,0.0002,0.0015,-0.0011,-180.0000,0.0000,0.0000
108,1.0800,0.0333,0.0819,-0.1746,0.1958,0.0000,0.0000,0.0000,20.0000,4.1979,3.0577,11.0861,29.7177,0.0688,0.000759,-0.0792,-0.8881,0.0952,0.7929,-0.0792,-0.0071,-8.0525,-3.7469,-1.6296,0.0000,0.007015,-0.017302,0.037598,-0.0004,0.0015,-0.0001,-180.0000,0.0000,0.0000
109,1.0900,0.0297,0.0631,-0.1502,0.1656,0.0000,0.0000,0.0000,20.0000,3.8432,3.1107,35.5822,29.3666,0.0707,0.000830,-0.0792,-0.8881,0.0952,0.7929,-0.0792,-0.0071,-8.0525,-3.7469,-1.6296,0.0000,0.006505,-0.015596,0.034517,-0.0009,0.0021,-0.0002,-180.0000,0.0000,0.0000
110,1.1000,0.0231,0.0452,-0.1227,0.1328,0.0000,0.0000,0.0000,20.0000,3.3096,3.1363,53.8338,30.2105,0.0725,0.000808,-0.0792,-0.8881,0.0952,0.7929,-0.0792,-0.0071,-8.0525,-3.7469,-1.6296,0.0000,0.005549,-0.012833,0.029997,-0.0013,0.0028,-0.0006,-180.0000,0.0000,0.0000
111,1.1100,0.0171,0.0243,-0.1008,0.1051,0.0000,0.0000,0.0000,20.0000,2.7229,3.1297,60.9145,31.7047,0.0739,0.000750,-0.0792,-0.8881,0.0952,0.7929,-0.0792,-0.0071,-8.0525,-3.7469,-1.6296,0.0000,0.004412,-0.009194,0.025247,-0.0016,0.0019,0.0003,-180.0000,0.0000,0.0000
112,1.1200,0.0101,0.0087,-0.0910,0.0919,0.0000,0.0000,0.0000,20.0000,2.2515,3.0944,52.9872,33.0934,0.0751,0.000791,-0.0792,-0.8881,0.0952,0.7929,-0.0792,-0.0071,-8.0525,-3.7469,-1.6296,0.0000,0.003072,-0.005601,0.021590,-0.0002,0.0029,0.0002,-180.0000,0.0000,0.0000
113,1.1300,-0.0024,0.0104,-0.0947,0.0953,0.0000,0.0000,0.0000,20.0000,2.0281,3.0419,31.8781,33.6072,0.0762,0.000708,-0.0792,-0.8881,0.0952,0.7929,-0.0792,-0.0071,-8.0525,-3.7469,-1.6296,0.0000,0.001079,-0.003777,0.019897,0.0008,0.0027,0.0001,-180.0000,0.0000,0.0000
114,1.1400,-0.0119,0.0259,-0.1042,0.1081,0.0000,0.0000,0.0000,20.0000,2.1451,2.9893,21.9037,33.2377,0.0774,0.000685,-0.1094,-1.1325,0.1105,1.0220,-0.1094,-0.0002,-7.5166,-3.7791,-1.5673,0.0000,-0.000684,-0.004530,0.020956,0.0019,0.0022,-0.0004,-180.0000,-0.0000,0.0000
115,1.1500,-0.0164,0.0390,-0.1122,0.1199,0.0000,0.0000,0.0000,20.0000,2.3251,2.9478,25.9856,32.7265,0.0786,0.000808,-0.1094,-1.1325,0.1105,1.0220,-0.1094,-0.0002,-7.5166,-3.7791,-1.5673,0.0000,-0.002105,-0.006242,0.022299,0.0017,0.0013,-0.0013,-180.0000,-0.0000,0.0000
116,1.1600,-0.0202,0.0431,-0.1196,0.1287,0.0000,0.0000,0.0000,20.0000,2.5125,2.9187,22.8017,32.2681,0.0800,0.000750,-0.1094,-1.1325,0.1105,1.0220,-0.1094,-0.0002,-7.5166,-3.7791,-1.5673,0.0000,-0.003265,-0.007587,0.023729,0.0006,0.0014,-0.0017,-180.0000,-0.0000,0.0000
117,1.1700,-0.0198,0.0420,-0.1273,0.1355,0.0000,0.0000,0.0000,20.0000,2.6829,2.9011,17.4749,31.6009,0.0814,0.000739,-0.1094,-1.1325,0.1105,1.0220,-0.1094,-0.0002,-7.5166,-3.7791,-1.5673,0.0000,-0.003865,-0.008207,0.025248,-0.0006,0.0006,-0.0017,-180.0000,-0.0000,0.0000
118,1.1800,-0.0089,0.0368,-0.1354,0.1406,0.0000,0.0000,0.0000,20.0000,2.8187,2.8928,17.8202,30.8334,0.0829,0.000762,-0.1094,-1.1325,0.1105,1.0220,-0.1094,-0.0002,-7.5166,-3.7791,-1.5673,0.0000,-0.003099,-0.008013,0.026846,-0.0005,0.0006,-0.0021,-180.0000,-0.0000,0.0000
119,1.1900,0.0021,0.0284,-0.1467,0.1495,0.0000,0.0000,0.0000,20.0000,2.9700,2.8929,26.6947,30.3616,0.0846,0.000656,-0.1094,-1.1325,0.1105,1.0220,-0.1094,-0.0002,-7.5166,-3.7791,-1.5673,0.0000,-0.001571,-0.007046,0.028809,-0.0011,0.0011,-0.0029,-180.0000,-0.0000,0.0000
120,1.2000,0.0076,0.0186,-0.1624,0.1637,0.0000,0.0000,0.0000,20.0000,3.1886,2.9031,33.2005,30.3388,0.0865,0.000717,-0.1094,-1.1325,0.1105,1.0220,-0.1094,-0.0002,-7.5166,-3.7791,-1.5673,0.0000,-0.000173,-0.005518,0.031405,-0.0021,0.0003,-0.0020,-180.0000,-0.0000,0.0000
121,1.2100,0.0139,0.0148,-0.1726,0.1738,0.0000,0.0000,0.0000,20.0000,3.4089,2.9249,30.3439,30.4177,0.0885,0.000711,-0.1094,-1.1325,0.1105,1.0220,-0.1094,-0.0002,-7.5166,-3.7791,-1.5673,0.0000,0.001228,-0.004283,0.033796,-0.0007,0.0003,-0.0016,-180.0000,-0.0000,0.0000
122,1.2200,0.0240,0.0136,-0.1767,0.1789,0.0000,0.0000,0.0000,20.0000,3.5757,2.9561,25.7309,30.2867,0.0906,0.000809,-0.1094,-1.1325,0.1105,1.0220,-0.1094,-0.0002,-7.5166,-3.7791,-1.5673,0.0000,0.003018,-0.003478,0.035460,-0.0001,-0.0000,-0.0006,-180.0000,-0.0000,0.0000
123,1.2300,0.0349,0.0105,-0.1821,0.1857,0.0000,0.0000,0.0000,20.0000,3.7295,2.9944,26.0352,30.0445,0.0928,0.000726,-0.1094,-1.1325,0.1105,1.0220,-0.1094,-0.0002,-7.5166,-3.7791,-1.5673,0.0000,0.005084,-0.002712,0.036847,0.0008,0.0003,0.0004,-180.0000,-0.0000,0.0000
124,1.2400,0.0446,0.0121,-0.1896,0.1952,0.0000,0.0000,0.0000,20.0000,3.9038,3.0397,25.6914,29.8145,0.0952,0.000799,-0.1094,-1.1325,0.1105,1.0220,-0.1094,-0.0002,-7.5166,-3.7791,-1.5673,0.0000,0.007191,-0.002446,0.038292,0.0019,0.0001,0.0015,-180.0000,-0.0000,0.0000
125,1.2500,0.0539,0.0173,-0.1989,0.2068,0.0000,0.0000,0.0000,20.0000,4.1097,3.0928,26.7823,29.6177,0.0977,0.000906,-0.1094,-1.1325,0.1105,1.0220,-0.1094,-0.0002,-7.5166,-3.7791,-1.5673,0.0000,0.009271,-0.002809,0.039939,0.0034,0.0012,0.0019,-180.0000,-0.0000,0.0000
126,1.2600,0.0552,0.0150,-0.2055,0.2133,0.0000,0.0000,0.0000,20.0000,4.2839,3.1536,19.5509,29.2628,0.1004,0.000725,-0.1094,-1.1325,0.1105,1.0220,-0.1094,-0.0002,-7.5166,-3.7791,-1.5673,0.0000,0.010536,-0.002778,0.041430,0.0039,0.0015,0.0023,-180.0000,-0.0000,0.0000
127,1.2700,0.0435,0.0071,-0.2008,0.2055,0.0000,0.0000,0.0000,20.0000,4.2938,3.2160,9.9368,28.4642,0.1031,0.000768,-0.1094,-1.1325,0.1105,1.0220,-0.1094,-0.0002,-7.5166,-3.7791,-1.5673,0.0000,0.010039,-0.001962,0.041702,0.0039,0.0023,0.0018,-180.0000,-0.0000,0.0000
128,1.2800,0.0259,0.0037,-0.1832,0.1851,0.0000,0.0000,0.0000,20.0000,4.0817,3.2695,27.7422,27.9347,0.1057,0.000740,-0.1094,-1.1325,0.1105,1.0220,-0.1094,-0.0002,-7.5166,-3.7791,-1.5673,0.0000,0.007988,-0.001166,0.040011,0.0026,0.0020,0.0016,-180.0000,-0.0000,0.0000
129,1.2900,0.0076,-0.0012,-0.1575,0.1577,0.0000,0.0000,0.0000,20.0000,3.6774,3.3030,47.5123,28.4679,0.1081,0.000674,-0.1094,-1.1325,0.1105,1.0220,-0.1094,-0.0002,-7.5166,-3.7791,-1.5673,0.0000,0.005005,-0.000240,0.036431,0.0017,0.0016,0.0019,-180.0000,-0.0000,0.0000
130,1.3000,-0.0093,-0.0010,-0.1322,0.1325,0.0000,0.0000,0.0000,20.0000,3.1885,3.3102,57.0512,29.7779,0.1102,0.000775,-0.1094,-1.1325,0.1105,1.0220,-0.1094,-0.0002,-7.5166,-3.7791,-1.5673,0.0000,0.001653,0.000253,0.031841,0.0014,0.0016,0.0006,-180.0000,-0.0000,0.0000
131,1.3100,-0.0149,0.0115,-0.1185,0.1200,0.0000,0.0000,0.0000,20.0000,2.7898,3.2925,47.4073,31.0129,0.1120,0.000725,-0.1094,-1.1325,0.1105,1.0220,-0.1094,-0.0002,-7.5166,-3.7791,-1.5673,0.0000,-0.000757,-0.000727,0.027878,0.0012,0.0022,-0.0006,-180.0000,-0.0000,0.0000
132,1.3200,-0.0110,0.0259,-0.1202,0.1234,0.0000,0.0000,0.0000,20.0000,2.5992,3.2596,30.2158,31.4419,0.1137,0.000691,-0.1094,-1.1325,0.1105,1.0220,-0.1094,-0.0002,-7.5166,-3.7791,-1.5673,0.0000,-0.001706,-0.002700,0.025795,0.0009,0.0027,-0.0012,-180.0000,-0.0000,0.0000
133,1.3300,-0.0084,0.0339,-0.1318,0.1363,0.0000,0.0000,0.0000,20.0000,2.6233,3.2240,19.0530,31.0674,0.1154,0.000719,-0.1094,-1.1325,0.1105,1.0220,-0.1094,-0.0002,-7.5166,-3.7791,-1.5673,0.0000,-0.001958,-0.004588,0.025754,0.0016,0.0030,-0.0013,-180.0000,-0.0000,0.0000
134,1.3400,-0.0110,0.0315,-0.1443,0.1481,0.0000,0.0000,0.0000,20.0000,2.8765,3.1979,25.9971,30.5975,0.1173,0.001018,-0.1439,-1.4139,0.1454,1.2685,-0.1439,0.0012,-7.4135,-3.8285,-1.6741,0.0000,-0.002227,-0.005630,0.028121,0.0018,0.0043,-0.0017,-180.0000,-0.0000,0.0000
135,1.3500,-0.0150,0.0228,-0.1449,0.1474,0.0000,0.0000,0.0000,20.0000,3.0035,3.1837,14.4812,30.0277,0.1193,0.000824,-0.1439,-1.4139,0.1454,1.2685,-0.1439,0.0012,-7.4135,-3.8285,-1.6741,0.0000,-0.002773,-0.005329,0.029428,0.0018,0.0045,-0.0016,-180.0000,-0.0000,0.0000
136,1.3600,-0.0110,0.0212,-0.1302,0.1323,0.0000,0.0000,0.0000,20.0000,2.9175,3.1714,8.8040,29.0164,0.1213,0.000780,-0.1439,-1.4139,0.1454,1.2685,-0.1439,0.0012,-7.4135,-3.8285,-1.6741,0.0000,-0.002670,-0.004993,0.028621,0.0011,0.0027,-0.0007,-180.0000,-0.0000,0.0000
137,1.3700,0.0026,0.0270,-0.1035,0.1070,0.0000,0.0000,0.0000,20.0000,2.6038,3.1488,34.9686,28.6242,0.1230,0.000827,-0.1439,-1.4139,0.1454,1.2685,-0.1439,0.0012,-7.4135,-3.8285,-1.6741,0.0000,-0.001249,-0.005371,0.025448,0.0011,0.0017,-0.0005,-180.0000,-0.0000,0.0000
138,1.3800,0.0200,0.0300,-0.0668,0.0759,0.0000,0.0000,0.0000,20.0000,2.0862,3.1046,60.4889,29.6751,0.1245,0.000680,-0.1439,-1.4139,0.1454,1.2685,-0.1439,0.0012,-7.4135,-3.8285,-1.6741,0.0000,0.001281,-0.005876,0.019977,0.0001,0.0012,-0.0007,-180.0000,-0.0000,0.0000
139,1.3900,0.0429,0.0379,-0.0296,0.0644,0.0000,0.0000,0.0000,20.0000,1.5708,3.0344,77.8694,31.8481,0.1255,0.000749,-0.1439,-1.4139,0.1454,1.2685,-0.1439,0.0012,-7.4135,-3.8285,-1.6741,0.0000,0.004962,-0.006927,0.013196,0.0003,-0.0003,-0.0017,-180.0000,-0.0000,0.0000
140,1.4000,0.0746,0.0513,-0.0050,0.0907,0.0000,0.0000,0.0000,20.0000,1.5156,2.9524,83.4533,34.5332,0.1262,0.000687,-0.1439,-1.4139,0.1454,1.2685,-0.1439,0.0012,-7.4135,-3.8285,-1.6741,0.0000,0.010163,-0.008835,0.006955,0.0008,-0.0013,-0.0015,-180.0000,-0.0000,0.0000
141,1.4100,0.1055,0.0600,0.0056,0.1215,0.0000,0.0000,0.0000,20.0000,1.9509,2.8853,77.0346,37.0477,0.1267,0.000738,-0.1439,-1.4139,0.1454,1.2685,-0.1439,0.0012,-7.4135,-3.8285,-1.6741,0.0000,0.016100,-0.010747,0.002433,0.0019,-0.0009,-0.0012,-180.0000,-0.0000,0.0000
142,1.4200,0.1231,0.0684,0.0099,0.1412,0.0000,0.0000,0.0000,20.0000,2.4607,2.8480,61.0594,38.8079,0.1271,0.000704,-0.1439,-1.4139,0.1454,1.2685,-0.1439,0.0012,-7.4135,-3.8285,-1.6741,0.0000,0.021117,-0.012622,-0.000498,0.0022,-0.0005,-0.0014,-180.0000,-0.0000,0.0000
143,1.4300,0.1297,0.0820,0.0184,0.1546,0.0000,0.0000,0.0000,20.0000,2.8885,2.8384,48.2048,39.6784,0.1274,0.000755,-0.1439,-1.4139,0.1454,1.2685,-0.1439,0.0012,-7.4135,-3.8285,-1.6741,0.0000,0.024509,-0.014996,-0.002967,0.0037,-0.0007,-0.0025,-180.0000,-0.0000,0.0000
144,1.4400,0.1297,0.0943,0.0332,0.1637,0.0000,0.0000,0.0000,20.0000,3.2146,2.8501,42.0577,39.9783,0.1275,0.000781,-0.1439,-1.4139,0.1454,1.2685,-0.1439,0.0012,-7.4135,-3.8285,-1.6741,0.0000,0.026330,-0.017500,-0.005813,0.0048,-0.0008,-0.0016,-180.0000,-0.0000,0.0000
145,1.4500,0.1126,0.0990,0.0508,0.1583,0.0000,0.0000,0.0000,20.0000,3.3329,2.8734,38.5867,39.9972,0.1275,0.000734,-0.1439,-1.4139,0.1454,1.2685,-0.1439,0.0012,-7.4135,-3.8285,-1.6741,0.0000,0.025575,-0.019324,-0.009129,0.0056,0.0007,-0.0022,-180.0000,-0.0000,0.0000
146,1.4600,0.0804,0.0950,0.0650,0.1404,0.0000,0.0000,0.0000,20.0000,3.2059,2.8952,49.3581,40.2159,0.1272,0.000672,-0.1439,-1.4139,0.1454,1.2685,-0.1439,0.0012,-7.4135,-3.8285,-1.6741,0.0000,0.021891,-0.019892,-0.012364,0.0051,0.0008,-0.0034,-180.0000,-0.0000,0.0000
147,1.4700,0.0557,0.0847,0.0666,0.1213,0.0000,0.0000,0.0000,20.0000,2.9514,2.9053,50.0030,40.7365,0.1267,0.000741,-0.1439,-1.4139,0.1454,1.2685,-0.1439,0.0012,-7.4135,-3.8285,-1.6741,0.0000,0.017339,-0.019135,-0.014292,0.0047,0.0016,-0.0037,-180.0000,-0.0000,0.0000
148,1.4800,0.0454,0.0771,0.0473,0.1012,0.0000,0.0000,0.0000,20.0000,2.6259,2.8989,38.9287,40.9417,0.1263,0.000834,-0.1439,-1.4139,0.1454,1.2685,-0.1439,0.0012,-7.4135,-3.8285,-1.6741,0.0000,0.013753,-0.017916,-0.013395,0.0040,0.0024,-0.0031,-180.0000,-0.0000,0.0000
149,1.4900,0.0435,0.0766,0.0080,0.0884,0.0000,0.0000,0.0000,20.0000,2.2537,2.8736,50.1828,41.1405,0.1261,0.000753,-0.1439,-1.4139,0.1454,1.2685,-0.1439,0.0012,-7.4135,-3.8285,-1.6741,0.0000,0.011555,-0.017156,-0.008948,0.0035,0.0022,-0.0030,-180.0000,-0.0000,0.0000
150,1.5000,0.0505,0.0812,-0.0369,0.1025,0.0000,0.0000,0.0000,20.0000,2.0496,2.8339,69.8665,42.1793,0.1264,0.000683,-0.1439,-1.4139,0.1454,1.2685,-0.1439,0.0012,-7.4135,-3.8285,-1.6741,0.0000,0.011018,-0.017168,-0.001982,0.0020,0.0011,-0.0022,-180.0000,-0.0000,0.0000
151,1.5100,0.0665,0.0853,-0.0759,0.1321,0.0000,0.0000,0.0000,20.0000,2.2190,2.7954,78.6879,43.9449,0.1272,0.000836,-0.1439,-1.4139,0.1454,1.2685,-0.1439,0.0012,-7.4135,-3.8285,-1.6741,0.0000,0.012295,-0.017547,0.005773,0.0011,0.0001,-0.0010,-180.0000,-0.0000,0.0000
152,1.5200,0.0835,0.0875,-0.1010,0.1576,0.0000,0.0000,0.0000,20.0000,2.6367,2.7752,72.0950,45.6747,0.1286,0.000768,-0.1439,-1.4139,0.1454,1.2685,-0.1439,0.0012,-7.4135,-3.8285,-1.6741,0.0000,0.014681,-0.017940,0.012565,0.0016,-0.0009,-0.0005,-180.0000,-0.0000,0.0000
153,1.5300,0.0900,0.0881,-0.1104,0.1675,0.0000,0.0000,0.0000,20.0000,3.0063,2.7778,50.5684,46.5360,0.1303,0.000749,-0.1439,-1.4139,0.1454,1.2685,-0.1439,0.0012,-7.4135,-3.8285,-1.6741,0.0000,0.016622,-0.018184,0.017228,0.0018,-0.0006,-0.0009,-180.0000,-0.0000,0.0000
154,1.5400,0.0846,0.0831,-0.1057,0.1589,0.0000,0.0000,0.0000,20.0000,3.2288,2.7965,30.3051,46.2005,0.1323,0.000726,-0.1990,-1.5894,0.1408,1.4486,-0.1990,-0.0069,-7.1776,-3.8587,-1.4939,0.0000,0.017514,-0.018188,0.020125,0.0003,0.0003,-0.0003,-180.0000,-0.0000,0.0000
155,1.5500,0.0790,0.0697,-0.0924,0.1402,0.0000,0.0000,0.0000,20.0000,3.1625,2.8184,14.0502,44.8790,0.1342,0.000745,-0.1990,-1.5894,0.1408,1.4486,-0.1990,-0.0069,-7.1776,-3.8587,-1.4939,0.0000,0.017412,-0.016807,0.020359,-0.0011,0.0000,-0.0003,-180.0000,-0.0000,0.0000
156,1.5600,0.0713,0.0564,-0.0761,0.1185,0.0000,0.0000,0.0000,20.0000,2.9034,2.8302,27.7092,43.5589,0.1361,0.000744,-0.1990,-1.5894,0.1408,1.4486,-0.1990,-0.0069,-7.1776,-3.8587,-1.4939,0.0000,0.016542,-0.014679,0.018811,-0.0005,0.0013,-0.0013,-180.0000,-0.0000,0.0000
157,1.5700,0.0621,0.0523,-0.0618,0.1021,0.0000,0.0000,0.0000,20.0000,2.5908,2.8256,31.6286,42.7948,0.1377,0.000724,-0.1990,-1.5894,0.1408,1.4486,-0.1990,-0.0069,-7.1776,-3.8587,-1.4939,0.0000,0.015108,-0.013071,0.016496,-0.0000,0.0004,-0.0015,-180.0000,-0.0000,0.0000
158,1.5800,0.0624,0.0502,-0.0523,0.0956,0.0000,0.0000,0.0000,20.0000,2.3450,2.8060,26.5632,42.0413,0.1392,0.000779,-0.1990,-1.5894,0.1408,1.4486,-0.1990,-0.0069,-7.1776,-3.8587,-1.4939,0.0000,0.014318,-0.011937,0.014227,-0.0005,-0.0005,-0.0008,-180.0000,-0.0000,0.0000
159,1.5900,0.0658,0.0454,-0.0469,0.0927,0.0000,0.0000,0.0000,20.0000,2.1734,2.7759,21.3984,41.0478,0.1405,0.000859,-0.1990,-1.5894,0.1408,1.4486,-0.1990,-0.0069,-7.1776,-3.8587,-1.4939,0.0000,0.014192,-0.010815,0.012410,-0.0001,-0.0008,-0.0020,-180.0000,-0.0000,0.0000
160,1.6000,0.0609,0.0456,-0.0495,0.0908,0.0000,0.0000,0.0000,20.0000,2.0601,2.7396,11.5335,39.6956,0.1417,0.000735,-0.1990,-1.5894,0.1408,1.4486,-0.1990,-0.0069,-7.1776,-3.8587,-1.4939,0.0000,0.013606,-0.010187,0.011639,0.0018,0.0005,-0.0029,-180.0000,-0.0000,0.0000
161,1.6100,0.0497,0.0463,-0.0629,0.0926,0.0000,0.0000,0.0000,20.0000,2.0051,2.7007,17.4177,38.3083,0.1430,0.000767,-0.1990,-1.5894,0.1408,1.4486,-0.1990,-0.0069,-7.1776,-3.8587,-1.4939,0.0000,0.012135,-0.009897,0.012524,0.0019,-0.0002,-0.0033,-180.0000,-0.0000,0.0000
162,1.6200,0.0341,0.0410,-0.0832,0.0988,0.0000,0.0000,0.0000,20.0000,2.0117,2.6627,35.3797,37.6532,0.1444,0.000747,-0.1990,-1.5894,0.1408,1.4486,-0.1990,-0.0069,-7.1776,-3.8587,-1.4939,0.0000,0.009733,-0.009182,0.015022,0.0012,0.0005,-0.0047,-180.0000,-0.0000,0.0000
163,1.6300,0.0131,0.0325,-0.1039,0.1097,0.0000,0.0000,0.0000,20.0000,2.1035,2.6294,50.1576,37.9346,0.1460,0.000774,-0.1990,-1.5894,0.1408,1.4486,-0.1990,-0.0069,-7.1776,-3.8587,-1.4939,0.0000,0.006292,-0.007916,0.018445,0.0010,0.0002,-0.0048,-180.0000,-0.0000,0.0000
164,1.6400,-0.0037,0.0255,-0.1215,0.1242,0.0000,0.0000,0.0000,20.0000,2.3151,2.6063,52.9271,38.6831,0.1478,0.000743,-0.1990,-1.5894,0.1408,1.4486,-0.1990,-0.0069,-7.1776,-3.8587,-1.4939,0.0000,0.002691,-0.006500,0.022056,0.0005,-0.0002,-0.0041,-180.0000,-0.0000,0.0000
165,1.6500,-0.0123,0.0180,-0.1329,0.1346,0.0000,0.0000,0.0000,20.0000,2.5630,2.5971,44.7876,39.2428,0.1497,0.000836,-0.1990,-1.5894,0.1408,1.4486,-0.1990,-0.0069,-7.1776,-3.8587,-1.4939,0.0000,-0.000160,-0.004955,0.025145,-0.0009,-0.0004,-0.0036,-180.0000,-0.0000,0.0000
166,1.6600,-0.0153,0.0107,-0.1365,0.1378,0.0000,0.0000,0.0000,20.0000,2.7449,2.6002,31.8431,39.1917,0.1517,0.000731,-0.1990,-1.5894,0.1408,1.4486,-0.1990,-0.0069,-7.1776,-3.8587,-1.4939,0.0000,-0.002035,-0.003362,0.027166,-0.0005,0.0007,-0.0019,-180.0000,-0.0000,0.0000
167,1.6700,-0.0128,0.0042,-0.1343,0.1350,0.0000,0.0000,0.0000,20.0000,2.8208,2.6102,19.1651,38.4388,0.1537,0.000809,-0.1990,-1.5894,0.1408,1.4486,-0.1990,-0.0069,-7.1776,-3.8587,-1.4939,0.0000,-0.002820,-0.001829,0.028007,-0.0014,0.0011,-0.0002,-180.0000,-0.0000,0.0000
168,1.6800,-0.0103,0.0023,-0.1280,0.1284,0.0000,0.0000,0.0000,20.0000,2.7958,2.6211,10.8334,37.1494,0.1558,0.000847,-0.1990,-1.5894,0.1408,1.4486,-0.1990,-0.0069,-7.1776,-3.8587,-1.4939,0.0000,-0.002995,-0.000783,0.027786,-0.0009,0.0022,-0.0004,-180.0000,-0.0000,0.0000
169,1.6900,-0.0103,0.0079,-0.1212,0.1218,0.0000,0.0000,0.0000,20.0000,2.7113,2.6284,8.6562,35.6420,0.1577,0.000714,-0.1990,-1.5894,0.1408,1.4486,-0.1990,-0.0069,-7.1776,-3.8587,-1.4939,0.0000,-0.003089,-0.000768,0.026926,0.0008,0.0032,0.0002,-180.0000,-0.0000,0.0000
170,1.7000,-0.0108,0.0125,-0.1123,0.1135,0.0000,0.0000,0.0000,20.0000,2.5740,2.6292,14.8450,34.3278,0.1596,0.000710,-0.1990,-1.5894,0.1408,1.4486,-0.1990,-0.0069,-7.1776,-3.8587,-1.4939,0.0000,-0.003187,-0.001212,0.025513,0.0018,0.0031,0.0000,-180.0000,-0.0000,0.0000
171,1.7100,-0.0116,0.0120,-0.0976,0.0990,0.0000,0.0000,0.0000,20.0000,2.3486,2.6200,23.1640,33.4849,0.1613,0.000766,-0.1990,-1.5894,0.1408,1.4486,-0.1990,-0.0069,-7.1776,-3.8587,-1.4939,0.0000,-0.003310,-0.001409,0.023208,0.0007,0.0022,-0.0016,-180.0000,-0.0000,0.0000
172,1.7200,-0.0151,0.0088,-0.0797,0.0816,0.0000,0.0000,0.0000,20.0000,2.0476,2.5968,31.4502,33.1450,0.1628,0.000769,-0.1990,-1.5894,0.1408,1.4486,-0.1990,-0.0069,-7.1776,-3.8587,-1.4939,0.0000,-0.003728,-0.001191,0.020099,-0.0000,0.0022,-0.0016,-180.0000,-0.0000,0.0000
173,1.7300,-0.0181,0.0074,-0.0626,0.0655,0.0000,0.0000,0.0000,20.0000,1.7184,2.5575,35.2133,33.1553,0.1640,0.000859,-0.1990,-1.5894,0.1408,1.4486,-0.1990,-0.0069,-7.1776,-3.8587,-1.4939,0.0000,-0.004246,-0.000928,0.016626,0.0002,0.0023,-0.0012,-180.0000,-0.0000,0.0000
174,1.7400,-0.0195,0.0042,-0.0459,0.0500,0.0000,0.0000,0.0000,20.0000,1.4276,2.5034,30.3534,33.1348,0.1650,0.000777,-0.2620,-1.7077,0.1263,1.5814,-0.2620,0.0056,-7.8607,-3.8837,-1.6293,0.0000,-0.004273,-0.000925,0.013591,-0.0009,0.0022,-0.0011,-180.0000,0.0000,0.0000
175,1.7500,-0.0247,0.0047,-0.0312,0.0400,0.0000,0.0000,0.0000,20.0000,1.1507,2.4366,32.1664,33.0317,0.1657,0.000828,-0.2620,-1.7077,0.1263,1.5814,-0.2620,0.0056,-7.8607,-3.8837,-1.6293,0.0000,-0.004793,-0.000965,0.010416,-0.0007,0.0032,-0.0002,-180.0000,0.0000,0.0000
176,1.7600,-0.0262,0.0135,-0.0225,0.0371,0.0000,0.0000,0.0000,20.0000,0.9554,2.3605,28.2316,32.8759,0.1663,0.000819,-0.2620,-1.7077,0.1263,1.5814,-0.2620,0.0056,-7.8607,-3.8837,-1.6293,0.0000,-0.005227,-0.001868,0.007777,-0.0002,0.0029,0.0008,-180.0000,0.0000,0.0000
177,1.7700,-0.0171,0.0294,-0.0200,0.0394,0.0000,0.0000,0.0000,20.0000,0.8537,2.2804,27.9278,32.6120,0.1667,0.000742,-0.2620,-1.7077,0.1263,1.5814,-0.2620,0.0056,-7.8607,-3.8837,-1.6293,0.0000,-0.004541,-0.003954,0.006052,0.0003,0.0019,0.0007,-180.0000,0.0000,0.0000
178,1.7800,-0.0055,0.0401,-0.0230,0.0466,0.0000,0.0000,0.0000,20.0000,0.8719,2.2024,27.8081,32.3511,0.1672,0.000683,-0.2620,-1.7077,0.1263,1.5814,-0.2620,0.0056,-7.8607,-3.8837,-1.6293,0.0000,-0.002994,-0.006168,0.005388,-0.0007,0.0010,0.0009,-180.0000,0.0000,0.0000
179,1.7900,0.0051,0.0399,-0.0229,0.0463,0.0000,0.0000,0.0000,20.0000,0.8962,2.1299,22.9489,31.9675,0.1677,0.000816,-0.2620,-1.7077,0.1263,1.5814,-0.2620,0.0056,-7.8607,-3.8837,-1.6293,0.0000,-0.001072,-0.007360,0.005000,-0.0014,0.0003,-0.0000,-180.0000,0.0000,0.0000
180,1.8000,0.0182,0.0334,-0.0176,0.0419,0.0000,0.0000,0.0000,20.0000,0.8593,2.0610,24.8823,31.5246,0.1682,0.000705,-0.2620,-1.7077,0.1263,1.5814,-0.2620,0.0056,-7.8607,-3.8837,-1.6293,0.0000,0.001299,-0.007357,0.004246,-0.0027,-0.0004,-0.0004,-180.0000,0.0000,0.0000
181,1.8100,0.0252,0.0161,-0.0178,0.0348,0.0000,0.0000,0.0000,20.0000,0.7558,1.9920,26.9148,31.2151,0.1687,0.000767,-0.2620,-1.7077,0.1263,1.5814,-0.2620,0.0056,-7.8607,-3.8837,-1.6293,0.0000,0.003307,-0.005613,0.003832,-0.0034,0.0008,-0.0012,-180.0000,0.0000,0.0000
182,1.8200,0.0248,-0.0040,-0.0236,0.0345,0.0000,0.0000,0.0000,20.0000,0.6593,1.9214,31.9446,31.1169,0.1692,0.000719,-0.2620,-1.7077,0.1263,1.5814,-0.2620,0.0056,-7.8607,-3.8837,-1.6293,0.0000,0.004376,-0.002623,0.004176,-0.0034,0.0010,-0.0011,-180.0000,0.0000,0.0000
183,1.8300,0.0195,-0.0176,-0.0344,0.0433,0.0000,0.0000,0.0000,20.0000,0.7021,1.8531,32.7477,31.1845,0.1696,0.000728,-0.2620,-1.7077,0.1263,1.5814,-0.2620,0.0056,-7.8607,-3.8837,-1.6293,0.0000,0.004422,0.000399,0.005439,-0.0038,0.0023,-0.0020,-180.0000,0.0000,0.0000
184,1.8400,0.0119,-0.0294,-0.0535,0.0622,0.0000,0.0000,0.0000,20.0000,0.9419,1.7964,39.2702,31.4499,0.1703,0.000731,-0.2620,-1.7077,0.1263,1.5814,-0.2620,0.0056,-7.8607,-3.8837,-1.6293,0.0000,0.003677,0.003242,0.008043,-0.0038,0.0014,-0.0021,-180.0000,0.0000,0.0000
185,1.8500,0.0077,-0.0386,-0.0769,0.0864,0.0000,0.0000,0.0000,20.0000,1.3425,1.7604,45.8650,32.0615,0.1711,0.000829,-0.2620,-1.7077,0.1263,1.5814,-0.2620,0.0056,-7.8607,-3.8837,-1.6293,0.0000,0.002840,0.005729,0.011804,-0.0036,0.0008,-0.0017,-180.0000,0.0000,0.0000
186,1.8600,0.0077,-0.0349,-0.0985,0.1048,0.0000,0.0000,0.0000,20.0000,1.7533,1.7487,43.5370,32.7567,0.1723,0.000668,-0.2620,-1.7077,0.1263,1.5814,-0.2620,0.0056,-7.8607,-3.8837,-1.6293,0.0000,0.002376,0.006724,0.016017,-0.0020,0.0003,-0.0014,-180.0000,0.0000,0.0000
187,1.8700,0.0037,-0.0245,-0.1175,0.1201,0.0000,0.0000,0.0000,20.0000,2.1216,1.7591,42.7509,33.3281,0.1738,0.000748,-0.2620,-1.7077,0.1263,1.5814,-0.2620,0.0056,-7.8607,-3.8837,-1.6293,0.0000,0.001715,0.006221,0.020211,-0.0021,0.0015,-0.0026,-180.0000,0.0000,0.0000
188,1.8800,-0.0012,-0.0165,-0.1325,0.1335,0.0000,0.0000,0.0000,20.0000,2.4547,1.7882,40.2606,33.7780,0.1756,0.001236,-0.2620,-1.7077,0.1263,1.5814,-0.2620,0.0056,-7.8607,-3.8837,-1.6293,0.0000,0.000856,0.005129,0.023990,-0.0003,0.0005,-0.0015,-180.0000,0.0000,0.0000
189,1.8900,-0.0060,-0.0066,-0.1443,0.1446,0.0000,0.0000,0.0000,20.0000,2.7443,1.8329,37.2912,34.0529,0.1777,0.000727,-0.2620,-1.7077,0.1263,1.5814,-0.2620,0.0056,-7.8607,-3.8837,-1.6293,0.0000,-0.000101,0.003521,0.027216,0.0005,0.0018,-0.0022,-180.0000,0.0000,0.0000
190,1.9000,-0.0134,-0.0002,-0.1541,0.1547,0.0000,0.0000,0.0000,20.0000,3.0024,1.8901,33.6373,34.1305,0.1801,0.000775,-0.2620,-1.7077,0.1263,1.5814,-0.2620,0.0056,-7.8607,-3.8837,-1.6293,0.0000,-0.001375,0.001991,0.029927,0.0010,0.0025,-0.0027,-180.0000,0.0000,0.0000
191,1.9100,-0.0209,-0.0063,-0.1526,0.1542,0.0000,0.0000,0.0000,20.0000,3.1387,1.9550,19.5066,33.7147,0.1825,0.000710,-0.2620,-1.7077,0.1263,1.5814,-0.2620,0.0056,-7.8607,-3.8837,-1.6293,0.0000,-0.002823,0.001749,0.031211,0.0003,0.0025,-0.0030,-180.0000,0.0000,0.0000
192,1.9200,-0.0206,-0.0162,-0.1396,0.1421,0.0000,0.0000,0.0000,20.0000,3.0882,2.0187,13.1623,32.7587,0.1849,0.000676,-0.2620,-1.7077,0.1263,1.5814,-0.2620,0.0056,-7.8607,-3.8837,-1.6293,0.0000,-0.003589,0.002600,0.030563,0.0002,0.0021,-0.0017,-180.0000,0.0000,0.0000
193,1.9300,-0.0105,-0.0223,-0.1252,0.1276,0.0000,0.0000,0.0000,20.0000,2.9608,2.0741,17.8764,31.8104,0.1872,0.000804,-0.2661,-1.8374,0.1491,1.6883,-0.2661,0.0019,-6.1721,-3.8870,-0.9911,-0.0000,-0.003023,0.003645,0.029227,0.0002,0.0016,-0.0020,-180.0000,0.0000,0.0000
194,1.9400,-0.0028,-0.0267,-0.1107,0.1139,0.0000,0.0000,0.0000,20.0000,2.7449,2.1169,26.9132,31.2925,0.1893,0.000689,-0.2661,-1.8374,0.1491,1.6883,-0.2661,0.0019,-6.1721,-3.8870,-0.9911,-0.0000,-0.001936,0.004654,0.026982,0.0002,0.0014,-0.0004,-180.0000,0.0000,0.0000
195,1.9500,0.0013,-0.0281,-0.0989,0.1028,0.0000,0.0000,0.0000,20.0000,2.5096,2.1450,27.6818,31.0727,0.1912,0.000679,-0.2661,-1.8374,0.1491,1.6883,-0.2661,0.0019,-6.1721,-3.8870,-0.9911,-0.0000,-0.000914,0.005343,0.024503,-0.0002,0.0019,0.0008,-180.0000,0.0000,0.0000
196,1.9600,0.0074,-0.0200,-0.1007,0.1029,0.0000,0.0000,0.0000,20.0000,2.3775,2.1614,17.6224,30.6095,0.1931,0.001209,-0.2661,-1.8374,0.1491,1.6883,-0.2661,0.0019,-6.1721,-3.8870,-0.9911,-0.0000,0.000258,0.004905,0.023262,0.0011,0.0020,0.0009,-180.0000,0.0000,0.0000
197,1.9700,0.0070,-0.0059,-0.1139,0.1143,0.0000,0.0000,0.0000,20.0000,2.4091,2.1742,18.6308,29.9228,0.1950,0.000760,-0.2661,-1.8374,0.1491,1.6883,-0.2661,0.0019,-6.1721,-3.8870,-0.9911,-0.0000,0.000865,0.003246,0.023855,0.0021,0.0017,0.0003,-180.0000,0.0000,0.0000
198,1.9800,-0.0017,0.0118,-0.1277,0.1282,0.0000,0.0000,0.0000,20.0000,2.5520,2.1910,32.1134,29.6725,0.1972,0.001010,-0.2661,-1.8374,0.1491,1.6883,-0.2661,0.0019,-6.1721,-3.8870,-0.9911,-0.0000,0.000335,0.000547,0.025512,0.0025,0.0018,0.0004,-180.0000,0.0000,0.0000
199,1.9900,-0.0048,0.0357,-0.1354,0.1401,0.0000,0.0000,0.0000,20.0000,2.7357,2.2159,42.5758,30.0945,0.1996,0.000769,-0.2661,-1.8374,0.1491,1.6883,-0.2661,0.0019,-6.1721,-3.8870,-0.9911,-0.0000,-0.000271,-0.003336,0.027151,0.0023,0.0002,-0.0010,-180.0000,0.0000,0.0000
200,2.0000,-0.0021,0.0592,-0.1316,0.1444,0.0000,0.0000,0.0000,20.0000,2.8714,2.2482,45.1289,30.8513,0.2021,0.000667,-0.2661,-1.8374,0.1491,1.6883,-0.2661,0.0019,-6.1721,-3.8870,-0.9911,-0.0000,-0.000342,-0.007823,0.027625,0.0016,-0.0013,-0.0020,-180.0000,0.0000,0.0000
201,2.0100,0.0033,0.0784,-0.1171,0.1410,0.0000,0.0000,0.0000,20.0000,2.9064,2.2835,45.8622,31.6569,0.2046,0.000704,-0.2661,-1.8374,0.1491,1.6883,-0.2661,0.0019,-6.1721,-3.8870,-0.9911,-0.0000,0.000166,-0.012207,0.026376,0.0008,-0.0019,-0.0009,-180.0000,0.0000,0.0000
202,2.0200,0.0137,0.0960,-0.0937,0.1348,0.0000,0.0000,0.0000,20.0000,2.8505,2.3162,53.3796,32.6450,0.2069,0.000741,-0.2661,-1.8374,0.1491,1.6883,-0.2661,0.0019,-6.1721,-3.8870,-0.9911,-0.0000,0.001483,-0.016362,0.023295,0.0004,-0.0014,-0.0006,-180.0000,0.0000,0.0000
203,2.0300,0.0227,0.1103,-0.0670,0.1310,0.0000,0.0000,0.0000,20.0000,2.7717,2.3434,59.9123,33.9653,0.2090,0.003910,-0.2661,-1.8374,0.1491,1.6883,-0.2661,0.0019,-6.1721,-3.8870,-0.9911,-0.0000,0.003107,-0.020061,0.018871,0.0005,-0.0013,-0.0019,-180.0000,0.0000,0.0000
204,2.0400,0.0216,0.1116,-0.0460,0.1227,0.0000,0.0000,0.0000,20.0000,2.6685,2.3642,51.1933,35.1528,0.2108,0.000770,-0.2661,-1.8374,0.1491,1.6883,-0.2661,0.0019,-6.1721,-3.8870,-0.9911,-0.0000,0.003894,-0.022200,0.014287,-0.0005,-0.0001,-0.0026,-180.0000,0.0000,0.0000
205,2.0500,0.0177,0.1077,-0.0346,0.1145,0.0000,0.0000,0.0000,20.0000,2.5572,2.3778,37.6947,35.6639,0.2123,0.000820,-0.2661,-1.8374,0.1491,1.6883,-0.2661,0.0019,-6.1721,-3.8870,-0.9911,-0.0000,0.003930,-0.022941,0.010591,0.0006,-0.0005,-0.0034,-180.0000,0.0000,0.0000
206,2.0600,0.0159,0.1030,-0.0313,0.1088,0.0000,0.0000,0.0000,20.0000,2.4546,2.3849,24.1067,35.4019,0.2136,0.000764,-0.2661,-1.8374,0.1491,1.6883,-0.2661,0.0019,-6.1721,-3.8870,-0.9911,-0.0000,0.003758,-0.022833,0.008189,0.0011,-0.0000,-0.0033,-180.0000,0.0000,0.0000
207,2.0700,0.0188,0.0963,-0.0349,0.1042,0.0000,0.0000,0.0000,20.0000,2.3546,2.3860,12.5722,34.4633,0.2147,0.000722,-0.2661,-1.8374,0.1491,1.6883,-0.2661,0.0019,-6.1721,-3.8870,-0.9911,-0.0000,0.003949,-0.022063,0.007214,0.0029,-0.0003,-0.0033,-180.0000,0.0000,0.0000
208,2.0800,0.0302,0.0936,-0.0401,0.1062,0.0000,0.0000,0.0000,20.0000,2.3088,2.3830,14.4374,33.3104,0.2159,0.000764,-0.2661,-1.8374,0.1491,1.6883,-0.2661,0.0019,-6.1721,-3.8870,-0.9911,-0.0000,0.005187,-0.021322,0.007178,0.0027,0.0003,-0.0019,-180.0000,0.0000,0.0000
209,2.0900,0.0482,0.0923,-0.0414,0.1121,0.0000,0.0000,0.0000,20.0000,2.3278,2.3794,25.4410,32.5749,0.2172,0.000799,-0.2661,-1.8374,0.1491,1.6883,-0.2661,0.0019,-6.1721,-3.8870,-0.9911,-0.0000,0.007663,-0.020742,0.007277,0.0031,0.0004,-0.0009,-180.0000,0.0000,0.0000
210,2.1000,0.0555,0.0818,-0.0448,0.1085,0.0000,0.0000,0.0000,20.0000,2.2956,2.3757,25.4749,32.1834,0.2185,0.000738,-0.2661,-1.8374,0.1491,1.6883,-0.2661,0.0019,-6.1721,-3.8870,-0.9911,-0.0000,0.009744,-0.019324,0.007657,0.0026,0.0016,-0.0003,-180.0000,0.0000,0.0000
211,2.1100,0.0432,0.0624,-0.0551,0.0938,0.0000,0.0000,0.0000,20.0000,2.1125,2.3663,30.1379,31.9426,0.2198,0.000728,-0.2661,-1.8374,0.1491,1.6883,-0.2661,0.0019,-6.1721,-3.8870,-0.9911,-0.0000,0.009642,-0.016569,0.008875,0.0027,0.0022,-0.0017,-180.0000,0.0000,0.0000
212,2.1200,0.0245,0.0412,-0.0722,0.0866,0.0000,0.0000,0.0000,20.0000,1.8754,2.3458,47.8537,32.3306,0.2213,0.000773,-0.2661,-1.8374,0.1491,1.6883,-0.2661,0.0019,-6.1721,-3.8870,-0.9911,-0.0000,0.007696,-0.012891,0.011239,0.0009,0.0016,-0.0012,-180.0000,0.0000,0.0000
213,2.1300,0.0030,0.0134,-0.0985,0.0994,0.0000,0.0000,0.0000,20.0000,1.8519,2.3193,73.2323,33.8825,0.2230,0.000719,-0.2991,-2.0263,0.1762,1.8501,-0.2991,-0.0013,-6.8746,-3.9298,-1.5342,0.0000,0.004489,-0.008285,0.015942,0.0008,0.0013,-0.0007,-180.0000,-0.0000,0.0000
214,2.1400,-0.0232,-0.0118,-0.1296,0.1322,0.0000,0.0000,0.0000,20.0000,2.1862,2.3028,88.0244,36.4539,0.2250,0.000739,-0.2991,-2.0263,0.1762,1.8501,-0.2991,-0.0013,-6.8746,-3.9298,-1.5342,0.0000,0.000087,-0.003205,0.021626,0.0008,0.0015,-0.0007,-180.0000,-0.0000,0.0000
215,2.1500,-0.0437,-0.0209,-0.1558,0.1631,0.0000,0.0000,0.0000,20.0000,2.7693,2.3124,81.6044,39.1141,0.2274,0.000782,-0.2991,-2.0263,0.1762,1.8501,-0.2991,-0.0013,-6.8746,-3.9298,-1.5342,0.0000,-0.004398,0.000518,0.027337,0.0011,0.0024,0.0000,-180.0000,-0.0000,0.0000
216,2.1600,-0.0454,-0.0141,-0.1715,0.1780,0.0000,0.0000,0.0000,20.0000,3.2831,2.3516,55.4405,40.7318,0.2301,0.000727,-0.2991,-2.0263,0.1762,1.8501,-0.2991,-0.0013,-6.8746,-3.9298,-1.5342,0.0000,-0.007042,0.001899,0.032010,0.0012,0.0023,0.0009,-180.0000,-0.0000,0.0000
217,2.1700,-0.0362,-0.0019,-0.1765,0.1802,0.0000,0.0000,0.0000,20.0000,3.5867,2.4112,31.0047,40.8688,0.2331,0.000741,-0.2991,-2.0263,0.1762,1.8501,-0.2991,-0.0013,-6.8746,-3.9298,-1.5342,0.0000,-0.007567,0.001435,0.035030,0.0007,0.0030,0.0008,-180.0000,-0.0000,0.0000
218,2.1800,-0.0236,0.0170,-0.1732,0.1756,0.0000,0.0000,0.0000,20.0000,3.6900,2.4787,26.8598,40.2122,0.2363,0.000743,-0.2991,-2.0263,0.1762,1.8501,-0.2991,-0.0013,-6.8746,-3.9298,-1.5342,0.0000,-0.006582,-0.000716,0.036302,-0.0005,0.0019,-0.0002,-180.0000,-0.0000,0.0000
219,2.1900,0.0011,0.0443,-0.1622,0.1681,0.0000,0.0000,0.0000,20.0000,3.6303,2.5437,49.6866,40.1056,0.2397,0.000740,-0.2991,-2.0263,0.1762,1.8501,-0.2991,-0.0013,-6.8746,-3.9298,-1.5342,0.0000,-0.003553,-0.004627,0.035831,-0.0006,0.0007,-0.0004,-180.0000,-0.0000,0.0000
220,2.2000,0.0308,0.0699,-0.1465,0.1652,0.0000,0.0000,0.0000,20.0000,3.5208,2.6005,68.9732,41.1630,0.2431,0.000752,-0.2991,-2.0263,0.1762,1.8501,-0.2991,-0.0013,-6.8746,-3.9298,-1.5342,0.0000,0.001101,-0.009348,0.033926,-0.0001,-0.0010,-0.0009,-180.0000,-0.0000,0.0000
221,2.2100,0.0537,0.0863,-0.1300,0.1650,0.0000,0.0000,0.0000,20.0000,3.4508,2.6492,70.0383,42.7221,0.2465,0.000742,-0.2991,-2.0263,0.1762,1.8501,-0.2991,-0.0013,-6.8746,-3.9298,-1.5342,0.0000,0.005957,-0.013571,0.031163,-0.0010,-0.0025,-0.0010,-180.0000,-0.0000,0.0000
222,2.2200,0.0745,0.0917,-0.1157,0.1654,0.0000,0.0000,0.0000,20.0000,3.4294,2.6927,63.2108,44.0369,0.2498,0.000727,-0.2991,-2.0263,0.1762,1.8501,-0.2991,-0.0013,-6.8746,-3.9298,-1.5342,0.0000,0.010714,-0.016426,0.028134,-0.0010,-0.0020,-0.0025,-180.0000,-0.0000,0.0000
223,2.2300,0.0944,0.0817,-0.1096,0.1662,0.0000,0.0000,0.0000,20.0000,3.4469,2.7337,51.8808,44.7800,0.2529,0.000797,-0.2991,-2.0263,0.1762,1.8501,-0.2991,-0.0013,-6.8746,-3.9298,-1.5342,0.0000,0.015315,-0.016971,0.025799,0.0002,0.0020,-0.0015,-180.0000,-0.0000,0.0000
224,2.2400,0.1083,0.0567,-0.1196,0.1710,0.0000,0.0000,0.0000,20.0000,3.5132,2.7748,45.0567,44.9829,0.2561,0.000736,-0.2991,-2.0263,0.1762,1.8501,-0.2991,-0.0013,-6.8746,-3.9298,-1.5342,0.0000,0.019214,-0.014739,0.025453,-0.0006,0.0048,-0.0013,-180.0000,-0.0000,0.0000
225,2.2500,0.1267,0.0333,-0.1469,0.1968,0.0000,0.0000,0.0000,20.0000,3.7968,2.8232,59.0493,45.3719,0.2596,0.000685,-0.2991,-2.0263,0.1762,1.8501,-0.2991,-0.0013,-6.8746,-3.9298,-1.5342,0.0000,0.023168,-0.011130,0.027945,-0.0007,0.0089,-0.0012,-180.0000,-0.0000,0.0000
226,2.2600,0.1490,0.0220,-0.1860,0.2393,0.0000,0.0000,0.0000,20.0000,4.3849,2.8929,75.0935,46.5655,0.2635,0.000827,-0.2991,-2.0263,0.1762,1.8501,-0.2991,-0.0013,-6.8746,-3.9298,-1.5342,0.0000,0.027543,-0.007981,0.033173,0.0005,0.0132,-0.0016,-180.0000,-0.0000,0.0000
227,2.2700,0.1657,0.0227,-0.2283,0.2830,0.0000,0.0000,0.0000,20.0000,5.1523,2.9961,82.9561,48.3510,0.2683,0.000731,-0.2991,-2.0263,0.1762,1.8501,-0.2991,-0.0013,-6.8746,-3.9298,-1.5342,0.0000,0.031573,-0.006296,0.040225,0.0012,0.0159,-0.0016,-180.0000,-0.0000,0.0000
228,2.2800,0.1746,0.0293,-0.2671,0.3205,0.0000,0.0000,0.0000,20.0000,5.9436,3.1365,82.9376,50.2541,0.2739,0.000815,-0.2991,-2.0263,0.1762,1.8501,-0.2991,-0.0013,-6.8746,-3.9298,-1.5342,0.0000,0.034631,-0.006011,0.047930,0.0008,0.0174,-0.0036,-180.0000,-0.0000,0.0000
229,2.2900,0.1810,0.0344,-0.3014,0.3532,0.0000,0.0000,0.0000,20.0000,6.6954,3.3116,79.2120,51.9495,0.2804,0.000674,-0.2991,-2.0263,0.1762,1.8501,-0.2991,-0.0013,-6.8746,-3.9298,-1.5342,0.0000,0.036886,-0.006354,0.055515,0.0021,0.0187,-0.0033,-180.0000,-0.0000,0.0000
230,2.3000,0.1858,0.0328,-0.3234,0.3744,0.0000,0.0000,0.0000,20.0000,7.3115,3.5146,65.0413,53.0594,0.2877,0.000702,-0.2991,-2.0263,0.1762,1.8501,-0.2991,-0.0013,-6.8746,-3.9298,-1.5342,0.0000,0.038539,-0.006375,0.061806,0.0021,0.0190,-0.0035,-180.0000,-0.0000,0.0000
231,2.3100,0.1867,0.0216,-0.3261,0.3764,0.0000,0.0000,0.0000,20.0000,7.6591,3.7331,39.0480,53.0035,0.2955,0.000728,-0.2991,-2.0263,0.1762,1.8501,-0.2991,-0.0013,-6.8746,-3.9298,-1.5342,0.0000,0.039470,-0.005250,0.065427,0.0020,0.0186,-0.0042,-180.0000,-0.0000,0.0000
232,2.3200,0.1849,-0.0004,-0.3156,0.3658,0.0000,0.0000,0.0000,20.0000,7.7281,3.9509,29.6474,51.9773,0.3034,0.000883,-0.2991,-2.0263,0.1762,1.8501,-0.2991,-0.0013,-6.8746,-3.9298,-1.5342,0.0000,0.039720,-0.002412,0.066248,0.0031,0.0182,-0.0041,-180.0000,-0.0000,0.0000
233,2.3300,0.1848,-0.0229,-0.2955,0.3493,0.0000,0.0000,0.0000,20.0000,7.6785,4.1573,35.5962,50.9126,0.3112,0.000737,-0.3475,-2.2407,0.1872,2.0534,-0.3475,0.0007,-6.9270,-3.9726,-1.2677,0.0000,0.040041,0.001055,0.065510,0.0057,0.0174,-0.0017,-180.0000,0.0000,0.0000
234,2.3400,0.1801,-0.0371,-0.2654,0.3229,0.0000,0.0000,0.0000,20.0000,7.3701,4.3425,48.7904,50.4330,0.3187,0.000741,-0.3475,-2.2407,0.1872,2.0534,-0.3475,0.0007,-6.9270,-3.9726,-1.2677,0.0000,0.039663,0.004385,0.061964,0.0087,0.0185,-0.0028,-180.0000,0.0000,0.0000
235,2.3500,0.1649,-0.0476,-0.2332,0.2895,0.0000,0.0000,0.0000,20.0000,6.8528,4.4949,63.0425,50.7346,0.3256,0.000769,-0.3475,-2.2407,0.1872,2.0534,-0.3475,0.0007,-6.9270,-3.9726,-1.2677,0.0000,0.037861,0.007269,0.056655,0.0115,0.0191,-0.0032,-180.0000,0.0000,0.0000
236,2.3600,0.1548,-0.0592,-0.2091,0.2668,0.0000,0.0000,0.0000,20.0000,6.3262,4.6101,64.4785,51.4512,0.3319,0.000785,-0.3475,-2.2407,0.1872,2.0534,-0.3475,0.0007,-6.9270,-3.9726,-1.2677,0.0000,0.035778,0.010010,0.051203,0.0138,0.0196,-0.0018,-180.0000,0.0000,0.0000
237,2.3700,0.1528,-0.0740,-0.1986,0.2612,0.0000,0.0000,0.0000,20.0000,5.9670,4.6946,53.1854,51.8572,0.3377,0.000657,-0.3475,-2.2407,0.1872,2.0534,-0.3475,0.0007,-6.9270,-3.9726,-1.2677,0.0000,0.034351,0.012985,0.047032,0.0156,0.0202,-0.0009,-180.0000,0.0000,0.0000
238,2.3800,0.1542,-0.0924,-0.1996,0.2686,0.0000,0.0000,0.0000,20.0000,5.8338,4.7609,42.0994,51.6253,0.3432,0.000816,-0.3475,-2.2407,0.1872,2.0534,-0.3475,0.0007,-6.9270,-3.9726,-1.2677,0.0000,0.033638,0.016442,0.044737,0.0159,0.0205,-0.0012,-180.0000,0.0000,0.0000
239,2.3900,0.1619,-0.1222,-0.2128,0.2940,0.0000,0.0000,0.0000,20.0000,6.0034,4.8246,48.7163,51.2833,0.3486,0.000799,-0.3475,-2.2407,0.1872,2.0534,-0.3475,0.0007,-6.9270,-3.9726,-1.2677,0.0000,0.033947,0.021303,0.044697,0.0184,0.0210,-0.0004,-180.0000,0.0000,0.0000
240,2.4000,0.1791,-0.1566,-0.2371,0.3359,0.0000,0.0000,0.0000,20.0000,6.5117,4.9034,67.6182,51.6620,0.3543,0.000701,-0.3475,-2.2407,0.1872,2.0534,-0.3475,0.0007,-6.9270,-3.9726,-1.2677,0.0000,0.035769,0.027387,0.047019,0.0213,0.0210,-0.0005,-180.0000,0.0000,0.0000
241,2.4100,0.1979,-0.1886,-0.2648,0.3806,0.0000,0.0000,0.0000,20.0000,7.2358,5.0118,81.1819,52.9127,0.3604,0.000811,-0.3475,-2.2407,0.1872,2.0534,-0.3475,0.0007,-6.9270,-3.9726,-1.2677,0.0000,0.038579,0.033896,0.050974,0.0236,0.0207,0.0005,-180.0000,0.0000,0.0000
242,2.4200,0.2182,-0.2229,-0.2900,0.4259,0.0000,0.0000,0.0000,20.0000,8.0807,5.1574,90.5248,54.7247,0.3672,0.000779,-0.3475,-2.2407,0.1872,2.0534,-0.3475,0.0007,-6.9270,-3.9726,-1.2677,0.0000,0.042088,0.040852,0.055583,0.0272,0.0195,-0.0003,-180.0000,0.0000,0.0000
243,2.4300,0.2361,-0.2548,-0.3153,0.4691,0.0000,0.0000,0.0000,20.0000,8.9681,5.3426,92.8732,56.7586,0.3746,0.000716,-0.3475,-2.2407,0.1872,2.0534,-0.3475,0.0007,-6.9270,-3.9726,-1.2677,0.0000,0.045734,0.047803,0.060547,0.0304,0.0178,-0.0015,-180.0000,0.0000,0.0000
244,2.4400,0.2484,-0.2815,-0.3450,0.5099,0.0000,0.0000,0.0000,20.0000,9.8518,5.5663,90.8490,58.6895,0.3828,0.000772,-0.3475,-2.2407,0.1872,2.0534,-0.3475,0.0007,-6.9270,-3.9726,-1.2677,0.0000,0.048892,0.054226,0.066143,0.0328,0.0156,-0.0010,-180.0000,0.0000,0.0000
245,2.4500,0.2536,-0.3094,-0.3810,0.5524,0.0000,0.0000,0.0000,20.0000,10.7456,5.8267,92.9904,60.5175,0.3919,0.000702,-0.3475,-2.2407,0.1872,2.0534,-0.3475,0.0007,-6.9270,-3.9726,-1.2677,0.0000,0.051057,0.060452,0.072702,0.0348,0.0133,-0.0007,-180.0000,0.0000,0.0000
246,2.4600,0.2513,-0.3329,-0.4188,0.5911,0.0000,0.0000,0.0000,20.0000,11.6031,6.1208,92.5733,62.2923,0.4021,0.000736,-0.3475,-2.2407,0.1872,2.0534,-0.3475,0.0007,-6.9270,-3.9726,-1.2677,0.0000,0.051923,0.066129,0.079963,0.0371,0.0121,-0.0008,-180.0000,0.0000,0.0000
247,2.4700,0.2443,-0.3550,-0.4564,0.6277,0.0000,0.0000,0.0000,20.0000,12.4181,6.4448,92.3147,63.9509,0.4134,0.000690,-0.3475,-2.2407,0.1872,2.0534,-0.3475,0.0007,-6.9270,-3.9726,-1.2677,0.0000,0.051594,0.071340,0.087576,0.0384,0.0121,-0.0016,-180.0000,0.0000,0.0000
248,2.4800,0.2340,-0.3752,-0.4948,0.6636,0.0000,0.0000,0.0000,20.0000,13.2018,6.7949,92.8735,65.5265,0.4258,0.000738,-0.3475,-2.2407,0.1872,2.0534,-0.3475,0.0007,-6.9270,-3.9726,-1.2677,0.0000,0.050283,0.076100,0.095442,0.0408,0.0134,-0.0011,-180.0000,0.0000,0.0000
249,2.4900,0.2348,-0.3827,-0.5273,0.6926,0.0000,0.0000,0.0000,20.0000,13.9018,7.1666,81.1935,66.7095,0.4394,0.000736,-0.3475,-2.2407,0.1872,2.0534,-0.3475,0.0007,-6.9270,-3.9726,-1.2677,0.0000,0.049535,0.079332,0.102853,0.0416,0.0142,-0.0013,-180.0000,0.0000,0.0000
250,2.5000,0.2495,-0.3802,-0.5484,0.7124,0.0000,0.0000,0.0000,20.0000,14.4614,7.5525,62.3213,66.9872,0.4542,0.000769,-0.3475,-2.2407,0.1872,2.0534,-0.3475,0.0007,-6.9270,-3.9726,-1.2677,0.0000,0.050493,0.080713,0.108854,0.0402,0.0168,-0.0018,-180.0000,0.0000,0.0000
251,2.5100,0.2727,-0.3618,-0.5612,0.7213,0.0000,0.0000,0.0000,20.0000,14.8231,7.9425,53.1881,66.4793,0.4702,0.000685,-0.3475,-2.2407,0.1872,2.0534,-0.3475,0.0007,-6.9270,-3.9726,-1.2677,0.0000,0.053248,0.079472,0.113232,0.0369,0.0193,-0.0028,-180.0000,0.0000,0.0000
252,2.5200,0.2994,-0.3175,-0.5753,0.7221,0.0000,0.0000,0.0000,20.0000,14.9812,8.3253,75.8357,66.3711,0.4872,0.000765,-0.3475,-2.2407,0.1872,2.0534,-0.3475,0.0007,-6.9270,-3.9726,-1.2677,0.0000,0.057329,0.074197,0.116842,0.0314,0.0229,-0.0020,-180.0000,0.0000,0.0000
253,2.5300,0.3231,-0.2537,-0.5995,0.7268,0.0000,0.0000,0.0000,20.0000,15.2610,8.6992,121.3358,68.1432,0.5058,0.000695,-0.2806,-2.5871,0.1456,2.4414,-0.2806,0.0029,-6.9057,-4.0180,-1.3656,0.0000,0.062973,0.065231,0.122756,0.0219,0.0259,-0.0014,-180.0000,0.0000,0.0000
254,2.5400,0.3369,-0.1815,-0.6458,0.7507,0.0000,0.0000,0.0000,20.0000,15.6019,9.0695,151.3091,71.8936,0.5263,0.000789,-0.2806,-2.5871,0.1456,2.4414,-0.2806,0.0029,-6.9057,-4.0180,-1.3656,0.0000,0.067350,0.052929,0.130401,0.0098,0.0295,-0.0015,-180.0000,0.0000,0.0000
255,2.5500,0.3435,-0.0961,-0.7280,0.8107,0.0000,0.0000,0.0000,20.0000,16.3336,9.4490,199.0242,77.5744,0.5491,0.000700,-0.2806,-2.5871,0.1456,2.4414,-0.2806,0.0029,-6.9057,-4.0180,-1.3656,0.0000,0.070296,0.037476,0.142592,-0.0048,0.0329,-0.0018,-180.0000,0.0000,0.0000
256,2.5600,0.3475,0.0044,-0.8534,0.9215,0.0000,0.0000,0.0000,20.0000,17.7972,9.8679,266.9786,86.1242,0.5754,0.000734,-0.2806,-2.5871,0.1456,2.4414,-0.2806,0.0029,-6.9057,-4.0180,-1.3656,0.0000,0.072179,0.018810,0.161587,-0.0222,0.0351,-0.0007,-180.0000,0.0000,0.0000
257,2.5700,0.3530,0.1232,-1.0149,1.0816,0.0000,0.0000,0.0000,20.0000,20.1853,10.3698,344.8975,98.2157,0.6064,0.000717,-0.2806,-2.5871,0.1456,2.4414,-0.2806,0.0029,-6.9057,-4.0180,-1.3656,0.0000,0.073626,-0.003422,0.187915,-0.0406,0.0362,0.0004,-180.0000,0.0000,0.0000
258,2.5800,0.3653,0.2700,-1.2035,1.2863,0.0000,0.0000,0.0000,20.0000,23.5462,11.0021,426.8162,114.0382,0.6434,0.000692,-0.2806,-2.5871,0.1456,2.4414,-0.2806,0.0029,-6.9057,-4.0180,-1.3656,0.0000,0.075510,-0.030388,0.220946,-0.0601,0.0376,-0.0011,-180.0000,0.0000,0.0000
259,2.5900,0.3891,0.4443,-1.4092,1.5279,0.0000,0.0000,0.0000,20.0000,27.8185,11.8097,502.5809,133.3274,0.6880,0.000758,-0.2806,-2.5871,0.1456,2.4414,-0.2806,0.0029,-6.9057,-4.0180,-1.3656,0.0000,0.078775,-0.062659,0.259336,-0.0776,0.0373,-0.0006,-180.0000,0.0000,0.0000
260,2.6000,0.4158,0.6283,-1.6129,1.7802,0.0000,0.0000,0.0000,20.0000,32.6965,12.8245,548.6302,154.9058,0.7414,0.000786,-0.2806,-2.5871,0.1456,2.4414,-0.2806,0.0029,-6.9057,-4.0180,-1.3656,0.0000,0.083095,-0.098777,0.300407,-0.0914,0.0384,-0.0008,-180.0000,0.0000,0.0000
261,2.6100,0.4376,0.8022,-1.7985,2.0173,0.0000,0.0000,0.0000,20.0000,37.7440,14.0564,552.5649,176.6720,0.8045,0.000662,-0.2806,-2.5871,0.1456,2.4414,-0.2806,0.0029,-6.9057,-4.0180,-1.3656,0.0000,0.087500,-0.135933,0.341067,-0.1008,0.0397,-0.0011,-180.0000,0.0000,0.0000
262,2.6200,0.4612,0.9461,-1.9656,2.2297,0.0000,0.0000,0.0000,20.0000,42.6225,15.4936,520.1660,196.4581,0.8781,0.000749,-0.2806,-2.5871,0.1456,2.4414,-0.2806,0.0029,-6.9057,-4.0180,-1.3656,0.0000,0.092123,-0.170593,0.379578,-0.1071,0.0407,-0.0012,-180.0000,0.0000,0.0000
263,2.6300,0.4905,1.0429,-2.1225,2.4153,0.0000,0.0000,0.0000,20.0000,47.1188,17.1096,463.9366,212.7180,0.9629,0.000714,-0.2806,-2.5871,0.1456,2.4414,-0.2806,0.0029,-6.9057,-4.0180,-1.3656,0.0000,0.097421,-0.199095,0.415799,-0.1086,0.0427,0.0001,-180.0000,0.0000,0.0000
264,2.6400,0.5167,1.0989,-2.2667,2.5714,0.0000,0.0000,0.0000,20.0000,51.0829,18.8693,399.6203,224.7681,1.0595,0.000625,-0.2806,-2.5871,0.1456,2.4414,-0.2806,0.0029,-6.9057,-4.0180,-1.3656,0.0000,0.102770,-0.220049,0.449403,-0.1082,0.0463,0.0011,-180.0000,0.0000,0.0000
265,2.6500,0.5410,1.1294,-2.3975,2.7049,0.0000,0.0000,0.0000,20.0000,54.5052,20.7355,342.7246,232.8215,1.1683,0.000716,-0.2806,-2.5871,0.1456,2.4414,-0.2806,0.0029,-6.9057,-4.0180,-1.3656,0.0000,0.107950,-0.234243,0.480165,-0.1071,0.0477,0.0034,-180.0000,0.0000,0.0000
266,2.6600,0.5744,1.1472,-2.5241,2.8314,0.0000,0.0000,0.0000,20.0000,57.5476,22.6768,307.1786,237.8894,1.2900,0.000766,-0.2806,-2.5871,0.1456,2.4414,-0.2806,0.0029,-6.9057,-4.0180,-1.3656,0.0000,0.113945,-0.243397,0.508868,-0.1072,0.0484,0.0045,-180.0000,0.0000,0.0000
267,2.6700,0.6100,1.1589,-2.6478,2.9540,0.0000,0.0000,0.0000,20.0000,60.3332,24.6715,286.0604,241.1201,1.4250,0.000609,-0.2806,-2.5871,0.1456,2.4414,-0.2806,0.0029,-6.9057,-4.0180,-1.3656,0.0000,0.120588,-0.249148,0.536091,-0.1092,0.0505,0.0039,-180.0000,0.0000,0.0000
268,2.6800,0.6450,1.1740,-2.7664,3.0736,0.0000,0.0000,0.0000,20.0000,62.9439,26.7050,270.6778,243.1690,1.5742,0.000728,-0.2806,-2.5871,0.1456,2.4414,-0.2806,0.0029,-6.9057,-4.0180,-1.3656,0.0000,0.127516,-0.253334,0.561920,-0.1121,0.0526,0.0035,-180.0000,0.0000,0.0000
269,2.6900,0.6826,1.1981,-2.8858,3.1983,0.0000,0.0000,0.0000,20.0000,65.5060,28.7689,264.8117,244.5209,1.7382,0.000710,-0.2806,-2.5871,0.1456,2.4414,-0.2806,0.0029,-6.9057,-4.0180,-1.3656,0.0000,0.134852,-0.257555,0.587013,-0.1136,0.0565,0.0023,-180.0000,0.0000,0.0000
270,2.7000,0.7205,1.2254,-3.0175,3.3355,0.0000,0.0000,0.0000,20.0000,68.1616,30.8628,273.3250,245.8712,1.9184,0.000645,-0.2806,-2.5871,0.1456,2.4414,-0.2806,0.0029,-6.9057,-4.0180,-1.3656,0.0000,0.142425,-0.262095,0.612880,-0.1165,0.0616,0.0013,-180.0000,0.0000,0.0000
271,2.7100,0.7564,1.2529,-3.1665,3.4883,0.0000,0.0000,0.0000,20.0000,71.0193,32.9931,293.4989,247.9363,2.1164,0.000712,-0.2806,-2.5871,0.1456,2.4414,-0.2806,0.0029,-6.9057,-4.0180,-1.3656,0.0000,0.149916,-0.266830,0.640860,-0.1200,0.0657,0.0008,-180.0000,0.0000,0.0000
272,2.7200,0.7933,1.2924,-3.3272,3.6565,0.0000,0.0000,0.0000,20.0000,74.1376,35.1706,317.5543,251.1042,2.3342,0.000653,-0.2806,-2.5871,0.1456,2.4414,-0.2806,0.0029,-6.9057,-4.0180,-1.3656,0.0000,0.157451,-0.272869,0.671111,-0.1209,0.0683,0.0007,-180.0000,0.0000,0.0000
273,2.7300,0.8262,1.3458,-3.4904,3.8311,0.0000,0.0000,0.0000,20.0000,78.0615,37.4221,397.2983,256.9528,2.5757,0.000669,-0.3301,-3.8808,0.1576,3.7232,-0.3301,-0.0153,-7.5593,-4.2261,-1.0873,0.0000,0.166742,-0.281377,0.708791,-0.1225,0.0714,0.0012,-180.0000,-0.0000,-0.0000
274,2.7400,0.8509,1.4009,-3.6559,4.0065,0.0000,0.0000,0.0000,20.0000,81.8305,39.7612,379.3152,264.1783,2.8421,0.000731,-0.3301,-3.8808,0.1576,3.7232,-0.3301,-0.0153,-7.5593,-4.2261,-1.0873,0.0000,0.174013,-0.291022,0.744748,-0.1260,0.0730,0.0016,-180.0000,-0.0000,-0.0000
275,2.7500,0.8710,1.4474,-3.8237,4.1803,0.0000,0.0000,0.0000,20.0000,85.4879,42.1760,368.4641,270.2133,3.1349,0.000645,-0.3301,-3.8808,0.1576,3.7232,-0.3301,-0.0153,-7.5593,-4.2261,-1.0873,0.0000,0.179693,-0.300424,0.779919,-0.1286,0.0736,0.0011,-180.0000,-0.0000,-0.0000
276,2.7600,0.8858,1.4764,-3.9864,4.3423,0.0000,0.0000,0.0000,20.0000,88.9583,44.6539,352.1980,275.1705,3.4552,0.000673,-0.3301,-3.8808,0.1576,3.7232,-0.3301,-0.0153,-7.5593,-4.2261,-1.0873,0.0000,0.183955,-0.307914,0.814068,-0.1282,0.0752,0.0001,-180.0000,-0.0000,-0.0000
277,2.7700,0.8934,1.4798,-4.1428,4.4890,0.0000,0.0000,0.0000,20.0000,92.1632,47.1792,332.3066,278.8605,3.8040,0.000721,-0.3301,-3.8808,0.1576,3.7232,-0.3301,-0.0153,-7.5593,-4.2261,-1.0873,0.0000,0.186707,-0.311780,0.846958,-0.1260,0.0758,0.0006,-180.0000,-0.0000,-0.0000
278,2.7800,0.8954,1.4592,-4.2924,4.6213,0.0000,0.0000,0.0000,20.0000,95.0701,49.7336,314.8321,281.3199,4.1819,0.000662,-0.3301,-3.8808,0.1576,3.7232,-0.3301,-0.0153,-7.5593,-4.2261,-1.0873,0.0000,0.188052,-0.311236,0.878408,-0.1197,0.0735,0.0010,-180.0000,-0.0000,-0.0000
279,2.7900,0.8950,1.4138,-4.4381,4.7430,0.0000,0.0000,0.0000,20.0000,97.7006,52.2998,306.8363,282.9434,4.5894,0.000647,-0.3301,-3.8808,0.1576,3.7232,-0.3301,-0.0153,-7.5593,-4.2261,-1.0873,0.0000,0.188381,-0.305776,0.908600,-0.1129,0.0702,0.0010,-180.0000,-0.0000,-0.0000
280,2.8000,0.8966,1.3581,-4.5840,4.8643,0.0000,0.0000,0.0000,20.0000,100.1696,54.8651,308.6638,284.3080,5.0273,0.000750,-0.3301,-3.8808,0.1576,3.7232,-0.3301,-0.0153,-7.5593,-4.2261,-1.0873,0.0000,0.188345,-0.296577,0.938064,-0.1049,0.0695,0.0016,-180.0000,-0.0000,-0.0000
281,2.8100,0.9055,1.3082,-4.7303,4.9907,0.0000,0.0000,0.0000,20.0000,102.6006,57.4241,309.4108,285.6683,5.4969,0.000684,-0.3301,-3.8808,0.1576,3.7232,-0.3301,-0.0153,-7.5593,-4.2261,-1.0873,0.0000,0.188836,-0.285907,0.967103,-0.0985,0.0687,0.0031,-180.0000,-0.0000,-0.0000
282,2.8200,0.9260,1.2554,-4.8827,5.1258,0.0000,0.0000,0.0000,20.0000,105.0949,59.9778,316.8004,287.1775,5.9996,0.000691,-0.3301,-3.8808,0.1576,3.7232,-0.3301,-0.0153,-7.5593,-4.2261,-1.0873,0.0000,0.190784,-0.274159,0.996459,-0.0947,0.0718,0.0027,-180.0000,-0.0000,-0.0000
283,2.8300,0.9610,1.1998,-5.0447,5.2737,0.0000,0.0000,0.0000,20.0000,107.7472,62.5325,332.1055,289.2280,6.5380,0.000690,-0.3301,-3.8808,0.1576,3.7232,-0.3301,-0.0153,-7.5593,-4.2261,-1.0873,0.0000,0.194976,-0.261555,1.026898,-0.0926,0.0777,0.0022,-180.0000,-0.0000,-0.0000
284,2.8400,1.0138,1.1494,-5.2097,5.4304,0.0000,0.0000,0.0000,20.0000,110.5719,65.0974,344.4897,291.9272,7.1144,0.000715,-0.3301,-3.8808,0.1576,3.7232,-0.3301,-0.0153,-7.5593,-4.2261,-1.0873,0.0000,0.202183,-0.249028,1.058169,-0.0894,0.0862,0.0021,-180.0000,-0.0000,-0.0000
285,2.8500,1.0800,1.0952,-5.3607,5.5770,0.0000,0.0000,0.0000,20.0000,113.3840,67.6762,344.3206,294.8139,7.7307,0.000657,-0.3301,-3.8808,0.1576,3.7232,-0.3301,-0.0153,-7.5593,-4.2261,-1.0873,0.0000,0.212380,-0.236179,1.088442,-0.0863,0.0929,0.0012,-180.0000,-0.0000,-0.0000
286,2.8600,1.1443,1.0278,-5.4841,5.6957,0.0000,0.0000,0.0000,20.0000,115.9044,70.2598,326.1442,297.0373,8.3868,0.000701,-0.3301,-3.8808,0.1576,3.7232,-0.3301,-0.0153,-7.5593,-4.2261,-1.0873,0.0000,0.224026,-0.221865,1.115335,-0.0819,0.0998,-0.0011,-180.0000,-0.0000,-0.0000
287,2.8700,1.1975,0.9593,-5.5717,5.7791,0.0000,0.0000,0.0000,20.0000,117.9094,72.8258,285.8854,297.5311,9.0813,0.000667,-0.3301,-3.8808,0.1576,3.7232,-0.3301,-0.0153,-7.5593,-4.2261,-1.0873,0.0000,0.235334,-0.206656,1.136738,-0.0749,0.1043,-0.0021,-180.0000,-0.0000,-0.0000
288,2.8800,1.2412,0.8875,-5.6223,5.8257,0.0000,0.0000,0.0000,20.0000,119.2570,75.3428,239.2820,295.6087,9.8113,0.000692,-0.3301,-3.8808,0.1576,3.7232,-0.3301,-0.0153,-7.5593,-4.2261,-1.0873,0.0000,0.245486,-0.190657,1.151351,-0.0677,0.1067,-0.0016,-180.0000,-0.0000,-0.0000
289,2.8900,1.2695,0.8090,-5.6373,5.8348,0.0000,0.0000,0.0000,20.0000,119.8652,77.7752,201.8645,291.4812,10.5728,0.000669,-0.3301,-3.8808,0.1576,3.7232,-0.3301,-0.0153,-7.5593,-4.2261,-1.0873,0.0000,0.253437,-0.173586,1.158622,-0.0590,0.1072,-0.0013,-180.0000,-0.0000,-0.0000
290,2.9000,1.2764,0.7339,-5.6272,5.8166,0.0000,0.0000,0.0000,20.0000,119.7922,80.0884,179.0104,285.9229,11.3614,0.000645,-0.3301,-3.8808,0.1576,3.7232,-0.3301,-0.0153,-7.5593,-4.2261,-1.0873,0.0000,0.258013,-0.156294,1.159318,-0.0479,0.1079,-0.0009,-180.0000,-0.0000,-0.0000
291,2.9100,1.2683,0.6523,-5.6040,5.7826,0.0000,0.0000,0.0000,20.0000,119.1836,82.2557,185.6918,280.2257,12.1731,0.000655,-0.3301,-3.8808,0.1576,3.7232,-0.3301,-0.0153,-7.5593,-4.2261,-1.0873,0.0000,0.259215,-0.138260,1.155061,-0.0365,0.1091,-0.0008,-180.0000,-0.0000,-0.0000
292,2.9200,1.2591,0.5593,-5.5716,5.7394,0.0000,0.0000,0.0000,20.0000,120.4419,84.3217,188.8009,275.1111,13.0212,0.000807,-1.2694,-8.5748,0.3478,8.2270,-1.2694,0.3204,-9.3958,-4.2361,-1.0106,1.3651,0.263337,-0.125696,1.168537,-0.0248,0.1111,-0.0008,-180.0000,0.0000,0.0000
293,2.9300,1.2588,0.4648,-5.5358,5.6961,0.0000,0.0000,0.0000,20.0000,120.4660,86.3092,168.0477,269.7925,13.8968,0.000666,-1.2694,-8.5748,0.3478,8.2270,-1.2694,0.3204,-9.3958,-4.2361,-1.0106,1.3651,0.265062,-0.109050,1.170067,-0.0130,0.1147,-0.0023,-180.0000,0.0000,0.0000
294,2.9400,1.2674,0.3648,-5.5053,5.6611,0.0000,0.0000,0.0000,20.0000,119.8924,88.1723,199.8231,265.0697,14.7951,0.000659,-1.2694,-8.5748,0.3478,8.2270,-1.2694,0.3204,-9.3958,-4.2361,-1.0106,1.3651,0.266350,-0.089634,1.165522,-0.0036,0.1194,-0.0046,-180.0000,0.0000,0.0000
295,2.9500,1.2867,0.2572,-5.4894,5.6440,0.0000,0.0000,0.0000,20.0000,119.1712,89.8974,227.0396,262.2292,15.7141,0.000787,-1.2694,-8.5748,0.3478,8.2270,-1.2694,0.3204,-9.3958,-4.2361,-1.0106,1.3651,0.268458,-0.067962,1.159090,0.0025,0.1248,-0.0053,-180.0000,0.0000,0.0000
296,2.9600,1.3256,0.1631,-5.5045,5.6642,0.0000,0.0000,0.0000,20.0000,118.7463,91.4960,224.2321,260.2162,16.6553,0.000785,-1.2694,-8.5748,0.3478,8.2270,-1.2694,0.3204,-9.3958,-4.2361,-1.0106,1.3651,0.272978,-0.046437,1.154727,0.0068,0.1297,-0.0029,-180.0000,0.0000,0.0000
297,2.9700,1.3703,0.0939,-5.5497,5.7171,0.0000,0.0000,0.0000,20.0000,118.8167,92.9969,199.7928,257.5646,17.6225,0.000836,-1.2694,-8.5748,0.3478,8.2270,-1.2694,0.3204,-9.3958,-4.2361,-1.0106,1.3651,0.279397,-0.027518,1.154522,0.0057,0.1312,-0.0026,-180.0000,0.0000,0.0000
298,2.9800,1.4008,0.0425,-5.6047,5.7773,0.0000,0.0000,0.0000,20.0000,119.2334,94.4287,170.5626,253.5828,18.6190,0.000763,-1.2694,-8.5748,0.3478,8.2270,-1.2694,0.3204,-9.3958,-4.2361,-1.0106,1.3651,0.285438,-0.011868,1.157603,0.0044,0.1324,-0.0015,-180.0000,0.0000,0.0000
299,2.9900,1.4191,0.0047,-5.6554,5.8307,0.0000,0.0000,0.0000,20.0000,119.7703,95.8079,140.0366,248.1764,19.6466,0.000751,-1.2694,-8.5748,0.3478,8.2270,-1.2694,0.3204,-9.3958,-4.2361,-1.0106,1.3651,0.290033,0.000588,1.162056,0.0018,0.1306,-0.0020,-180.0000,0.0000,0.0000
300,3.0000,1.4303,-0.0206,-5.6906,5.8676,0.0000,0.0000,0.0000,20.0000,120.2045,97.1379,105.6234,241.2814,20.7050,0.000745,-1.2694,-8.5748,0.3478,8.2270,-1.2694,0.3204,-9.3958,-4.2361,-1.0106,1.3651,0.293112,0.010005,1.165717,0.0014,0.1297,-0.0027,-180.0000,0.0000,0.0000
301,3.0100,1.4368,-0.0380,-5.7048,5.8830,0.0000,0.0000,0.0000,20.0000,120.3630,98.4111,72.2661,232.9016,21.7926,0.000789,-1.2694,-8.5748,0.3478,8.2270,-1.2694,0.3204,-9.3958,-4.2361,-1.0106,1.3651,0.294880,0.016924,1.166826,0.0013,0.1299,-0.0039,-180.0000,0.0000,0.0000
302,3.0200,1.4401,-0.0496,-5.7008,5.8801,0.0000,0.0000,0.0000,20.0000,120.1836,99.6137,54.3795,223.5734,22.9065,0.000722,-1.2694,-8.5748,0.3478,8.2270,-1.2694,0.3204,-9.3958,-4.2361,-1.0106,1.3651,0.295600,0.021881,1.164711,0.0005,0.1304,-0.0044,-180.0000,0.0000,0.0000
303,3.0300,1.4453,-0.0608,-5.6857,5.8669,0.0000,0.0000,0.0000,20.0000,119.7142,100.7323,62.9822,214.5030,24.0440,0.000738,-1.2694,-8.5748,0.3478,8.2270,-1.2694,0.3204,-9.3958,-4.2361,-1.0106,1.3651,0.295929,0.025690,1.159705,-0.0009,0.1302,-0.0046,-180.0000,0.0000,0.0000
304,3.0400,1.4562,-0.0740,-5.6524,5.8374,0.0000,0.0000,0.0000,20.0000,118.9233,101.7547,90.9833,206.9383,25.2017,0.000810,-1.2694,-8.5748,0.3478,8.2270,-1.2694,0.3204,-9.3958,-4.2361,-1.0106,1.3651,0.296602,0.029069,1.151285,0.0001,0.1315,-0.0036,-180.0000,0.0000,0.0000
305,3.0500,1.4712,-0.0893,-5.5958,5.7866,0.0000,0.0000,0.0000,20.0000,117.7432,102.6667,131.1471,201.6645,26.3750,0.001318,-1.2694,-8.5748,0.3478,8.2270,-1.2694,0.3204,-9.3958,-4.2361,-1.0106,1.3651,0.297884,0.032405,1.138666,0.0035,0.1336,-0.0045,-180.0000,0.0000,0.0000
306,3.0600,1.4863,-0.1204,-5.5118,5.7099,0.0000,0.0000,0.0000,20.0000,116.0932,103.4506,183.9089,199.2366,27.5578,0.000724,-1.2694,-8.5748,0.3478,8.2270,-1.2694,0.3204,-9.3958,-4.2361,-1.0106,1.3651,0.299506,0.037298,1.121012,0.0100,0.1358,-0.0048,-180.0000,0.0000,0.0000
307,3.0700,1.5018,-0.1769,-5.3932,5.6012,0.0000,0.0000,0.0000,20.0000,113.8698,104.0849,253.2456,200.3005,28.7420,0.000804,-1.2694,-8.5748,0.3478,8.2270,-1.2694,0.3204,-9.3958,-4.2361,-1.0106,1.3651,0.301357,0.045577,1.097151,0.0183,0.1378,-0.0052,-180.0000,0.0000,0.0000
308,3.0800,1.5202,-0.2545,-5.2396,5.4616,0.0000,0.0000,0.0000,20.0000,111.0293,104.5450,331.6858,205.3704,29.9185,0.000775,-1.2694,-8.5748,0.3478,8.2270,-1.2694,0.3204,-9.3958,-4.2361,-1.0106,1.3651,0.303612,0.057822,1.066408,0.0298,0.1381,-0.0052,-180.0000,0.0000,0.0000
309,3.0900,1.5355,-0.3441,-5.0611,5.3001,0.0000,0.0000,0.0000,20.0000,107.6397,104.8085,401.9488,214.2512,31.0781,0.000744,-1.2694,-8.5748,0.3478,8.2270,-1.2694,0.3204,-9.3958,-4.2361,-1.0106,1.3651,0.305780,0.073439,1.029435,0.0386,0.1388,-0.0043,-180.0000,0.0000,0.0000
310,3.1000,1.5448,-0.4309,-4.8695,5.1268,0.0000,0.0000,0.0000,20.0000,103.8430,104.8598,450.8315,225.9206,32.2129,0.000773,-1.2694,-8.5748,0.3478,8.2270,-1.2694,0.3204,-9.3958,-4.2361,-1.0106,1.3651,0.307305,0.090596,0.987772,0.0450,0.1396,-0.0033,-180.0000,0.0000,0.0000
311,3.1100,1.5460,-0.4949,-4.6787,4.9523,0.0000,0.0000,0.0000,20.0000,99.8245,104.6934,468.0165,238.7651,33.3180,0.000754,-1.2694,-8.5748,0.3478,8.2270,-1.2694,0.3204,-9.3958,-4.2361,-1.0106,1.3651,0.307650,0.106305,0.943687,0.0474,0.1426,-0.0027,-180.0000,0.0000,0.0000
312,3.1200,1.5394,-0.5216,-4.5049,4.7892,0.0000,0.0000,0.0000,20.0000,99.1819,104.4079,133.8648,242.1853,34.4330,0.000676,-1.8901,-15.5373,0.2978,15.2395,-1.8901,1.2337,-7.8103,-5.7177,-1.4359,1.1056,0.314321,0.112593,0.933932,0.0445,0.1446,-0.0035,-180.0000,-0.0000,0.0000
313,3.1300,1.5275,-0.5019,-4.3510,4.6385,0.0000,0.0000,0.0000,20.0000,97.1269,104.0639,227.6829,238.8072,35.5419,0.000909,-1.8901,-15.5373,0.2978,15.2395,-1.8901,1.2337,-7.8103,-5.7177,-1.4359,1.1056,0.316185,0.113869,0.911276,0.0356,0.1479,-0.0052,-180.0000,-0.0000,0.0000
314,3.1400,1.5159,-0.4386,-4.2136,4.4994,0.0000,0.0000,0.0000,20.0000,94.4031,103.6074,286.9477,239.8253,36.6377,0.000681,-1.8901,-15.5373,0.2978,15.2395,-1.8901,1.2337,-7.8103,-5.7177,-1.4359,1.1056,0.315427,0.108020,0.883195,0.0260,0.1496,-0.0061,-180.0000,-0.0000,0.0000
315,3.1500,1.5133,-0.3509,-4.0895,4.3746,0.0000,0.0000,0.0000,20.0000,91.4493,103.0198,321.4421,243.3661,37.7177,0.000685,-1.8901,-15.5373,0.2978,15.2395,-1.8901,1.2337,-7.8103,-5.7177,-1.4359,1.1056,0.314116,0.095797,0.853494,0.0136,0.1496,-0.0070,-180.0000,-0.0000,0.0000
316,3.1600,1.5226,-0.2544,-3.9745,4.2637,0.0000,0.0000,0.0000,20.0000,88.5116,102.3026,339.6355,248.1613,38.7813,0.000769,-1.8901,-15.5373,0.2978,15.2395,-1.8901,1.2337,-7.8103,-5.7177,-1.4359,1.1056,0.313692,0.079198,0.823866,0.0036,0.1460,-0.0070,-180.0000,-0.0000,0.0000
317,3.1700,1.5324,-0.1511,-3.8604,4.1561,0.0000,0.0000,0.0000,20.0000,85.6235,101.4645,353.9830,253.5877,39.8277,0.000880,-1.8901,-15.5373,0.2978,15.2395,-1.8901,1.2337,-7.8103,-5.7177,-1.4359,1.1056,0.313810,0.059538,0.794429,-0.0040,0.1430,-0.0065,-180.0000,-0.0000,0.0000
318,3.1800,1.5393,-0.0464,-3.7442,4.0486,0.0000,0.0000,0.0000,20.0000,82.7747,100.5148,364.5911,259.4020,40.8557,0.000776,-1.8901,-15.5373,0.2978,15.2395,-1.8901,1.2337,-7.8103,-5.7177,-1.4359,1.1056,0.313941,0.038078,0.764955,-0.0088,0.1389,-0.0047,-180.0000,-0.0000,0.0000
319,3.1900,1.5460,0.0525,-3.6320,3.9477,0.0000,0.0000,0.0000,20.0000,80.0285,99.4634,363.3249,265.1534,41.8646,0.000845,-1.8901,-15.5373,0.2978,15.2395,-1.8901,1.2337,-7.8103,-5.7177,-1.4359,1.1056,0.314056,0.016253,0.735909,-0.0142,0.1343,-0.0045,-180.0000,-0.0000,0.0000
320,3.2000,1.5378,0.1380,-3.5186,3.8424,0.0000,0.0000,0.0000,20.0000,77.3100,98.3195,355.2421,270.3314,42.8525,0.000759,-1.8901,-15.5373,0.2978,15.2395,-1.8901,1.2337,-7.8103,-5.7177,-1.4359,1.1056,0.312670,-0.004399,0.707037,-0.0172,0.1288,-0.0042,-180.0000,-0.0000,0.0000
321,3.2100,1.5165,0.2086,-3.3919,3.7214,0.0000,0.0000,0.0000,20.0000,74.4597,97.0855,354.3487,274.9776,43.8157,0.000912,-1.8901,-15.5373,0.2978,15.2395,-1.8901,1.2337,-7.8103,-5.7177,-1.4359,1.1056,0.309150,-0.022864,0.677000,-0.0181,0.1229,-0.0038,-180.0000,-0.0000,0.0000
322,3.2200,1.4988,0.2654,-3.2573,3.5953,0.0000,0.0000,0.0000,20.0000,71.4964,95.7594,354.5861,279.3501,44.7505,0.001943,-1.8901,-15.5373,0.2978,15.2395,-1.8901,1.2337,-7.8103,-5.7177,-1.4359,1.1056,0.304814,-0.038703,0.645573,-0.0172,0.1182,-0.0026,-180.0000,-0.0000,0.0000
323,3.2300,1.4869,0.3036,-3.1256,3.4745,0.0000,0.0000,0.0000,20.0000,68.5326,94.3432,344.5393,283.2124,45.6546,0.000763,-1.8901,-15.5373,0.2978,15.2395,-1.8901,1.2337,-7.8103,-5.7177,-1.4359,1.1056,0.300615,-0.051205,0.613743,-0.0162,0.1143,-0.0014,-180.0000,-0.0000,0.0000
324,3.2400,1.4692,0.3196,-2.9976,3.3536,0.0000,0.0000,0.0000,20.0000,65.5739,92.8420,330.5058,286.1999,46.5263,0.000730,-1.8901,-15.5373,0.2978,15.2395,-1.8901,1.2337,-7.8103,-5.7177,-1.4359,1.1056,0.295923,-0.059609,0.582125,-0.0131,0.1114,-0.0004,-180.0000,-0.0000,0.0000
325,3.2500,1.4519,0.3190,-2.8775,3.2388,0.0000,0.0000,0.0000,20.0000,62.6822,91.2625,313.7193,288.1754,47.3651,0.000718,-1.8901,-15.5373,0.2978,15.2395,-1.8901,1.2337,-7.8103,-5.7177,-1.4359,1.1056,0.291012,-0.064079,0.551464,-0.0088,0.1084,0.0001,-180.0000,-0.0000,0.0000
326,3.2600,1.4364,0.2972,-2.7753,3.1391,0.0000,0.0000,0.0000,20.0000,59.9791,89.6160,286.8270,288.8408,48.1724,0.000745,-1.8901,-15.5373,0.2978,15.2395,-1.8901,1.2337,-7.8103,-5.7177,-1.4359,1.1056,0.286164,-0.064242,0.523194,-0.0054,0.1074,-0.0005,-180.0000,-0.0000,0.0000
327,3.2700,1.4143,0.2531,-2.6865,3.0466,0.0000,0.0000,0.0000,20.0000,57.4476,87.9161,264.9910,288.1295,48.9499,0.000696,-1.8901,-15.5373,0.2978,15.2395,-1.8901,1.2337,-7.8103,-5.7177,-1.4359,1.1056,0.280701,-0.059798,0.497648,-0.0017,0.1043,-0.0011,-180.0000,-0.0000,0.0000
328,3.2800,1.3768,0.1934,-2.6030,2.9510,0.0000,0.0000,0.0000,20.0000,54.9727,86.1721,260.3680,286.7295,49.6982,0.000653,-1.8901,-15.5373,0.2978,15.2395,-1.8901,1.2337,-7.8103,-5.7177,-1.4359,1.1056,0.273375,-0.051243,0.474174,0.0023,0.1029,-0.0025,-180.0000,-0.0000,0.0000
329,3.2900,1.3357,0.1305,-2.5240,2.8587,0.0000,0.0000,0.0000,20.0000,52.5626,84.3896,259.9114,285.2669,50.4179,0.000813,-1.8901,-15.5373,0.2978,15.2395,-1.8901,1.2337,-7.8103,-5.7177,-1.4359,1.1056,0.264664,-0.040123,0.452356,0.0038,0.1018,-0.0029,-180.0000,-0.0000,0.0000
330,3.3000,1.3084,0.0796,-2.4553,2.7833,0.0000,0.0000,0.0000,20.0000,50.3722,82.5786,242.2533,283.3865,51.1110,0.000753,-1.8901,-15.5373,0.2978,15.2395,-1.8901,1.2337,-7.8103,-5.7177,-1.4359,1.1056,0.256591,-0.028812,0.432513,0.0035,0.1030,-0.0025,-180.0000,-0.0000,0.0000
331,3.3100,1.3002,0.0555,-2.4031,2.7328,0.0000,0.0000,0.0000,20.0000,48.5701,80.7574,200.1479,279.9657,51.7821,0.000781,-1.8901,-15.5373,0.2978,15.2395,-1.8901,1.2337,-7.8103,-5.7177,-1.4359,1.1056,0.250792,-0.020089,0.415458,0.0015,0.1047,-0.0030,-180.0000,-0.0000,0.0000
332,3.3200,1.3188,0.0546,-2.3673,2.7104,0.0000,0.0000,0.0000,20.0000,50.8966,79.0508,241.0838,276.7010,52.4912,0.000723,-1.9240,-21.7262,-0.4697,22.1959,-1.9240,-0.0035,-5.7326,-7.9229,-1.7188,0.0001,0.259710,-0.015759,0.437434,-0.0049,0.1079,-0.0023,-180.0000,0.0000,-0.0000
333,3.3300,1.3605,0.0712,-2.3413,2.7088,0.0000,0.0000,0.0000,20.0000,52.0777,77.5346,122.1851,271.4716,53.2209,0.000679,-1.9240,-21.7262,-0.4697,22.1959,-1.9240,-0.0035,-5.7326,-7.9229,-1.7188,0.0001,0.268289,-0.014989,0.446099,-0.0111,0.1101,-0.0010,-180.0000,0.0000,-0.0000
334,3.3400,1.4047,0.0965,-2.3091,2.7046,0.0000,0.0000,0.0000,20.0000,52.5920,76.1484,89.0220,262.3475,53.9610,0.000723,-1.9240,-21.7262,-0.4697,22.1959,-1.9240,-0.0035,-5.7326,-7.9229,-1.7188,0.0001,0.276920,-0.017061,0.446784,-0.0140,0.1108,-0.0000,-180.0000,0.0000,-0.0000
335,3.3500,1.4295,0.1162,-2.2541,2.6717,0.0000,0.0000,0.0000,20.0000,52.4517,74.8488,95.1459,252.9817,54.7013,0.000718,-1.9240,-21.7262,-0.4697,22.1959,-1.9240,-0.0035,-5.7326,-7.9229,-1.7188,0.0001,0.283614,-0.020145,0.440767,-0.0127,0.1077,0.0010,-180.0000,0.0000,-0.0000
336,3.3600,1.4222,0.1192,-2.1625,2.5910,0.0000,0.0000,0.0000,20.0000,51.4747,73.5899,137.2855,245.4584,55.4296,0.000761,-1.9240,-21.7262,-0.4697,22.1959,-1.9240,-0.0035,-5.7326,-7.9229,-1.7188,0.0001,0.286023,-0.022113,0.427395,-0.0066,0.1026,0.0027,-180.0000,0.0000,-0.0000
337,3.3700,1.3786,0.0925,-2.0329,2.4580,0.0000,0.0000,0.0000,20.0000,49.5150,72.3195,215.6631,241.6638,56.1310,0.000793,-1.9240,-21.7262,-0.4697,22.1959,-1.9240,-0.0035,-5.7326,-7.9229,-1.7188,0.0001,0.282417,-0.020486,0.406195,0.0060,0.0958,0.0017,-180.0000,0.0000,-0.0000
338,3.3800,1.3109,0.0331,-1.8751,2.2882,0.0000,0.0000,0.0000,20.0000,46.6434,70.9861,305.9149,242.7158,56.7917,0.000718,-1.9240,-21.7262,-0.4697,22.1959,-1.9240,-0.0035,-5.7326,-7.9229,-1.7188,0.0001,0.273093,-0.013605,0.377883,0.0207,0.0882,0.0009,-180.0000,0.0000,-0.0000
339,3.3900,1.2355,-0.0489,-1.7052,2.1064,0.0000,0.0000,0.0000,20.0000,43.1508,69.5509,378.8477,248.1982,57.4007,0.000692,-1.9240,-21.7262,-0.4697,22.1959,-1.9240,-0.0035,-5.7326,-7.9229,-1.7188,0.0001,0.259854,-0.001573,0.344488,0.0356,0.0798,0.0004,-180.0000,0.0000,-0.0000
340,3.4000,1.1601,-0.1360,-1.5317,1.9262,0.0000,0.0000,0.0000,20.0000,39.3459,67.9941,424.9044,256.6517,57.9514,0.000808,-1.9240,-21.7262,-0.4697,22.1959,-1.9240,-0.0035,-5.7326,-7.9229,-1.7188,0.0001,0.244476,0.013792,0.307980,0.0452,0.0728,0.0012,-180.0000,0.0000,-0.0000
341,3.4100,1.0894,-0.2078,-1.3541,1.7503,0.0000,0.0000,0.0000,20.0000,35.4446,66.3109,445.9597,266.4861,58.4394,0.000770,-1.9240,-21.7262,-0.4697,22.1959,-1.9240,-0.0035,-5.7326,-7.9229,-1.7188,0.0001,0.228414,0.029436,0.269430,0.0478,0.0636,0.0022,-180.0000,0.0000,-0.0000
342,3.4200,1.0155,-0.2467,-1.1721,1.5703,0.0000,0.0000,0.0000,20.0000,31.4935,64.5043,451.6058,276.5138,58.8620,0.000701,-1.9240,-21.7262,-0.4697,22.1959,-1.9240,-0.0035,-5.7326,-7.9229,-1.7188,0.0001,0.211684,0.041920,0.229383,0.0452,0.0506,0.0024,-180.0000,0.0000,-0.0000
343,3.4300,0.9199,-0.2462,-0.9869,1.3715,0.0000,0.0000,0.0000,20.0000,27.3595,62.5748,458.9285,286.3467,59.2166,0.000762,-1.9240,-21.7262,-0.4697,22.1959,-1.9240,-0.0035,-5.7326,-7.9229,-1.7188,0.0001,0.192459,0.048688,0.188265,0.0379,0.0345,0.0029,-180.0000,0.0000,-0.0000
344,3.4400,0.7944,-0.2126,-0.8065,1.1519,0.0000,0.0000,0.0000,20.0000,22.9275,60.5158,474.1833,296.2597,59.5015,0.000722,-1.9240,-21.7262,-0.4697,22.1959,-1.9240,-0.0035,-5.7326,-7.9229,-1.7188,0.0001,0.168895,0.048973,0.147117,0.0261,0.0191,0.0036,-180.0000,0.0000,-0.0000
345,3.4500,0.6459,-0.1597,-0.6441,0.9261,0.0000,0.0000,0.0000,20.0000,18.2572,58.3196,486.4695,306.3848,59.7176,0.000767,-1.9240,-21.7262,-0.4697,22.1959,-1.9240,-0.0035,-5.7326,-7.9229,-1.7188,0.0001,0.140683,0.043735,0.107833,0.0129,0.0073,0.0013,-180.0000,0.0000,-0.0000
346,3.4600,0.4957,-0.0940,-0.5024,0.7120,0.0000,0.0000,0.0000,20.0000,13.5523,55.9865,484.6931,316.2420,59.8685,0.000711,-1.9240,-21.7262,-0.4697,22.1959,-1.9240,-0.0035,-5.7326,-7.9229,-1.7188,0.0001,0.109783,0.034185,0.071733,0.0043,0.0050,-0.0006,-180.0000,0.0000,-0.0000
347,3.4700,0.3607,-0.0262,-0.3900,0.5319,0.0000,0.0000,0.0000,20.0000,9.1412,53.5309,455.8367,324.7145,59.9611,0.000684,-1.9240,-21.7262,-0.4697,22.1959,-1.9240,-0.0035,-5.7326,-7.9229,-1.7188,0.0001,0.078979,0.022053,0.040399,-0.0066,0.0068,0.0015,-180.0000,0.0000,-0.0000
348,3.4800,0.2553,0.0285,-0.3136,0.4054,0.0000,0.0000,0.0000,20.0000,5.4403,50.9874,393.0567,330.2006,60.0060,0.000762,-1.9240,-21.7262,-0.4697,22.1959,-1.9240,-0.0035,-5.7326,-7.9229,-1.7188,0.0001,0.051255,0.009839,0.015357,-0.0095,0.0097,0.0007,-180.0000,0.0000,-0.0000
349,3.4900,0.1891,0.0622,-0.2533,0.3222,0.0000,0.0000,0.0000,20.0000,2.9560,48.4136,313.8952,331.4809,60.0129,0.000740,-1.9240,-21.7262,-0.4697,22.1959,-1.9240,-0.0035,-5.7326,-7.9229,-1.7188,0.0001,0.029206,-0.000307,-0.004549,-0.0096,0.0113,0.0004,-180.0000,0.0000,-0.0000
350,3.5000,0.1389,0.0727,-0.2100,0.2621,0.0000,0.0000,0.0000,20.0000,2.4213,45.8983,240.2507,328.4881,59.9903,0.000664,-1.9240,-21.7262,-0.4697,22.1959,-1.9240,-0.0035,-5.7326,-7.9229,-1.7188,0.0001,0.011945,-0.006964,-0.019877,-0.0094,0.0079,0.0013,-180.0000,0.0000,-0.0000
351,3.5100,0.0908,0.0681,-0.1833,0.2156,0.0000,0.0000,0.0000,20.0000,3.2698,43.5301,184.5138,322.1013,59.9451,0.000763,-1.9240,-21.7262,-0.4697,22.1959,-1.9240,-0.0035,-5.7326,-7.9229,-1.7188,0.0001,-0.002438,-0.010168,-0.030981,-0.0072,0.0060,-0.0001,-180.0000,0.0000,-0.0000
352,3.5200,0.0561,0.0639,-0.1609,0.1820,0.0000,0.0000,0.0000,20.0000,1.9662,41.2796,158.7788,313.8251,59.9230,0.000762,-1.9432,-24.7906,-1.5810,26.3716,-1.9432,-0.0100,-5.8225,-11.4355,-2.1619,0.0001,-0.003224,-0.012010,-0.015230,-0.0038,0.0051,-0.0006,-180.0000,0.0000,0.0000
353,3.5300,0.0319,0.0581,-0.1445,0.1590,0.0000,0.0000,0.0000,20.0000,1.6042,39.1071,76.6107,303.0363,59.9101,0.000757,-1.9432,-24.7906,-1.5810,26.3716,-1.9432,-0.0100,-5.8225,-11.4355,-2.1619,0.0001,-0.006072,-0.012426,-0.008130,-0.0018,0.0041,-0.0006,-180.0000,0.0000,0.0000
354,3.5400,0.0136,0.0471,-0.1401,0.1485,0.0000,0.0000,0.0000,20.0000,1.5612,37.0429,49.5631,289.8372,59.9005,0.000791,-1.9432,-24.7906,-1.5810,26.3716,-1.9432,-0.0100,-5.8225,-11.4355,-2.1619,0.0001,-0.009462,-0.011523,-0.004629,0.0003,0.0047,-0.0010,-180.0000,0.0000,0.0000
355,3.5500,0.0099,0.0431,-0.1444,0.1511,0.0000,0.0000,0.0000,20.0000,1.5943,35.0921,33.7698,276.1858,59.8933,0.000729,-1.9432,-24.7906,-1.5810,26.3716,-1.9432,-0.0100,-5.8225,-11.4355,-2.1619,0.0001,-0.011685,-0.010608,-0.002257,0.0029,0.0040,-0.0016,-180.0000,0.0000,0.0000
356,3.5600,0.0199,0.0465,-0.1534,0.1616,0.0000,0.0000,0.0000,20.0000,1.5809,33.2491,22.3628,262.5373,59.8892,0.000714,-1.9432,-24.7906,-1.5810,26.3716,-1.9432,-0.0100,-5.8225,-11.4355,-2.1619,0.0001,-0.011892,-0.010416,-0.000039,0.0034,0.0005,-0.0025,-180.0000,0.0000,0.0000
357,3.5700,0.0389,0.0476,-0.1667,0.1777,0.0000,0.0000,0.0000,20.0000,1.4701,31.5040,31.2700,249.5707,59.8898,0.000757,-1.9432,-24.7906,-1.5810,26.3716,-1.9432,-0.0100,-5.8225,-11.4355,-2.1619,0.0001,-0.010087,-0.010396,0.002514,0.0030,0.0005,-0.0036,-180.0000,0.0000,0.0000
358,3.5800,0.0668,0.0542,-0.1773,0.1971,0.0000,0.0000,0.0000,20.0000,1.3637,29.8490,45.7724,237.9613,59.8958,0.000711,-1.9432,-24.7906,-1.5810,26.3716,-1.9432,-0.0100,-5.8225,-11.4355,-2.1619,0.0001,-0.006283,-0.011033,0.004979,0.0025,0.0019,-0.0041,-180.0000,0.0000,0.0000
359,3.5900,0.0969,0.0672,-0.1809,0.2160,0.0000,0.0000,0.0000,20.0000,1.4365,28.2841,56.5007,227.6844,59.9070,0.000739,-1.9432,-24.7906,-1.5810,26.3716,-1.9432,-0.0100,-5.8225,-11.4355,-2.1619,0.0001,-0.001150,-0.012659,0.006693,0.0015,0.0020,-0.0036,-180.0000,0.0000,0.0000
360,3.6000,0.1184,0.0716,-0.1786,0.2259,0.0000,0.0000,0.0000,20.0000,1.6263,26.8125,52.0606,218.1459,59.9218,0.000743,-1.9432,-24.7906,-1.5810,26.3716,-1.9432,-0.0100,-5.8225,-11.4355,-2.1619,0.0001,0.003840,-0.013967,0.007393,0.0008,0.0031,-0.0043,-180.0000,0.0000,0.0000
361,3.6100,0.1231,0.0611,-0.1684,0.2174,0.0000,0.0000,0.0000,20.0000,1.6759,25.4284,33.0261,208.4863,59.9371,0.003529,-1.9432,-24.7906,-1.5810,26.3716,-1.9432,-0.0100,-5.8225,-11.4355,-2.1619,0.0001,0.007061,-0.013617,0.006751,0.0006,0.0034,-0.0045,-180.0000,0.0000,0.0000
362,3.6200,0.1041,0.0414,-0.1466,0.1845,0.0000,0.0000,0.0000,20.0000,1.4003,24.1142,33.6618,198.8521,59.9482,0.000731,-1.9432,-24.7906,-1.5810,26.3716,-1.9432,-0.0100,-5.8225,-11.4355,-2.1619,0.0001,0.006923,-0.011425,0.004200,0.0015,0.0017,-0.0039,-180.0000,0.0000,0.0000
363,3.6300,0.0660,0.0267,-0.1194,0.1390,0.0000,0.0000,0.0000,20.0000,0.9228,22.8516,62.9562,190.5710,59.9511,0.000798,-1.9432,-24.7906,-1.5810,26.3716,-1.9432,-0.0100,-5.8225,-11.4355,-2.1619,0.0001,0.003023,-0.008719,0.000065,0.0031,-0.0000,-0.0044,-180.0000,0.0000,0.0000
364,3.6400,0.0318,0.0320,-0.1009,0.1105,0.0000,0.0000,0.0000,20.0000,0.9114,21.6451,70.1835,183.7499,59.9451,0.000895,-1.9432,-24.7906,-1.5810,26.3716,-1.9432,-0.0100,-5.8225,-11.4355,-2.1619,0.0001,-0.002562,-0.007741,-0.004073,0.0034,-0.0005,-0.0040,-180.0000,0.0000,0.0000
365,3.6500,0.0125,0.0497,-0.0936,0.1067,0.0000,0.0000,0.0000,20.0000,1.3699,20.5172,59.7116,177.2149,59.9325,0.000720,-1.9432,-24.7906,-1.5810,26.3716,-1.9432,-0.0100,-5.8225,-11.4355,-2.1619,0.0001,-0.007575,-0.008953,-0.007082,0.0026,-0.0004,-0.0032,-180.0000,0.0000,0.0000
366,3.6600,0.0104,0.0696,-0.0939,0.1173,0.0000,0.0000,0.0000,20.0000,1.7923,19.4755,42.8867,170.2885,59.9166,0.000744,-1.9432,-24.7906,-1.5810,26.3716,-1.9432,-0.0100,-5.8225,-11.4355,-2.1619,0.0001,-0.010539,-0.011592,-0.008705,0.0019,0.0000,-0.0021,-180.0000,0.0000,0.0000
367,3.6700,0.0241,0.0873,-0.0980,0.1335,0.0000,0.0000,0.0000,20.0000,2.0482,18.5098,32.5518,162.9961,59.9004,0.000816,-1.9432,-24.7906,-1.5810,26.3716,-1.9432,-0.0100,-5.8225,-11.4355,-2.1619,0.0001,-0.010779,-0.014804,-0.009174,-0.0022,0.0015,-0.0025,-180.0000,0.0000,0.0000
368,3.6800,0.0466,0.0908,-0.0944,0.1390,0.0000,0.0000,0.0000,20.0000,2.1344,17.6067,30.4707,155.7634,59.8847,0.000717,-1.9432,-24.7906,-1.5810,26.3716,-1.9432,-0.0100,-5.8225,-11.4355,-2.1619,0.0001,-0.008642,-0.016894,-0.009771,-0.0036,0.0007,-0.0021,-180.0000,0.0000,0.0000
369,3.6900,0.0578,0.0738,-0.0759,0.1206,0.0000,0.0000,0.0000,20.0000,2.1179,16.7551,32.2330,148.9198,59.8668,0.000739,-1.9432,-24.7906,-1.5810,26.3716,-1.9432,-0.0100,-5.8225,-11.4355,-2.1619,0.0001,-0.006324,-0.016314,-0.011934,-0.0023,0.0004,-0.0023,-180.0000,0.0000,0.0000
