GerardoEmirSanchez/Integraci-n-de-xArm5-5-DOF-en-NVIDIA-Isaac-Sim-con-ROS-2-Humble-para-pHRI/mediciones/2026.04.28_VIC_pHRI_tanh_2026-04-28_13-59-18.csv
Index,Time_s,Fx,Fy,Fz,F_Amp,Psi_Imp,Psi_Int,Beta,K_Stiffness,Vel_Raw,Vel_Filt,Acc_Raw,Acc_Filt,Lyapunov_V_Nmm,Loop_Duration_s,q1,q2,q3,q4,q5,tau1,tau2,tau3,tau4,tau5,deltaXcmd,deltaYcmd,deltaZcmd,Tx_EE,Ty_EE,Tz_EE,Roll,Pitch,Yaw
0,0.0000,-0.0259,0.0128,-0.0141,0.0321,0.0000,0.0000,0.0000,20.0000,0.4399,0.0489,24.9681,2.2108,0.0000,0.000787,219.0535,12.1854,-75.9173,63.7319,219.0535,-0.0000,-17.0423,-11.1371,-0.9857,-0.0000,-0.003291,-0.001088,0.002709,0.0027,0.0035,-0.0021,180.0000,0.0000,0.0000
1,0.0100,-0.0437,0.0217,-0.0237,0.0542,0.0000,0.0000,0.0000,20.0000,0.7788,0.0797,35.3074,3.7470,0.0000,0.000803,219.0535,12.1854,-75.9173,63.7319,219.0535,-0.0000,-17.0423,-11.1371,-0.9857,-0.0000,-0.006178,-0.002772,0.003848,0.0006,0.0018,-0.0020,180.0000,0.0000,0.0000
2,0.0200,-0.0463,0.0251,-0.0371,0.0644,0.0000,0.0000,0.0000,20.0000,1.0693,0.1261,29.7229,5.3295,0.0000,0.000794,219.0535,12.1854,-75.9173,63.7319,219.0535,-0.0000,-17.0423,-11.1371,-0.9857,-0.0000,-0.008018,-0.004040,0.005808,0.0004,0.0002,-0.0002,180.0000,0.0000,0.0000
3,0.0300,-0.0397,0.0329,-0.0536,0.0744,0.0000,0.0000,0.0000,20.0000,1.3157,0.1848,31.2044,6.7121,0.0000,0.000758,219.0535,12.1854,-75.9173,63.7319,219.0535,-0.0000,-17.0423,-11.1371,-0.9857,-0.0000,-0.008356,-0.005515,0.008536,0.0007,0.0002,-0.0009,180.0000,0.0000,0.0000
4,0.0400,-0.0294,0.0433,-0.0712,0.0884,0.0000,0.0000,0.0000,20.0000,1.5786,0.2542,38.3211,8.2551,0.0000,0.000786,219.0535,12.1854,-75.9173,63.7319,219.0535,-0.0000,-17.0423,-11.1371,-0.9857,-0.0000,-0.007496,-0.007354,0.011787,-0.0001,-0.0003,-0.0007,180.0000,0.0000,0.0000
5,0.0500,-0.0139,0.0457,-0.0853,0.0978,0.0000,0.0000,0.0000,20.0000,1.8108,0.3335,39.8240,9.9503,0.0001,0.000740,219.0535,12.1854,-75.9173,63.7319,219.0535,-0.0000,-17.0423,-11.1371,-0.9857,-0.0000,-0.005456,-0.008600,0.014972,-0.0008,-0.0007,-0.0014,180.0000,0.0000,0.0000
6,0.0600,0.0060,0.0419,-0.0936,0.1027,0.0000,0.0000,0.0000,20.0000,1.9791,0.4194,40.4749,11.6115,0.0001,0.000795,219.0535,12.1854,-75.9173,63.7319,219.0535,-0.0000,-17.0423,-11.1371,-0.9857,-0.0000,-0.002330,-0.008893,0.017526,-0.0027,-0.0009,0.0008,180.0000,0.0000,0.0000
7,0.0700,0.0201,0.0384,-0.0912,0.1010,0.0000,0.0000,0.0000,20.0000,2.0603,0.5074,33.4966,13.0073,0.0001,0.000724,219.0535,12.1854,-75.9173,63.7319,219.0535,-0.0000,-17.0423,-11.1371,-0.9857,-0.0000,0.000812,-0.008679,0.018668,-0.0033,0.0000,0.0005,180.0000,0.0000,0.0000
8,0.0800,0.0314,0.0281,-0.0820,0.0922,0.0000,0.0000,0.0000,20.0000,2.0158,0.5916,31.1112,14.0687,0.0002,0.000829,219.0535,12.1854,-75.9173,63.7319,219.0535,-0.0000,-17.0423,-11.1371,-0.9857,-0.0000,0.003679,-0.007519,0.018337,-0.0043,-0.0007,0.0016,180.0000,0.0000,0.0000
9,0.0900,0.0448,0.0126,-0.0720,0.0857,0.0000,0.0000,0.0000,20.0000,1.9100,0.6670,38.5457,15.2107,0.0002,0.000768,219.0535,12.1854,-75.9173,63.7319,219.0535,-0.0000,-17.0423,-11.1371,-0.9857,-0.0000,0.006596,-0.005314,0.017119,-0.0045,-0.0001,0.0019,180.0000,0.0000,0.0000
10,0.1000,0.0510,0.0004,-0.0618,0.0801,0.0000,0.0000,0.0000,20.0000,1.7966,0.7323,37.3044,16.4602,0.0002,0.000861,219.0535,12.1854,-75.9173,63.7319,219.0535,-0.0000,-17.0423,-11.1371,-0.9857,-0.0000,0.008815,-0.002862,0.015391,-0.0052,-0.0003,0.0020,180.0000,0.0000,0.0000
11,0.1100,0.0439,-0.0126,-0.0580,0.0738,0.0000,0.0000,0.0000,20.0000,1.6835,0.7877,30.3676,17.4160,0.0003,0.000823,219.0535,12.1854,-75.9173,63.7319,219.0535,-0.0000,-17.0423,-11.1371,-0.9857,-0.0000,0.009314,-0.000198,0.014022,-0.0049,0.0001,0.0019,180.0000,0.0000,0.0000
12,0.1200,0.0250,-0.0268,-0.0636,0.0734,0.0000,0.0000,0.0000,20.0000,1.6021,0.8348,33.2914,18.2088,0.0003,0.000822,219.0535,12.1854,-75.9173,63.7319,219.0535,-0.0000,-17.0423,-11.1371,-0.9857,-0.0000,0.007683,0.002695,0.013798,-0.0048,-0.0002,0.0012,180.0000,0.0000,0.0000
13,0.1300,0.0005,-0.0346,-0.0714,0.0793,0.0000,0.0000,0.0000,20.0000,1.5890,0.8766,41.7022,19.2698,0.0004,0.000759,219.0535,12.1854,-75.9173,63.7319,219.0535,-0.0000,-17.0423,-11.1371,-0.9857,-0.0000,0.004311,0.005066,0.014431,-0.0040,-0.0005,0.0002,180.0000,0.0000,0.0000
14,0.1400,-0.0266,-0.0330,-0.0810,0.0914,0.0000,0.0000,0.0000,20.0000,1.6974,0.9188,49.3573,20.7143,0.0004,0.000776,219.0543,12.1877,-75.9287,63.7410,219.0543,-0.0000,-17.0423,-11.1371,-0.9857,-0.0000,-0.000299,0.006166,0.015812,-0.0032,-0.0009,-0.0010,180.0000,0.0000,0.0000
15,0.1500,-0.0527,-0.0279,-0.0923,0.1099,0.0000,0.0000,0.0000,20.0000,1.9521,0.9686,54.8648,22.4414,0.0005,0.003310,219.0543,12.1877,-75.9287,63.7410,219.0543,-0.0000,-17.0423,-11.1371,-0.9857,-0.0000,-0.005460,0.006249,0.017669,-0.0028,-0.0017,-0.0024,180.0000,0.0000,0.0000
16,0.1600,-0.0736,-0.0138,-0.0984,0.1236,0.0000,0.0000,0.0000,20.0000,2.2427,1.0307,53.5566,24.1890,0.0006,0.000727,219.0543,12.1877,-75.9287,63.7410,219.0543,-0.0000,-17.0423,-11.1371,-0.9857,-0.0000,-0.010385,0.004880,0.019270,-0.0010,-0.0016,-0.0049,180.0000,0.0000,0.0000
17,0.1700,-0.0898,0.0060,-0.1023,0.1362,0.0000,0.0000,0.0000,20.0000,2.5327,1.1053,52.7251,25.7815,0.0007,0.000790,219.0543,12.1877,-75.9287,63.7410,219.0543,-0.0000,-17.0423,-11.1371,-0.9857,-0.0000,-0.014710,0.002130,0.020507,-0.0000,-0.0009,-0.0056,180.0000,0.0000,0.0000
18,0.1800,-0.0950,0.0199,-0.1030,0.1415,0.0000,0.0000,0.0000,20.0000,2.7572,1.1900,41.5771,26.9570,0.0008,0.000823,219.0543,12.1877,-75.9287,63.7410,219.0543,-0.0000,-17.0423,-11.1371,-0.9857,-0.0000,-0.017589,-0.000784,0.021219,0.0000,-0.0014,-0.0058,180.0000,0.0000,0.0000
19,0.1900,-0.0901,0.0324,-0.0925,0.1332,0.0000,0.0000,0.0000,20.0000,2.7977,1.2774,31.3031,27.4787,0.0010,0.000767,219.0543,12.1877,-75.9287,63.7410,219.0543,-0.0000,-17.0423,-11.1371,-0.9857,-0.0000,-0.018658,-0.003643,0.020525,0.0005,-0.0015,-0.0068,180.0000,0.0000,0.0000
20,0.2000,-0.0866,0.0449,-0.0762,0.1238,0.0000,0.0000,0.0000,20.0000,2.7177,1.3588,35.0175,27.7912,0.0011,0.000789,219.0543,12.1877,-75.9287,63.7410,219.0543,-0.0000,-17.0423,-11.1371,-0.9857,-0.0000,-0.018861,-0.006468,0.018466,0.0010,-0.0015,-0.0066,180.0000,0.0000,0.0000
21,0.2100,-0.0846,0.0525,-0.0631,0.1179,0.0000,0.0000,0.0000,20.0000,2.6146,1.4307,33.9136,28.1584,0.0013,0.000745,219.0543,12.1877,-75.9287,63.7410,219.0543,-0.0000,-17.0423,-11.1371,-0.9857,-0.0000,-0.018740,-0.008775,0.015983,0.0002,-0.0012,-0.0052,180.0000,0.0000,0.0000
22,0.2200,-0.0797,0.0636,-0.0557,0.1162,0.0000,0.0000,0.0000,20.0000,2.5393,1.4938,32.4798,28.4355,0.0014,0.000741,219.0543,12.1877,-75.9287,63.7410,219.0543,-0.0000,-17.0423,-11.1371,-0.9857,-0.0000,-0.018138,-0.011143,0.013843,0.0009,-0.0014,-0.0043,180.0000,0.0000,0.0000
23,0.2300,-0.0769,0.0848,-0.0591,0.1288,0.0000,0.0000,0.0000,20.0000,2.6189,1.5535,35.7240,28.7472,0.0016,0.000757,219.0543,12.1877,-75.9287,63.7410,219.0543,-0.0000,-17.0423,-11.1371,-0.9857,-0.0000,-0.017493,-0.014547,0.012972,0.0021,-0.0007,-0.0034,180.0000,0.0000,0.0000
24,0.2400,-0.0765,0.0984,-0.0741,0.1450,0.0000,0.0000,0.0000,20.0000,2.8311,1.6179,33.9627,29.0825,0.0017,0.000770,219.0543,12.1877,-75.9287,63.7410,219.0543,-0.0000,-17.0423,-11.1371,-0.9857,-0.0000,-0.017058,-0.017766,0.013961,0.0010,-0.0008,-0.0010,180.0000,0.0000,0.0000
25,0.2500,-0.0757,0.0938,-0.0905,0.1507,0.0000,0.0000,0.0000,20.0000,3.0028,1.6894,25.3526,29.1142,0.0020,0.000871,219.0543,12.1877,-75.9287,63.7410,219.0543,-0.0000,-17.0423,-11.1371,-0.9857,-0.0000,-0.016705,-0.019046,0.016121,-0.0003,0.0000,-0.0006,180.0000,0.0000,0.0000
26,0.2600,-0.0793,0.0776,-0.0978,0.1480,0.0000,0.0000,0.0000,20.0000,3.0591,1.7632,21.1993,28.7930,0.0022,0.000774,219.0543,12.1877,-75.9287,63.7410,219.0543,-0.0000,-17.0423,-11.1371,-0.9857,-0.0000,-0.016842,-0.018100,0.018014,-0.0003,0.0003,-0.0006,180.0000,0.0000,0.0000
27,0.2700,-0.0822,0.0558,-0.0972,0.1390,0.0000,0.0000,0.0000,20.0000,2.9838,1.8324,29.1740,28.5946,0.0025,0.000730,219.0543,12.1877,-75.9287,63.7410,219.0543,-0.0000,-17.0423,-11.1371,-0.9857,-0.0000,-0.017172,-0.015360,0.018960,-0.0017,0.0003,0.0001,180.0000,0.0000,0.0000
28,0.2800,-0.0879,0.0375,-0.0932,0.1335,0.0000,0.0000,0.0000,20.0000,2.8746,1.8927,34.5320,28.7739,0.0028,0.000769,219.0543,12.1877,-75.9287,63.7410,219.0543,-0.0000,-17.0423,-11.1371,-0.9857,-0.0000,-0.017889,-0.011984,0.019044,-0.0029,0.0008,0.0001,180.0000,0.0000,0.0000
29,0.2900,-0.0976,0.0274,-0.0825,0.1307,0.0000,0.0000,0.0000,20.0000,2.7839,1.9442,33.6525,29.0664,0.0031,0.000764,219.0543,12.1877,-75.9287,63.7410,219.0543,-0.0000,-17.0423,-11.1371,-0.9857,-0.0000,-0.019214,-0.009077,0.017984,-0.0030,-0.0003,-0.0011,180.0000,0.0000,0.0000
30,0.3000,-0.0915,0.0316,-0.0677,0.1182,0.0000,0.0000,0.0000,20.0000,2.6211,1.9859,24.1674,29.0578,0.0033,0.000794,219.0543,12.1877,-75.9287,63.7410,219.0543,-0.0000,-17.0423,-11.1371,-0.9857,-0.0000,-0.019302,-0.007881,0.015886,-0.0015,-0.0011,-0.0010,180.0000,0.0000,0.0000
31,0.3100,-0.0704,0.0512,-0.0551,0.1031,0.0000,0.0000,0.0000,20.0000,2.3673,2.0139,34.7138,29.0789,0.0036,0.000654,219.0543,12.1877,-75.9287,63.7410,219.0543,-0.0000,-17.0423,-11.1371,-0.9857,-0.0000,-0.017205,-0.009162,0.013434,0.0002,-0.0011,-0.0014,180.0000,0.0000,0.0000
32,0.3200,-0.0550,0.0635,-0.0358,0.0913,0.0000,0.0000,0.0000,20.0000,2.0846,2.0256,47.0782,29.7289,0.0038,0.000778,219.0543,12.1877,-75.9287,63.7410,219.0543,-0.0000,-17.0423,-11.1371,-0.9857,-0.0000,-0.014469,-0.011082,0.010119,0.0024,0.0009,-0.0014,180.0000,0.0000,0.0000
33,0.3300,-0.0475,0.0589,-0.0048,0.0758,0.0000,0.0000,0.0000,20.0000,1.7633,2.0200,54.8879,30.8981,0.0040,0.001022,219.0543,12.1877,-75.9287,63.7410,219.0543,-0.0000,-17.0423,-11.1371,-0.9857,-0.0000,-0.012175,-0.011662,0.005166,0.0019,0.0013,-0.0013,180.0000,0.0000,0.0000
34,0.3400,-0.0442,0.0457,0.0258,0.0686,0.0000,0.0000,0.0000,20.0000,1.5254,1.9993,55.4881,32.2342,0.0041,0.000663,219.0522,12.2032,-75.9920,63.7888,219.0522,-0.0002,-17.0718,-17.9163,-0.9882,-0.0000,-0.010793,-0.010779,-0.000135,0.0022,0.0029,-0.0005,180.0000,-0.0000,-0.0000
35,0.3500,-0.0489,0.0171,0.0491,0.0714,0.0000,0.0000,0.0000,20.0000,1.3924,1.9696,62.5215,33.7068,0.0042,0.000822,219.0522,12.2032,-75.9920,63.7888,219.0522,-0.0002,-17.0718,-17.9163,-0.9882,-0.0000,-0.010481,-0.007412,-0.005394,0.0003,0.0020,0.0006,180.0000,-0.0000,-0.0000
36,0.3600,-0.0548,-0.0232,0.0660,0.0888,0.0000,0.0000,0.0000,20.0000,1.4833,1.9403,74.8178,35.6300,0.0041,0.000886,219.0522,12.2032,-75.9920,63.7888,219.0522,-0.0002,-17.0718,-17.9163,-0.9882,-0.0000,-0.010873,-0.001510,-0.009976,-0.0034,0.0015,0.0007,180.0000,-0.0000,-0.0000
37,0.3700,-0.0550,-0.0520,0.0787,0.1092,0.0000,0.0000,0.0000,20.0000,1.8274,1.9246,72.2702,37.7156,0.0041,0.000659,219.0522,12.2032,-75.9920,63.7888,219.0522,-0.0002,-17.0718,-17.9163,-0.9882,-0.0000,-0.011089,0.004641,-0.013763,-0.0040,0.0003,0.0013,180.0000,-0.0000,-0.0000
38,0.3800,-0.0517,-0.0586,0.0833,0.1142,0.0000,0.0000,0.0000,20.0000,2.1419,1.9279,47.7412,38.9417,0.0039,0.000819,219.0522,12.2032,-75.9920,63.7888,219.0522,-0.0002,-17.0718,-17.9163,-0.9882,-0.0000,-0.010862,0.008685,-0.016291,-0.0029,0.0000,0.0017,180.0000,-0.0000,-0.0000
39,0.3900,-0.0460,-0.0521,0.0780,0.1045,0.0000,0.0000,0.0000,20.0000,2.2390,1.9424,19.1771,38.6402,0.0038,0.001315,219.0522,12.2032,-75.9920,63.7888,219.0522,-0.0002,-17.0718,-17.9163,-0.9882,-0.0000,-0.010145,0.010257,-0.017122,-0.0025,-0.0008,0.0009,180.0000,-0.0000,-0.0000
40,0.4000,-0.0387,-0.0339,0.0649,0.0828,0.0000,0.0000,0.0000,20.0000,2.0757,1.9542,17.4356,37.5216,0.0037,0.000706,219.0522,12.2032,-75.9920,63.7888,219.0522,-0.0002,-17.0718,-17.9163,-0.9882,-0.0000,-0.008995,0.009289,-0.016238,-0.0017,0.0004,0.0012,180.0000,-0.0000,-0.0000
41,0.4100,-0.0299,-0.0025,0.0462,0.0551,0.0000,0.0000,0.0000,20.0000,1.6692,1.9497,46.6570,37.2205,0.0036,0.000783,219.0522,12.2032,-75.9920,63.7888,219.0522,-0.0002,-17.0718,-17.9163,-0.9882,-0.0000,-0.007460,0.005588,-0.013847,-0.0004,0.0010,-0.0003,180.0000,-0.0000,-0.0000
42,0.4200,-0.0225,0.0212,0.0209,0.0373,0.0000,0.0000,0.0000,20.0000,1.1622,1.9203,60.9529,38.1327,0.0036,0.001222,219.0522,12.2032,-75.9920,63.7888,219.0522,-0.0002,-17.0718,-17.9163,-0.9882,-0.0000,-0.005857,0.001167,-0.009970,-0.0007,0.0018,-0.0001,180.0000,-0.0000,-0.0000
43,0.4300,-0.0113,0.0242,-0.0058,0.0274,0.0000,0.0000,0.0000,20.0000,0.6609,1.8648,59.1378,39.3381,0.0036,0.000684,219.0522,12.2032,-75.9920,63.7888,219.0522,-0.0002,-17.0718,-17.9163,-0.9882,-0.0000,-0.003845,-0.001584,-0.005137,-0.0005,0.0011,0.0009,180.0000,-0.0000,-0.0000
44,0.4400,0.0051,0.0111,-0.0230,0.0260,0.0000,0.0000,0.0000,20.0000,0.2213,1.7865,52.0312,40.2318,0.0036,0.000775,219.0522,12.2032,-75.9920,63.7888,219.0522,-0.0002,-17.0718,-17.9163,-0.9882,-0.0000,-0.001084,-0.001786,-0.000731,-0.0007,0.0007,0.0027,180.0000,-0.0000,-0.0000
45,0.4500,0.0263,-0.0092,-0.0282,0.0396,0.0000,0.0000,0.0000,20.0000,0.3399,1.7037,50.7400,40.8453,0.0036,0.000655,219.0522,12.2032,-75.9920,63.7888,219.0522,-0.0002,-17.0718,-17.9163,-0.9882,-0.0000,0.002562,0.000134,0.002229,-0.0002,-0.0009,0.0037,180.0000,-0.0000,-0.0000
46,0.4600,0.0472,-0.0268,-0.0228,0.0588,0.0000,0.0000,0.0000,20.0000,0.8009,1.6413,50.9583,41.3956,0.0036,0.000687,219.0522,12.2032,-75.9920,63.7888,219.0522,-0.0002,-17.0718,-17.9163,-0.9882,-0.0000,0.006667,0.002952,0.003313,0.0004,-0.0023,0.0031,180.0000,-0.0000,-0.0000
47,0.4700,0.0592,-0.0349,-0.0113,0.0697,0.0000,0.0000,0.0000,20.0000,1.1764,1.6054,42.2665,41.6826,0.0035,0.000856,219.0522,12.2032,-75.9920,63.7888,219.0522,-0.0002,-17.0718,-17.9163,-0.9882,-0.0000,0.010124,0.005320,0.002756,0.0001,-0.0037,0.0020,180.0000,-0.0000,-0.0000
48,0.4800,0.0581,-0.0275,0.0012,0.0643,0.0000,0.0000,0.0000,20.0000,1.3326,1.5861,24.2563,41.2194,0.0034,0.000772,219.0522,12.2032,-75.9920,63.7888,219.0522,-0.0002,-17.0718,-17.9163,-0.9882,-0.0000,0.011900,0.005878,0.001201,0.0002,-0.0026,0.0012,180.0000,-0.0000,-0.0000
49,0.4900,0.0387,-0.0023,0.0114,0.0404,0.0000,0.0000,0.0000,20.0000,1.1539,1.5673,30.7519,40.4649,0.0033,0.000666,219.0522,12.2032,-75.9920,63.7888,219.0522,-0.0002,-17.0718,-17.9163,-0.9882,-0.0000,0.010923,0.003654,-0.000686,0.0013,-0.0022,-0.0005,180.0000,-0.0000,-0.0000
50,0.5000,0.0079,0.0298,0.0168,0.0352,0.0000,0.0000,0.0000,20.0000,0.7669,1.5339,59.6706,40.7260,0.0032,0.000865,219.0522,12.2032,-75.9920,63.7888,219.0522,-0.0002,-17.0718,-17.9163,-0.9882,-0.0000,0.007282,-0.000800,-0.002268,-0.0002,-0.0021,-0.0013,180.0000,-0.0000,-0.0000
51,0.5100,-0.0175,0.0544,0.0128,0.0586,0.0000,0.0000,0.0000,20.0000,0.6897,1.4896,67.3000,41.9779,0.0032,0.000815,219.0522,12.2032,-75.9920,63.7888,219.0522,-0.0002,-17.0718,-17.9163,-0.9882,-0.0000,0.002713,-0.005719,-0.002739,-0.0004,-0.0020,0.0009,180.0000,-0.0000,-0.0000
52,0.5200,-0.0360,0.0653,0.0002,0.0746,0.0000,0.0000,0.0000,20.0000,0.9816,1.4536,58.8358,43.1381,0.0032,0.000689,219.0522,12.2032,-75.9920,63.7888,219.0522,-0.0002,-17.0718,-17.9163,-0.9882,-0.0000,-0.001668,-0.009517,-0.001735,-0.0002,-0.0004,0.0000,180.0000,-0.0000,-0.0000
53,0.5300,-0.0496,0.0598,-0.0178,0.0797,0.0000,0.0000,0.0000,20.0000,1.2332,1.4346,47.1226,43.6794,0.0033,0.000814,219.0522,12.2032,-75.9920,63.7888,219.0522,-0.0002,-17.0718,-17.9163,-0.9882,-0.0000,-0.005446,-0.011047,0.000629,-0.0015,-0.0007,-0.0001,180.0000,-0.0000,-0.0000
54,0.5400,-0.0532,0.0416,-0.0396,0.0783,0.0000,0.0000,0.0000,20.0000,1.3910,1.4278,47.8647,43.8892,0.0035,0.000691,219.0429,12.2462,-76.0671,63.8209,219.0429,0.0005,-17.0916,-16.2455,-0.9879,-0.0000,-0.008375,-0.010230,0.004326,-0.0016,-0.0011,-0.0002,180.0000,-0.0000,0.0000
55,0.5500,-0.0540,0.0305,-0.0588,0.0855,0.0000,0.0000,0.0000,20.0000,1.5637,1.4306,45.8119,44.0514,0.0036,0.001981,219.0429,12.2462,-76.0671,63.8209,219.0429,0.0005,-17.0916,-16.2455,-0.9879,-0.0000,-0.010060,-0.008646,0.008280,0.0001,-0.0003,-0.0013,180.0000,-0.0000,0.0000
56,0.5600,-0.0584,0.0282,-0.0737,0.0982,0.0000,0.0000,0.0000,20.0000,1.8146,1.4448,40.6361,44.0059,0.0039,0.000793,219.0429,12.2462,-76.0671,63.8209,219.0429,0.0005,-17.0916,-16.2455,-0.9879,-0.0000,-0.011407,-0.007516,0.011944,-0.0009,-0.0005,-0.0025,180.0000,-0.0000,0.0000
57,0.5700,-0.0625,0.0278,-0.0832,0.1077,0.0000,0.0000,0.0000,20.0000,2.0635,1.4720,32.2757,43.5906,0.0041,0.000755,219.0429,12.2462,-76.0671,63.8209,219.0429,0.0005,-17.0916,-16.2455,-0.9879,-0.0000,-0.012545,-0.006840,0.014888,-0.0020,-0.0015,-0.0013,180.0000,-0.0000,0.0000
58,0.5800,-0.0687,0.0303,-0.0841,0.1128,0.0000,0.0000,0.0000,20.0000,2.2570,1.5098,20.9058,42.6555,0.0044,0.000746,219.0429,12.2462,-76.0671,63.8209,219.0429,0.0005,-17.0916,-16.2455,-0.9879,-0.0000,-0.013768,-0.006709,0.016578,-0.0026,-0.0008,-0.0022,180.0000,-0.0000,0.0000
59,0.5900,-0.0825,0.0290,-0.0799,0.1184,0.0000,0.0000,0.0000,20.0000,2.4134,1.5552,20.9337,41.4598,0.0047,0.000864,219.0429,12.2462,-76.0671,63.8209,219.0429,0.0005,-17.0916,-16.2455,-0.9879,-0.0000,-0.015794,-0.006487,0.017055,-0.0030,0.0008,-0.0029,180.0000,-0.0000,0.0000
60,0.6000,-0.1010,0.0141,-0.0730,0.1254,0.0000,0.0000,0.0000,20.0000,2.5493,1.6062,33.8526,40.6861,0.0051,0.000770,219.0429,12.2462,-76.0671,63.8209,219.0429,0.0005,-17.0916,-16.2455,-0.9879,-0.0000,-0.018728,-0.004860,0.016599,-0.0034,0.0010,-0.0028,180.0000,-0.0000,0.0000
61,0.6100,-0.1177,-0.0070,-0.0616,0.1331,0.0000,0.0000,0.0000,20.0000,2.6780,1.6616,46.6171,40.6612,0.0054,0.000777,219.0429,12.2462,-76.0671,63.8209,219.0429,0.0005,-17.0916,-16.2455,-0.9879,-0.0000,-0.021987,-0.001846,0.015176,-0.0025,0.0018,-0.0031,180.0000,-0.0000,0.0000
62,0.6200,-0.1266,-0.0232,-0.0497,0.1380,0.0000,0.0000,0.0000,20.0000,2.7969,1.7208,46.7851,40.9935,0.0058,0.001892,219.0429,12.2462,-76.0671,63.8209,219.0429,0.0005,-17.0916,-16.2455,-0.9879,-0.0000,-0.024632,0.001451,0.013169,-0.0004,0.0019,-0.0043,180.0000,-0.0000,0.0000
63,0.6300,-0.1206,-0.0289,-0.0406,0.1305,0.0000,0.0000,0.0000,20.0000,2.8037,1.7802,32.4785,40.9186,0.0062,0.000791,219.0429,12.2462,-76.0671,63.8209,219.0429,0.0005,-17.0916,-16.2455,-0.9879,-0.0000,-0.025448,0.003837,0.011124,0.0015,0.0007,-0.0046,180.0000,-0.0000,0.0000
64,0.6400,-0.0993,-0.0143,-0.0303,0.1048,0.0000,0.0000,0.0000,20.0000,2.5610,1.8298,27.9061,40.3285,0.0065,0.000746,219.0429,12.2462,-76.0671,63.8209,219.0429,0.0005,-17.0916,-16.2455,-0.9879,-0.0000,-0.023714,0.003684,0.008943,0.0013,0.0002,-0.0044,180.0000,-0.0000,0.0000
65,0.6500,-0.0763,0.0143,-0.0160,0.0792,0.0000,0.0000,0.0000,20.0000,2.1364,1.8583,51.6985,40.2996,0.0068,0.000737,219.0429,12.2462,-76.0671,63.8209,219.0429,0.0005,-17.0916,-16.2455,-0.9879,-0.0000,-0.020405,0.000732,0.006285,-0.0005,0.0004,-0.0048,180.0000,-0.0000,0.0000
66,0.6600,-0.0583,0.0429,0.0018,0.0724,0.0000,0.0000,0.0000,20.0000,1.7423,1.8628,66.4922,41.3335,0.0070,0.000730,219.0429,12.2462,-76.0671,63.8209,219.0429,0.0005,-17.0916,-16.2455,-0.9879,-0.0000,-0.016743,-0.003757,0.003021,-0.0019,0.0003,-0.0048,180.0000,-0.0000,0.0000
67,0.6700,-0.0434,0.0607,0.0178,0.0767,0.0000,0.0000,0.0000,20.0000,1.5442,1.8507,65.0323,42.6773,0.0072,0.000710,219.0429,12.2462,-76.0671,63.8209,219.0429,0.0005,-17.0916,-16.2455,-0.9879,-0.0000,-0.013196,-0.008012,-0.000385,-0.0040,-0.0010,-0.0026,180.0000,-0.0000,0.0000
68,0.6800,-0.0350,0.0638,0.0280,0.0780,0.0000,0.0000,0.0000,20.0000,1.5229,1.8333,48.4521,43.4510,0.0074,0.000698,219.0429,12.2462,-76.0671,63.8209,219.0429,0.0005,-17.0916,-16.2455,-0.9879,-0.0000,-0.010366,-0.010661,-0.003292,-0.0058,-0.0018,-0.0020,180.0000,-0.0000,0.0000
69,0.6900,-0.0315,0.0562,0.0321,0.0719,0.0000,0.0000,0.0000,20.0000,1.5085,1.8158,28.6924,43.1826,0.0075,0.001456,219.0429,12.2462,-76.0671,63.8209,219.0429,0.0005,-17.0916,-16.2455,-0.9879,-0.0000,-0.008426,-0.011337,-0.005295,-0.0058,-0.0028,-0.0020,180.0000,-0.0000,0.0000
70,0.7000,-0.0271,0.0417,0.0261,0.0561,0.0000,0.0000,0.0000,20.0000,1.3640,1.7949,19.4374,42.1310,0.0076,0.000753,219.0429,12.2462,-76.0671,63.8209,219.0429,0.0005,-17.0916,-16.2455,-0.9879,-0.0000,-0.006898,-0.010243,-0.005792,-0.0047,-0.0044,-0.0014,180.0000,-0.0000,0.0000
71,0.7100,-0.0273,0.0304,0.0091,0.0418,0.0000,0.0000,0.0000,20.0000,1.1302,1.7648,24.1786,41.0131,0.0076,0.000772,219.0429,12.2462,-76.0671,63.8209,219.0429,0.0005,-17.0916,-16.2455,-0.9879,-0.0000,-0.006062,-0.008482,-0.004362,-0.0044,-0.0038,-0.0012,180.0000,-0.0000,0.0000
72,0.7200,-0.0285,0.0345,-0.0079,0.0454,0.0000,0.0000,0.0000,20.0000,0.9927,1.7261,25.9254,40.1351,0.0077,0.000686,219.0429,12.2462,-76.0671,63.8209,219.0429,0.0005,-17.0916,-16.2455,-0.9879,-0.0000,-0.005712,-0.007903,-0.001859,-0.0033,-0.0030,-0.0011,180.0000,-0.0000,0.0000
73,0.7300,-0.0250,0.0425,-0.0163,0.0519,0.0000,0.0000,0.0000,20.0000,0.9834,1.6855,23.3798,39.2834,0.0079,0.000681,219.0429,12.2462,-76.0671,63.8209,219.0429,0.0005,-17.0916,-16.2455,-0.9879,-0.0000,-0.005151,-0.008369,0.000362,-0.0027,-0.0016,-0.0010,180.0000,-0.0000,0.0000
74,0.7400,-0.0210,0.0417,-0.0214,0.0513,0.0000,0.0000,0.0000,20.0000,1.0223,1.6479,20.2474,38.3224,0.0080,0.000764,219.0375,12.2816,-76.1331,63.8515,219.0375,-0.0053,-17.0685,-18.7119,-0.9870,-0.0000,-0.004815,-0.008712,0.002329,-0.0037,-0.0012,0.0005,180.0000,0.0000,0.0000
75,0.7500,-0.0132,0.0388,-0.0273,0.0493,0.0000,0.0000,0.0000,20.0000,1.0232,1.6136,19.4180,37.3053,0.0081,0.000726,219.0375,12.2816,-76.1331,63.8515,219.0375,-0.0053,-17.0685,-18.7119,-0.9870,-0.0000,-0.003842,-0.008597,0.004006,-0.0024,-0.0001,0.0013,180.0000,0.0000,0.0000
76,0.7600,-0.0014,0.0294,-0.0328,0.0441,0.0000,0.0000,0.0000,20.0000,0.9584,1.5793,24.7362,36.4677,0.0083,0.000676,219.0375,12.2816,-76.1331,63.8515,219.0375,-0.0053,-17.0685,-18.7119,-0.9870,-0.0000,-0.002122,-0.007582,0.005465,-0.0018,-0.0004,0.0011,180.0000,0.0000,0.0000
77,0.7700,0.0021,0.0091,-0.0417,0.0428,0.0000,0.0000,0.0000,20.0000,0.8755,1.5429,33.7421,36.0700,0.0084,0.000750,219.0375,12.2816,-76.1331,63.8515,219.0375,-0.0053,-17.0685,-18.7119,-0.9870,-0.0000,-0.000813,-0.004973,0.007159,-0.0028,-0.0003,0.0002,180.0000,0.0000,0.0000
78,0.7800,-0.0052,-0.0100,-0.0546,0.0558,0.0000,0.0000,0.0000,20.0000,0.9540,1.5083,40.2792,36.1218,0.0085,0.000721,219.0375,12.2816,-76.1331,63.8515,219.0375,-0.0053,-17.0685,-18.7119,-0.9870,-0.0000,-0.000814,-0.001606,0.009369,-0.0030,-0.0013,0.0013,180.0000,0.0000,0.0000
79,0.7900,-0.0117,-0.0219,-0.0645,0.0691,0.0000,0.0000,0.0000,20.0000,1.1745,1.4839,38.1678,36.2924,0.0087,0.000726,219.0375,12.2816,-76.1331,63.8515,219.0375,-0.0053,-17.0685,-18.7119,-0.9870,-0.0000,-0.001464,0.001449,0.011563,-0.0021,-0.0020,0.0009,180.0000,0.0000,0.0000
80,0.8000,-0.0171,-0.0241,-0.0690,0.0751,0.0000,0.0000,0.0000,20.0000,1.3822,1.4726,26.6709,36.0794,0.0088,0.000805,219.0375,12.2816,-76.1331,63.8515,219.0375,-0.0053,-17.0685,-18.7119,-0.9870,-0.0000,-0.002363,0.003354,0.013199,-0.0017,-0.0019,0.0000,180.0000,0.0000,0.0000
81,0.8100,-0.0231,-0.0160,-0.0672,0.0729,0.0000,0.0000,0.0000,20.0000,1.4767,1.4702,13.2075,35.1915,0.0090,0.000808,219.0375,12.2816,-76.1331,63.8515,219.0375,-0.0053,-17.0685,-18.7119,-0.9870,-0.0000,-0.003457,0.003586,0.013902,-0.0010,-0.0025,0.0001,180.0000,0.0000,0.0000
82,0.8200,-0.0195,-0.0029,-0.0580,0.0613,0.0000,0.0000,0.0000,20.0000,1.4047,1.4686,13.3471,33.9861,0.0092,0.000781,219.0375,12.2816,-76.1331,63.8515,219.0375,-0.0053,-17.0685,-18.7119,-0.9870,-0.0000,-0.003693,0.002398,0.013339,0.0007,-0.0033,0.0012,180.0000,0.0000,0.0000
83,0.8300,-0.0138,0.0108,-0.0479,0.0510,0.0000,0.0000,0.0000,20.0000,1.2426,1.4606,24.7977,33.1657,0.0094,0.000752,219.0375,12.2816,-76.1331,63.8515,219.0375,-0.0053,-17.0685,-18.7119,-0.9870,-0.0000,-0.003243,0.000367,0.011990,0.0017,-0.0021,0.0005,180.0000,0.0000,0.0000
84,0.8400,-0.0186,0.0255,-0.0417,0.0523,0.0000,0.0000,0.0000,20.0000,1.1379,1.4457,29.5139,32.8351,0.0096,0.000728,219.0375,12.2816,-76.1331,63.8515,219.0375,-0.0053,-17.0685,-18.7119,-0.9870,-0.0000,-0.003468,-0.002230,0.010605,0.0021,-0.0008,0.0001,180.0000,0.0000,0.0000
85,0.8500,-0.0254,0.0319,-0.0389,0.0563,0.0000,0.0000,0.0000,20.0000,1.1291,1.4286,24.5701,32.5164,0.0098,0.000732,219.0375,12.2816,-76.1331,63.8515,219.0375,-0.0053,-17.0685,-18.7119,-0.9870,-0.0000,-0.004265,-0.004292,0.009533,0.0004,-0.0010,0.0006,180.0000,0.0000,0.0000
86,0.8600,-0.0276,0.0257,-0.0361,0.0522,0.0000,0.0000,0.0000,20.0000,1.1049,1.4114,12.1827,31.7386,0.0100,0.000740,219.0375,12.2816,-76.1331,63.8515,219.0375,-0.0053,-17.0685,-18.7119,-0.9870,-0.0000,-0.004918,-0.004811,0.008646,-0.0007,0.0000,0.0013,180.0000,0.0000,0.0000
87,0.8700,-0.0353,0.0127,-0.0351,0.0514,0.0000,0.0000,0.0000,20.0000,1.0740,1.3937,16.4257,30.7796,0.0102,0.000737,219.0375,12.2816,-76.1331,63.8515,219.0375,-0.0053,-17.0685,-18.7119,-0.9870,-0.0000,-0.006043,-0.003783,0.008033,-0.0019,0.0006,0.0001,180.0000,0.0000,0.0000
88,0.8800,-0.0387,0.0017,-0.0355,0.0526,0.0000,0.0000,0.0000,20.0000,1.0627,1.3758,19.4989,30.0745,0.0104,0.000745,219.0375,12.2816,-76.1331,63.8515,219.0375,-0.0053,-17.0685,-18.7119,-0.9870,-0.0000,-0.006991,-0.002108,0.007721,-0.0022,-0.0005,-0.0004,180.0000,0.0000,0.0000
89,0.8900,-0.0293,-0.0071,-0.0321,0.0440,0.0000,0.0000,0.0000,20.0000,0.9736,1.3561,19.3445,29.4885,0.0106,0.003056,219.0375,12.2816,-76.1331,63.8515,219.0375,-0.0053,-17.0685,-18.7119,-0.9870,-0.0000,-0.006557,-0.000300,0.007190,-0.0041,-0.0010,-0.0005,180.0000,0.0000,0.0000
90,0.9000,-0.0178,-0.0097,-0.0244,0.0317,0.0000,0.0000,0.0000,20.0000,0.8055,1.3305,21.6913,28.9951,0.0108,0.000740,219.0375,12.2816,-76.1331,63.8515,219.0375,-0.0053,-17.0685,-18.7119,-0.9870,-0.0000,-0.005154,0.000958,0.006115,-0.0028,-0.0018,-0.0004,180.0000,0.0000,0.0000
91,0.9100,-0.0060,0.0006,-0.0171,0.0181,0.0000,0.0000,0.0000,20.0000,0.5779,1.2953,23.9612,28.6557,0.0109,0.000777,219.0375,12.2816,-76.1331,63.8515,219.0375,-0.0053,-17.0685,-18.7119,-0.9870,-0.0000,-0.003197,0.000626,0.004774,-0.0011,-0.0028,-0.0010,180.0000,0.0000,0.0000
92,0.9200,0.0108,0.0161,-0.0057,0.0202,0.0000,0.0000,0.0000,20.0000,0.3117,1.2486,37.8200,28.7787,0.0109,0.001084,219.0375,12.2816,-76.1331,63.8515,219.0375,-0.0053,-17.0685,-18.7119,-0.9870,-0.0000,-0.000419,-0.001109,0.002882,-0.0002,-0.0037,-0.0008,180.0000,0.0000,0.0000
93,0.9300,0.0300,0.0333,0.0084,0.0456,0.0000,0.0000,0.0000,20.0000,0.4868,1.2018,50.1237,29.6144,0.0109,0.000850,219.0375,12.2816,-76.1331,63.8515,219.0375,-0.0053,-17.0685,-18.7119,-0.9870,-0.0000,0.003030,-0.003786,0.000421,-0.0000,-0.0036,0.0002,180.0000,0.0000,0.0000
94,0.9400,0.0454,0.0507,0.0140,0.0695,0.0000,0.0000,0.0000,20.0000,0.9552,1.1754,49.0502,30.7131,0.0109,0.000791,219.0353,12.3032,-76.1882,63.8850,219.0353,0.0022,-17.0863,-17.8857,-0.9854,0.0000,0.006217,-0.007155,-0.001178,0.0021,-0.0036,0.0008,180.0000,0.0000,0.0000
95,0.9500,0.0486,0.0621,0.0128,0.0799,0.0000,0.0000,0.0000,20.0000,1.3238,1.1734,37.1081,31.3933,0.0108,0.000807,219.0353,12.3032,-76.1882,63.8850,219.0353,0.0022,-17.0863,-17.8857,-0.9854,0.0000,0.008284,-0.010141,-0.001942,0.0014,-0.0019,0.0008,180.0000,0.0000,0.0000
96,0.9600,0.0343,0.0611,0.0082,0.0705,0.0000,0.0000,0.0000,20.0000,1.4266,1.1845,15.6113,31.1164,0.0108,0.000721,219.0353,12.3032,-76.1882,63.8850,219.0353,0.0022,-17.0863,-17.8857,-0.9854,0.0000,0.007980,-0.011672,-0.001902,0.0002,-0.0010,0.0004,180.0000,0.0000,0.0000
97,0.9700,0.0055,0.0479,-0.0012,0.0482,0.0000,0.0000,0.0000,20.0000,1.2246,1.1923,32.4666,30.7271,0.0108,0.000777,219.0353,12.3032,-76.1882,63.8850,219.0353,0.0022,-17.0863,-17.8857,-0.9854,0.0000,0.004920,-0.011175,-0.000939,-0.0019,0.0005,-0.0002,180.0000,0.0000,0.0000
98,0.9800,-0.0284,0.0236,-0.0123,0.0389,0.0000,0.0000,0.0000,20.0000,0.8484,1.1837,60.0450,31.5813,0.0108,0.000772,219.0353,12.3032,-76.1882,63.8850,219.0353,0.0022,-17.0863,-17.8857,-0.9854,0.0000,-0.000173,-0.008453,0.000706,-0.0032,0.0008,-0.0003,180.0000,0.0000,0.0000
99,0.9900,-0.0572,0.0010,-0.0196,0.0605,0.0000,0.0000,0.0000,20.0000,0.7858,1.1635,70.3545,33.4306,0.0110,0.000742,219.0353,12.3032,-76.1882,63.8850,219.0353,0.0022,-17.0863,-17.8857,-0.9854,0.0000,-0.005871,-0.004665,0.002348,-0.0032,0.0009,-0.0005,180.0000,0.0000,0.0000
100,1.0000,-0.0729,-0.0159,-0.0272,0.0794,0.0000,0.0000,0.0000,20.0000,1.1348,1.1523,62.6685,35.2503,0.0112,0.000819,219.0353,12.3032,-76.1882,63.8850,219.0353,0.0022,-17.0863,-17.8857,-0.9854,0.0000,-0.010578,-0.000878,0.004012,-0.0032,0.0004,-0.0012,180.0000,0.0000,0.0000
101,1.0100,-0.0780,-0.0301,-0.0381,0.0918,0.0000,0.0000,0.0000,20.0000,1.5159,1.1619,50.8669,36.4339,0.0115,0.000789,219.0353,12.3032,-76.1882,63.8850,219.0353,0.0022,-17.0863,-17.8857,-0.9854,0.0000,-0.013665,0.002637,0.006009,-0.0023,0.0002,-0.0012,180.0000,0.0000,0.0000
102,1.0200,-0.0801,-0.0273,-0.0517,0.0991,0.0000,0.0000,0.0000,20.0000,1.8218,1.1898,35.1079,36.7944,0.0118,0.000761,219.0353,12.3032,-76.1882,63.8850,219.0353,0.0022,-17.0863,-17.8857,-0.9854,0.0000,-0.015551,0.004295,0.008462,0.0001,0.0001,-0.0008,180.0000,0.0000,0.0000
103,1.0300,-0.0737,-0.0024,-0.0691,0.1010,0.0000,0.0000,0.0000,20.0000,1.9856,1.2290,34.7975,36.6931,0.0121,0.000796,219.0353,12.3032,-76.1882,63.8850,219.0353,0.0022,-17.0863,-17.8857,-0.9854,0.0000,-0.015929,0.002714,0.011539,0.0015,-0.0007,-0.0008,180.0000,0.0000,0.0000
104,1.0400,-0.0702,0.0314,-0.0872,0.1162,0.0000,0.0000,0.0000,20.0000,2.1826,1.2761,55.0719,37.1465,0.0126,0.000748,219.0353,12.3032,-76.1882,63.8850,219.0353,0.0022,-17.0863,-17.8857,-0.9854,0.0000,-0.015751,-0.001541,0.015031,0.0012,0.0001,-0.0013,180.0000,0.0000,0.0000
105,1.0500,-0.0758,0.0642,-0.1071,0.1461,0.0000,0.0000,0.0000,20.0000,2.5908,1.3372,68.5446,38.5031,0.0132,0.000734,219.0353,12.3032,-76.1882,63.8850,219.0353,0.0022,-17.0863,-17.8857,-0.9854,0.0000,-0.016180,-0.007167,0.018923,0.0004,0.0003,-0.0016,180.0000,0.0000,0.0000
106,1.0600,-0.0750,0.0932,-0.1257,0.1735,0.0000,0.0000,0.0000,20.0000,3.1033,1.4202,71.9079,40.2481,0.0139,0.000785,219.0353,12.3032,-76.1882,63.8850,219.0353,0.0022,-17.0863,-17.8857,-0.9854,0.0000,-0.016304,-0.013163,0.022890,-0.0004,-0.0010,-0.0013,180.0000,0.0000,0.0000
107,1.0700,-0.0670,0.1066,-0.1341,0.1839,0.0000,0.0000,0.0000,20.0000,3.5042,1.5238,55.6126,41.5415,0.0147,0.000763,219.0353,12.3032,-76.1882,63.8850,219.0353,0.0022,-17.0863,-17.8857,-0.9854,0.0000,-0.015548,-0.017792,0.025877,-0.0013,-0.0008,-0.0016,180.0000,0.0000,0.0000
108,1.0800,-0.0630,0.1036,-0.1360,0.1822,0.0000,0.0000,0.0000,20.0000,3.7179,1.6386,29.8172,41.6060,0.0156,0.000742,219.0353,12.3032,-76.1882,63.8850,219.0353,0.0022,-17.0863,-17.8857,-0.9854,0.0000,-0.014694,-0.020015,0.027672,-0.0014,-0.0011,-0.0017,180.0000,0.0000,0.0000
109,1.0900,-0.0553,0.1001,-0.1318,0.1745,0.0000,0.0000,0.0000,20.0000,3.7542,1.7540,16.0949,40.5801,0.0165,0.000803,219.0353,12.3032,-76.1882,63.8850,219.0353,0.0022,-17.0863,-17.8857,-0.9854,0.0000,-0.013421,-0.020858,0.028182,-0.0008,-0.0015,-0.0018,180.0000,0.0000,0.0000
110,1.1000,-0.0378,0.1038,-0.1183,0.1618,0.0000,0.0000,0.0000,20.0000,3.6340,1.8607,28.3275,39.5697,0.0173,0.000746,219.0353,12.3032,-76.1882,63.8850,219.0353,0.0022,-17.0863,-17.8857,-0.9854,0.0000,-0.010944,-0.021649,0.027058,0.0004,-0.0015,-0.0007,180.0000,0.0000,0.0000
111,1.1100,-0.0197,0.1114,-0.1052,0.1545,0.0000,0.0000,0.0000,20.0000,3.4772,1.9540,39.3650,39.2548,0.0181,0.000800,219.0353,12.3032,-76.1882,63.8850,219.0353,0.0022,-17.0863,-17.8857,-0.9854,0.0000,-0.007744,-0.022806,0.025081,0.0012,-0.0006,-0.0000,180.0000,0.0000,0.0000
112,1.1200,-0.0098,0.1144,-0.0953,0.1493,0.0000,0.0000,0.0000,20.0000,3.3362,2.0339,36.1407,39.1722,0.0189,0.000784,219.0353,12.3032,-76.1882,63.8850,219.0353,0.0022,-17.0863,-17.8857,-0.9854,0.0000,-0.004968,-0.023703,0.022947,0.0012,-0.0004,-0.0019,180.0000,0.0000,0.0000
113,1.1300,-0.0102,0.1082,-0.0863,0.1388,0.0000,0.0000,0.0000,20.0000,3.1911,2.1015,23.4655,38.6568,0.0196,0.000751,219.0384,12.3219,-76.2304,63.9085,219.0384,-0.0002,-17.0874,-18.0999,-0.9868,-0.0000,-0.003614,-0.023727,0.021031,0.0012,0.0004,-0.0013,180.0000,0.0000,0.0000
114,1.1400,-0.0154,0.0924,-0.0853,0.1267,0.0000,0.0000,0.0000,20.0000,2.9895,2.1559,20.2451,37.7326,0.0203,0.000751,219.0384,12.3219,-76.2304,63.9085,219.0384,-0.0002,-17.0874,-18.0999,-0.9868,-0.0000,-0.003383,-0.022113,0.019830,0.0006,0.0008,0.0001,180.0000,0.0000,0.0000
115,1.1500,-0.0175,0.0734,-0.0918,0.1188,0.0000,0.0000,0.0000,20.0000,2.7827,2.1961,28.3759,36.9943,0.0210,0.000775,219.0384,12.3219,-76.2304,63.9085,219.0384,-0.0002,-17.0874,-18.0999,-0.9868,-0.0000,-0.003451,-0.019277,0.019769,0.0007,-0.0002,0.0002,180.0000,0.0000,0.0000
116,1.1600,-0.0137,0.0625,-0.0960,0.1153,0.0000,0.0000,0.0000,20.0000,2.6250,2.2240,27.4711,36.4953,0.0217,0.000769,219.0384,12.3219,-76.2304,63.9085,219.0384,-0.0002,-17.0874,-18.0999,-0.9868,-0.0000,-0.003107,-0.016574,0.020117,0.0022,-0.0015,0.0008,180.0000,0.0000,0.0000
117,1.1700,-0.0041,0.0642,-0.1035,0.1219,0.0000,0.0000,0.0000,20.0000,2.6027,2.2455,19.9708,35.7926,0.0223,0.001409,219.0384,12.3219,-76.2304,63.9085,219.0384,-0.0002,-17.0874,-18.0999,-0.9868,-0.0000,-0.001951,-0.015221,0.021023,0.0033,-0.0011,0.0023,180.0000,0.0000,0.0000
118,1.1800,0.0147,0.0734,-0.1206,0.1420,0.0000,0.0000,0.0000,20.0000,2.7823,2.2701,33.3256,35.2896,0.0230,0.000793,219.0384,12.3219,-76.2304,63.9085,219.0384,-0.0002,-17.0874,-18.0999,-0.9868,-0.0000,0.000575,-0.015360,0.023192,0.0039,-0.0018,0.0026,180.0000,0.0000,0.0000
119,1.1900,0.0380,0.0930,-0.1405,0.1727,0.0000,0.0000,0.0000,20.0000,3.1834,2.3093,52.6808,35.7139,0.0237,0.000779,219.0384,12.3219,-76.2304,63.9085,219.0384,-0.0002,-17.0874,-18.0999,-0.9868,-0.0000,0.004299,-0.017368,0.026330,0.0044,-0.0021,0.0028,180.0000,0.0000,0.0000
120,1.2000,0.0508,0.1168,-0.1563,0.2016,0.0000,0.0000,0.0000,20.0000,3.6980,2.3715,58.0258,36.7942,0.0245,0.000767,219.0384,12.3219,-76.2304,63.9085,219.0384,-0.0002,-17.0874,-18.0999,-0.9868,-0.0000,0.007631,-0.020822,0.029593,0.0048,-0.0002,0.0028,180.0000,0.0000,0.0000
121,1.2100,0.0547,0.1322,-0.1690,0.2214,0.0000,0.0000,0.0000,20.0000,4.1802,2.4577,50.6315,37.7588,0.0254,0.000764,219.0384,12.3219,-76.2304,63.9085,219.0384,-0.0002,-17.0874,-18.0999,-0.9868,-0.0000,0.009850,-0.024230,0.032608,0.0038,0.0004,0.0027,180.0000,0.0000,0.0000
122,1.2200,0.0572,0.1379,-0.1749,0.2300,0.0000,0.0000,0.0000,20.0000,4.5263,2.5620,35.6898,38.0559,0.0264,0.000782,219.0384,12.3219,-76.2304,63.9085,219.0384,-0.0002,-17.0874,-18.0999,-0.9868,-0.0000,0.011303,-0.026642,0.034802,0.0024,-0.0014,0.0030,180.0000,0.0000,0.0000
123,1.2300,0.0495,0.1388,-0.1670,0.2227,0.0000,0.0000,0.0000,20.0000,4.6346,2.6730,14.0803,37.3314,0.0275,0.001281,219.0384,12.3219,-76.2304,63.9085,219.0384,-0.0002,-17.0874,-18.0999,-0.9868,-0.0000,0.011316,-0.028006,0.035150,0.0020,-0.0012,0.0020,180.0000,0.0000,0.0000
124,1.2400,0.0341,0.1348,-0.1466,0.2020,0.0000,0.0000,0.0000,20.0000,4.4732,2.7765,24.8541,36.3487,0.0286,0.000807,219.0384,12.3219,-76.2304,63.9085,219.0384,-0.0002,-17.0874,-18.0999,-0.9868,-0.0000,0.009756,-0.028302,0.033238,0.0019,-0.0018,0.0003,180.0000,0.0000,0.0000
125,1.2500,0.0206,0.1271,-0.1206,0.1764,0.0000,0.0000,0.0000,20.0000,4.1127,2.8599,43.9431,36.2415,0.0297,0.000779,219.0384,12.3219,-76.2304,63.9085,219.0384,-0.0002,-17.0874,-18.0999,-0.9868,-0.0000,0.007525,-0.027639,0.029511,0.0016,-0.0026,-0.0011,180.0000,0.0000,0.0000
126,1.2600,0.0110,0.1188,-0.0912,0.1502,0.0000,0.0000,0.0000,20.0000,3.6374,2.9158,56.5430,37.0117,0.0307,0.000760,219.0384,12.3219,-76.2304,63.9085,219.0384,-0.0002,-17.0874,-18.0999,-0.9868,-0.0000,0.005318,-0.026395,0.024456,0.0000,-0.0027,-0.0026,180.0000,0.0000,0.0000
127,1.2700,0.0040,0.1163,-0.0605,0.1312,0.0000,0.0000,0.0000,20.0000,3.1628,2.9424,63.0503,38.2650,0.0316,0.000747,219.0384,12.3219,-76.2304,63.9085,219.0384,-0.0002,-17.0874,-18.0999,-0.9868,-0.0000,0.003386,-0.025401,0.018537,0.0011,-0.0012,-0.0029,180.0000,0.0000,0.0000
128,1.2800,-0.0035,0.1216,-0.0344,0.1264,0.0000,0.0000,0.0000,20.0000,2.8344,2.9455,61.9535,39.5983,0.0323,0.000767,219.0384,12.3219,-76.2304,63.9085,219.0384,-0.0002,-17.0874,-18.0999,-0.9868,-0.0000,0.001560,-0.025332,0.012617,0.0000,-0.0009,-0.0031,180.0000,0.0000,0.0000
129,1.2900,-0.0140,0.1251,-0.0148,0.1268,0.0000,0.0000,0.0000,20.0000,2.6638,2.9347,56.5404,40.6791,0.0330,0.001324,219.0384,12.3219,-76.2304,63.9085,219.0384,-0.0002,-17.0874,-18.0999,-0.9868,-0.0000,-0.000502,-0.025596,0.007359,-0.0005,-0.0005,-0.0030,180.0000,0.0000,0.0000
130,1.3000,-0.0268,0.1232,-0.0017,0.1261,0.0000,0.0000,0.0000,20.0000,2.5856,2.9176,48.6679,41.3351,0.0336,0.000776,219.0384,12.3219,-76.2304,63.9085,219.0384,-0.0002,-17.0874,-18.0999,-0.9868,-0.0000,-0.002917,-0.025499,0.003135,-0.0020,-0.0011,-0.0028,180.0000,0.0000,0.0000
131,1.3100,-0.0468,0.1205,0.0037,0.1294,0.0000,0.0000,0.0000,20.0000,2.5891,2.8995,44.2167,41.6160,0.0342,0.000757,219.0384,12.3219,-76.2304,63.9085,219.0384,-0.0002,-17.0874,-18.0999,-0.9868,-0.0000,-0.006251,-0.025124,0.000255,-0.0002,-0.0002,-0.0034,180.0000,0.0000,0.0000
132,1.3200,-0.0755,0.1193,0.0016,0.1412,0.0000,0.0000,0.0000,20.0000,2.7079,2.8857,49.1443,41.8946,0.0349,0.000746,219.0384,12.3219,-76.2304,63.9085,219.0384,-0.0002,-17.0874,-18.0999,-0.9868,-0.0000,-0.010949,-0.024740,-0.001133,-0.0009,0.0004,-0.0040,180.0000,0.0000,0.0000
133,1.3300,-0.0988,0.1174,-0.0030,0.1535,0.0000,0.0000,0.0000,20.0000,2.9600,2.8828,50.1162,42.3201,0.0356,0.000740,219.0629,12.3498,-76.3316,63.9819,219.0629,0.0003,-17.1057,-19.7829,-0.9864,0.0000,-0.015936,-0.024935,-0.000674,-0.0008,0.0005,-0.0040,180.0000,0.0000,0.0000
134,1.3400,-0.1150,0.1126,-0.0062,0.1611,0.0000,0.0000,0.0000,20.0000,3.1820,2.8932,44.0244,42.5814,0.0365,0.000741,219.0629,12.3498,-76.3316,63.9819,219.0629,0.0003,-17.1057,-19.7829,-0.9864,0.0000,-0.020281,-0.024519,-0.000099,-0.0006,0.0013,-0.0038,180.0000,0.0000,0.0000
135,1.3500,-0.1292,0.1082,-0.0090,0.1688,0.0000,0.0000,0.0000,20.0000,3.3843,2.9146,38.9088,42.5201,0.0374,0.002479,219.0629,12.3498,-76.3316,63.9819,219.0629,0.0003,-17.1057,-19.7829,-0.9864,0.0000,-0.024057,-0.023799,0.000505,-0.0004,0.0023,-0.0029,180.0000,0.0000,0.0000
136,1.3600,-0.1475,0.0996,-0.0115,0.1783,0.0000,0.0000,0.0000,20.0000,3.5872,2.9460,41.2140,42.3848,0.0384,0.000756,219.0629,12.3498,-76.3316,63.9819,219.0629,0.0003,-17.1057,-19.7829,-0.9864,0.0000,-0.027923,-0.022493,0.001082,-0.0023,0.0029,-0.0014,180.0000,0.0000,0.0000
137,1.3700,-0.1663,0.0802,-0.0119,0.1850,0.0000,0.0000,0.0000,20.0000,3.7556,2.9859,48.1458,42.5111,0.0395,0.000731,219.0629,12.3498,-76.3316,63.9819,219.0629,0.0003,-17.1057,-19.7829,-0.9864,0.0000,-0.031889,-0.019786,0.001435,-0.0036,0.0020,-0.0008,180.0000,0.0000,0.0000
138,1.3800,-0.1747,0.0602,-0.0139,0.1853,0.0000,0.0000,0.0000,20.0000,3.8498,3.0309,46.3339,42.7712,0.0406,0.000823,219.0629,12.3498,-76.3316,63.9819,219.0629,0.0003,-17.1057,-19.7829,-0.9864,0.0000,-0.034853,-0.016248,0.001836,-0.0025,0.0017,-0.0005,180.0000,0.0000,0.0000
139,1.3900,-0.1681,0.0489,-0.0185,0.1760,0.0000,0.0000,0.0000,20.0000,3.8180,3.0750,33.1470,42.6045,0.0417,0.000784,219.0629,12.3498,-76.3316,63.9819,219.0629,0.0003,-17.1057,-19.7829,-0.9864,0.0000,-0.035762,-0.013132,0.002510,-0.0014,0.0007,0.0000,180.0000,0.0000,0.0000
140,1.4000,-0.1472,0.0413,-0.0180,0.1539,0.0000,0.0000,0.0000,20.0000,3.5833,3.1094,30.2790,42.0054,0.0427,0.000824,219.0629,12.3498,-76.3316,63.9819,219.0629,0.0003,-17.1057,-19.7829,-0.9864,0.0000,-0.034107,-0.010617,0.002831,-0.0018,0.0000,-0.0001,180.0000,0.0000,0.0000
141,1.4100,-0.1115,0.0320,-0.0130,0.1168,0.0000,0.0000,0.0000,20.0000,3.0794,3.1217,51.2751,41.9378,0.0436,0.000769,219.0629,12.3498,-76.3316,63.9819,219.0629,0.0003,-17.1057,-19.7829,-0.9864,0.0000,-0.029555,-0.008280,0.002495,-0.0024,-0.0011,-0.0004,180.0000,0.0000,0.0000
142,1.4200,-0.0700,0.0281,-0.0119,0.0764,0.0000,0.0000,0.0000,20.0000,2.3861,3.1003,69.4258,42.9506,0.0443,0.000888,219.0629,12.3498,-76.3316,63.9819,219.0629,0.0003,-17.1057,-19.7829,-0.9864,0.0000,-0.022832,-0.006575,0.002194,-0.0021,-0.0013,-0.0011,180.0000,0.0000,0.0000
143,1.4300,-0.0364,0.0241,-0.0119,0.0453,0.0000,0.0000,0.0000,20.0000,1.6678,3.0412,72.5259,44.4923,0.0448,0.000771,219.0629,12.3498,-76.3316,63.9819,219.0629,0.0003,-17.1057,-19.7829,-0.9864,0.0000,-0.015709,-0.005221,0.002032,-0.0040,-0.0012,-0.0001,180.0000,0.0000,0.0000
144,1.4400,-0.0104,0.0157,-0.0128,0.0228,0.0000,0.0000,0.0000,20.0000,1.0036,2.9474,67.6223,45.8995,0.0451,0.000817,219.0629,12.3498,-76.3316,63.9819,219.0629,0.0003,-17.1057,-19.7829,-0.9864,0.0000,-0.009137,-0.003626,0.002023,-0.0056,-0.0020,0.0005,180.0000,0.0000,0.0000
145,1.4500,0.0067,0.0109,-0.0217,0.0252,0.0000,0.0000,0.0000,20.0000,0.5270,2.8274,56.0725,46.7767,0.0454,0.000737,219.0629,12.3498,-76.3316,63.9819,219.0629,0.0003,-17.1057,-19.7829,-0.9864,0.0000,-0.003773,-0.002253,0.002908,-0.0056,-0.0010,0.0008,180.0000,0.0000,0.0000
146,1.4600,0.0154,0.0182,-0.0374,0.0443,0.0000,0.0000,0.0000,20.0000,0.5431,2.7013,43.5006,46.9423,0.0455,0.000746,219.0629,12.3498,-76.3316,63.9819,219.0629,0.0003,-17.1057,-19.7829,-0.9864,0.0000,0.000065,-0.002221,0.004956,-0.0035,-0.0006,0.0012,180.0000,0.0000,0.0000
147,1.4700,0.0250,0.0330,-0.0524,0.0668,0.0000,0.0000,0.0000,20.0000,0.8993,2.5924,43.0050,46.7393,0.0458,0.000798,219.0629,12.3498,-76.3316,63.9819,219.0629,0.0003,-17.1057,-19.7829,-0.9864,0.0000,0.003144,-0.003680,0.007579,-0.0026,-0.0007,0.0017,180.0000,0.0000,0.0000
148,1.4800,0.0315,0.0435,-0.0642,0.0837,0.0000,0.0000,0.0000,20.0000,1.2837,2.5098,39.7646,46.4448,0.0461,0.000750,219.0629,12.3498,-76.3316,63.9819,219.0629,0.0003,-17.1057,-19.7829,-0.9864,0.0000,0.005497,-0.005528,0.010198,-0.0017,-0.0005,0.0003,180.0000,0.0000,0.0000
149,1.4900,0.0222,0.0450,-0.0755,0.0907,0.0000,0.0000,0.0000,20.0000,1.5548,2.4498,28.3246,45.7627,0.0464,0.000711,219.0629,12.3498,-76.3316,63.9819,219.0629,0.0003,-17.1057,-19.7829,-0.9864,0.0000,0.005851,-0.006692,0.012756,-0.0010,0.0003,-0.0009,180.0000,0.0000,0.0000
150,1.5000,0.0038,0.0328,-0.0876,0.0936,0.0000,0.0000,0.0000,20.0000,1.7042,2.4047,31.2759,44.8846,0.0469,0.000829,219.0629,12.3498,-76.3316,63.9819,219.0629,0.0003,-17.1057,-19.7829,-0.9864,0.0000,0.004202,-0.006102,0.015348,-0.0012,-0.0006,-0.0017,180.0000,0.0000,0.0000
151,1.5100,-0.0140,0.0116,-0.0987,0.1004,0.0000,0.0000,0.0000,20.0000,1.8293,2.3696,44.3858,44.4966,0.0475,0.000768,219.0629,12.3498,-76.3316,63.9819,219.0629,0.0003,-17.1057,-19.7829,-0.9864,0.0000,0.001498,-0.003641,0.017864,-0.0016,-0.0010,-0.0030,180.0000,0.0000,0.0000
152,1.5200,-0.0370,-0.0056,-0.1030,0.1096,0.0000,0.0000,0.0000,20.0000,1.9794,2.3440,52.1624,44.7044,0.0481,0.000732,219.0629,12.3498,-76.3316,63.9819,219.0629,0.0003,-17.1057,-19.7829,-0.9864,0.0000,-0.002304,-0.000549,0.019651,-0.0020,-0.0008,-0.0039,180.0000,0.0000,0.0000
153,1.5300,-0.0600,-0.0116,-0.0992,0.1165,0.0000,0.0000,0.0000,20.0000,2.1913,2.3298,52.4918,45.1237,0.0489,0.000746,219.0794,12.4319,-76.4782,64.0463,219.0794,-0.0142,-17.1239,-18.2730,-0.9880,-0.0000,-0.007239,0.000926,0.020662,-0.0023,-0.0015,-0.0047,180.0000,-0.0000,0.0000
154,1.5400,-0.0772,-0.0055,-0.0875,0.1168,0.0000,0.0000,0.0000,20.0000,2.3194,2.3257,44.8216,45.3181,0.0497,0.000720,219.0794,12.4319,-76.4782,64.0463,219.0794,-0.0142,-17.1239,-18.2730,-0.9880,-0.0000,-0.011670,0.001122,0.020013,-0.0036,-0.0008,-0.0051,180.0000,-0.0000,0.0000
155,1.5500,-0.0947,0.0079,-0.0692,0.1175,0.0000,0.0000,0.0000,20.0000,2.3817,2.3270,48.8856,45.4025,0.0506,0.000704,219.0794,12.4319,-76.4782,64.0463,219.0794,-0.0142,-17.1239,-18.2730,-0.9880,-0.0000,-0.015843,-0.000108,0.017784,-0.0030,0.0005,-0.0051,180.0000,-0.0000,0.0000
156,1.5600,-0.1057,0.0196,-0.0520,0.1194,0.0000,0.0000,0.0000,20.0000,2.4332,2.3315,48.7505,45.5904,0.0515,0.000790,219.0794,12.4319,-76.4782,64.0463,219.0794,-0.0142,-17.1239,-18.2730,-0.9880,-0.0000,-0.019218,-0.001963,0.014794,-0.0026,0.0002,-0.0039,180.0000,-0.0000,0.0000
157,1.5700,-0.1067,0.0219,-0.0410,0.1164,0.0000,0.0000,0.0000,20.0000,2.4531,2.3376,36.0933,45.4161,0.0525,0.000767,219.0794,12.4319,-76.4782,64.0463,219.0794,-0.0142,-17.1239,-18.2730,-0.9880,-0.0000,-0.021148,-0.003207,0.012010,-0.0028,0.0005,-0.0029,180.0000,-0.0000,0.0000
158,1.5800,-0.1012,0.0195,-0.0357,0.1091,0.0000,0.0000,0.0000,20.0000,2.4068,2.3427,21.9119,44.5132,0.0534,0.000741,219.0794,12.4319,-76.4782,64.0463,219.0794,-0.0142,-17.1239,-18.2730,-0.9880,-0.0000,-0.021624,-0.003652,0.009918,-0.0015,0.0003,-0.0016,180.0000,-0.0000,0.0000
159,1.5900,-0.0849,0.0194,-0.0366,0.0945,0.0000,0.0000,0.0000,20.0000,2.2399,2.3416,17.9228,43.1603,0.0542,0.000697,219.0794,12.4319,-76.4782,64.0463,219.0794,-0.0142,-17.1239,-18.2730,-0.9880,-0.0000,-0.020216,-0.003877,0.008831,0.0000,-0.0013,-0.0015,180.0000,-0.0000,0.0000
160,1.6000,-0.0580,0.0258,-0.0446,0.0776,0.0000,0.0000,0.0000,20.0000,1.9540,2.3282,35.9568,42.2680,0.0550,0.000826,219.0794,12.4319,-76.4782,64.0463,219.0794,-0.0142,-17.1239,-18.2730,-0.9880,-0.0000,-0.016706,-0.004637,0.009011,0.0005,-0.0033,-0.0010,180.0000,-0.0000,0.0000
161,1.6100,-0.0341,0.0447,-0.0569,0.0800,0.0000,0.0000,0.0000,20.0000,1.7521,2.3020,51.0564,42.3362,0.0558,0.000791,219.0794,12.4319,-76.4782,64.0463,219.0794,-0.0142,-17.1239,-18.2730,-0.9880,-0.0000,-0.012342,-0.006941,0.010319,-0.0003,-0.0045,-0.0019,180.0000,-0.0000,0.0000
162,1.6200,-0.0164,0.0745,-0.0735,0.1059,0.0000,0.0000,0.0000,20.0000,1.8762,2.2752,64.2074,43.1775,0.0567,0.001215,219.0794,12.4319,-76.4782,64.0463,219.0794,-0.0142,-17.1239,-18.2730,-0.9880,-0.0000,-0.008136,-0.011176,0.012686,0.0008,-0.0051,-0.0028,180.0000,-0.0000,0.0000
163,1.6300,-0.0008,0.0946,-0.0914,0.1315,0.0000,0.0000,0.0000,20.0000,2.2509,2.2636,65.9045,44.3810,0.0577,0.000720,219.0794,12.4319,-76.4782,64.0463,219.0794,-0.0142,-17.1239,-18.2730,-0.9880,-0.0000,-0.004232,-0.015507,0.015756,-0.0005,-0.0042,-0.0020,180.0000,-0.0000,0.0000
164,1.6400,0.0123,0.0999,-0.1079,0.1476,0.0000,0.0000,0.0000,20.0000,2.6517,2.2739,56.0970,45.2952,0.0588,0.000753,219.0794,12.4319,-76.4782,64.0463,219.0794,-0.0142,-17.1239,-18.2730,-0.9880,-0.0000,-0.000759,-0.018402,0.019077,-0.0006,-0.0033,-0.0000,180.0000,-0.0000,0.0000
165,1.6500,0.0204,0.1020,-0.1196,0.1586,0.0000,0.0000,0.0000,20.0000,2.9949,2.3041,44.0891,45.5592,0.0600,0.000695,219.0794,12.4319,-76.4782,64.0463,219.0794,-0.0142,-17.1239,-18.2730,-0.9880,-0.0000,0.001977,-0.020177,0.022044,-0.0004,-0.0018,0.0015,180.0000,-0.0000,0.0000
166,1.6600,0.0239,0.0997,-0.1231,0.1602,0.0000,0.0000,0.0000,20.0000,3.2039,2.3479,27.8456,45.0315,0.0613,0.000752,219.0794,12.4319,-76.4782,64.0463,219.0794,-0.0142,-17.1239,-18.2730,-0.9880,-0.0000,0.003837,-0.020885,0.023992,-0.0003,-0.0010,0.0016,180.0000,-0.0000,0.0000
167,1.6700,0.0239,0.0942,-0.1237,0.1573,0.0000,0.0000,0.0000,20.0000,3.2869,2.3972,15.0502,43.7343,0.0625,0.000677,219.0794,12.4319,-76.4782,64.0463,219.0794,-0.0142,-17.1239,-18.2730,-0.9880,-0.0000,0.004857,-0.020682,0.025080,0.0002,-0.0004,0.0023,180.0000,-0.0000,0.0000
168,1.6800,0.0159,0.0948,-0.1222,0.1555,0.0000,0.0000,0.0000,20.0000,3.3079,2.4467,4.8045,41.8746,0.0639,0.000709,219.0794,12.4319,-76.4782,64.0463,219.0794,-0.0142,-17.1239,-18.2730,-0.9880,-0.0000,0.004606,-0.020588,0.025479,0.0013,-0.0001,0.0023,180.0000,-0.0000,0.0000
169,1.6900,0.0061,0.1095,-0.1109,0.1560,0.0000,0.0000,0.0000,20.0000,3.3101,2.4942,20.1913,40.2587,0.0652,0.000801,219.0794,12.4319,-76.4782,64.0463,219.0794,-0.0142,-17.1239,-18.2730,-0.9880,-0.0000,0.003481,-0.021963,0.024519,0.0020,-0.0008,0.0012,180.0000,-0.0000,0.0000
170,1.7000,0.0042,0.1268,-0.0878,0.1543,0.0000,0.0000,0.0000,20.0000,3.2727,2.5380,38.7495,39.6652,0.0666,0.000944,219.0794,12.4319,-76.4782,64.0463,219.0794,-0.0142,-17.1239,-18.2730,-0.9880,-0.0000,0.002664,-0.024414,0.021632,0.0024,-0.0012,-0.0017,180.0000,-0.0000,0.0000
171,1.7100,0.0064,0.1364,-0.0590,0.1488,0.0000,0.0000,0.0000,20.0000,3.1788,2.5759,50.6385,39.9418,0.0679,0.000693,219.0794,12.4319,-76.4782,64.0463,219.0794,-0.0142,-17.1239,-18.2730,-0.9880,-0.0000,0.002430,-0.026681,0.017109,0.0009,-0.0016,-0.0026,180.0000,-0.0000,0.0000
172,1.7200,0.0037,0.1402,-0.0326,0.1440,0.0000,0.0000,0.0000,20.0000,3.0743,2.6062,54.2207,40.6288,0.0691,0.000828,219.0794,12.4319,-76.4782,64.0463,219.0794,-0.0142,-17.1239,-18.2730,-0.9880,-0.0000,0.002022,-0.028258,0.011938,-0.0002,-0.0015,-0.0028,180.0000,-0.0000,0.0000
173,1.7300,-0.0048,0.1414,-0.0172,0.1425,0.0000,0.0000,0.0000,20.0000,3.0660,2.6317,42.4300,41.0521,0.0703,0.000761,219.0831,12.4644,-76.5749,64.1105,219.0831,-0.0016,-17.0586,-18.8955,-0.9800,0.0000,0.000607,-0.029550,0.008152,-0.0011,-0.0017,-0.0046,180.0000,-0.0000,0.0000
174,1.7400,-0.0169,0.1311,-0.0110,0.1327,0.0000,0.0000,0.0000,20.0000,2.9707,2.6530,34.0204,40.8966,0.0714,0.000746,219.0831,12.4644,-76.5749,64.1105,219.0831,-0.0016,-17.0586,-18.8955,-0.9800,0.0000,-0.001382,-0.029176,0.005417,-0.0025,-0.0012,-0.0052,180.0000,-0.0000,0.0000
175,1.7500,-0.0302,0.1044,-0.0110,0.1093,0.0000,0.0000,0.0000,20.0000,2.6800,2.6624,41.0232,40.7110,0.0724,0.000856,219.0831,12.4644,-76.5749,64.1105,219.0831,-0.0016,-17.0586,-18.8955,-0.9800,0.0000,-0.003812,-0.026239,0.003903,-0.0042,-0.0018,-0.0023,180.0000,-0.0000,0.0000
176,1.7600,-0.0415,0.0718,-0.0213,0.0856,0.0000,0.0000,0.0000,20.0000,2.2578,2.6518,55.2413,41.1192,0.0734,0.000736,219.0831,12.4644,-76.5749,64.1105,219.0831,-0.0016,-17.0586,-18.8955,-0.9800,0.0000,-0.006279,-0.021300,0.004083,-0.0036,-0.0010,-0.0011,180.0000,-0.0000,0.0000
177,1.7700,-0.0457,0.0466,-0.0317,0.0725,0.0000,0.0000,0.0000,20.0000,1.8660,2.6193,56.9028,41.9417,0.0743,0.000691,219.0831,12.4644,-76.5749,64.1105,219.0831,-0.0016,-17.0586,-18.8955,-0.9800,0.0000,-0.008044,-0.016010,0.005214,-0.0031,-0.0011,-0.0004,180.0000,-0.0000,0.0000
178,1.7800,-0.0410,0.0330,-0.0308,0.0610,0.0000,0.0000,0.0000,20.0000,1.5572,2.5694,43.7141,42.4020,0.0751,0.000978,219.0831,12.4644,-76.5749,64.1105,219.0831,-0.0016,-17.0586,-18.8955,-0.9800,0.0000,-0.008531,-0.011697,0.005736,-0.0034,-0.0011,0.0010,180.0000,-0.0000,0.0000
179,1.7900,-0.0348,0.0287,-0.0250,0.0516,0.0000,0.0000,0.0000,20.0000,1.3221,2.5073,28.7671,42.0631,0.0758,0.000813,219.0831,12.4644,-76.5749,64.1105,219.0831,-0.0016,-17.0586,-18.8955,-0.9800,0.0000,-0.008171,-0.008859,0.005435,-0.0025,-0.0010,-0.0000,180.0000,-0.0000,0.0000
180,1.8000,-0.0353,0.0356,-0.0205,0.0542,0.0000,0.0000,0.0000,20.0000,1.2269,2.4395,11.0893,40.8455,0.0764,0.000705,219.0831,12.4644,-76.5749,64.1105,219.0831,-0.0016,-17.0586,-18.8955,-0.9800,0.0000,-0.008003,-0.007960,0.004808,-0.0006,0.0009,-0.0017,180.0000,-0.0000,0.0000
181,1.8100,-0.0322,0.0475,-0.0158,0.0595,0.0000,0.0000,0.0000,20.0000,1.2166,2.3725,11.4498,39.2186,0.0771,0.000893,219.0831,12.4644,-76.5749,64.1105,219.0831,-0.0016,-17.0586,-18.8955,-0.9800,0.0000,-0.007581,-0.008639,0.003988,-0.0013,0.0000,-0.0006,180.0000,-0.0000,0.0000
182,1.8200,-0.0260,0.0521,-0.0126,0.0596,0.0000,0.0000,0.0000,20.0000,1.2031,2.3085,14.2594,37.7683,0.0777,0.003853,219.0831,12.4644,-76.5749,64.1105,219.0831,-0.0016,-17.0586,-18.8955,-0.9800,0.0000,-0.006715,-0.009455,0.003203,-0.0031,-0.0014,-0.0016,180.0000,-0.0000,0.0000
183,1.8300,-0.0253,0.0444,-0.0171,0.0539,0.0000,0.0000,0.0000,20.0000,1.1461,2.2461,6.5584,36.2633,0.0782,0.000723,219.0831,12.4644,-76.5749,64.1105,219.0831,-0.0016,-17.0586,-18.8955,-0.9800,0.0000,-0.006150,-0.009121,0.003214,-0.0048,-0.0018,-0.0016,180.0000,-0.0000,0.0000
184,1.8400,-0.0216,0.0300,-0.0299,0.0476,0.0000,0.0000,0.0000,20.0000,1.0290,2.1824,21.9702,35.0532,0.0788,0.000781,219.0831,12.4644,-76.5749,64.1105,219.0831,-0.0016,-17.0586,-18.8955,-0.9800,0.0000,-0.005457,-0.007477,0.004496,-0.0061,-0.0018,-0.0005,180.0000,-0.0000,0.0000
185,1.8500,-0.0147,0.0113,-0.0429,0.0468,0.0000,0.0000,0.0000,20.0000,0.9122,2.1158,36.0451,34.7207,0.0793,0.000870,219.0831,12.4644,-76.5749,64.1105,219.0831,-0.0016,-17.0586,-18.8955,-0.9800,0.0000,-0.004376,-0.004678,0.006494,-0.0064,-0.0029,-0.0000,180.0000,-0.0000,0.0000
186,1.8600,-0.0168,0.0017,-0.0466,0.0495,0.0000,0.0000,0.0000,20.0000,0.9150,2.0496,29.2971,34.6079,0.0798,0.000667,219.0831,12.4644,-76.5749,64.1105,219.0831,-0.0016,-17.0586,-18.8955,-0.9800,0.0000,-0.003982,-0.002166,0.007949,-0.0046,-0.0022,-0.0018,180.0000,-0.0000,0.0000
187,1.8700,-0.0196,0.0060,-0.0452,0.0497,0.0000,0.0000,0.0000,20.0000,0.9577,1.9884,11.6822,33.8313,0.0802,0.000826,219.0831,12.4644,-76.5749,64.1105,219.0831,-0.0016,-17.0586,-18.8955,-0.9800,0.0000,-0.004034,-0.001200,0.008603,-0.0030,-0.0012,-0.0005,180.0000,-0.0000,0.0000
188,1.8800,-0.0126,0.0128,-0.0407,0.0444,0.0000,0.0000,0.0000,20.0000,0.9227,1.9307,7.0332,32.4850,0.0807,0.000718,219.0831,12.4644,-76.5749,64.1105,219.0831,-0.0016,-17.0586,-18.8955,-0.9800,0.0000,-0.003354,-0.001340,0.008491,-0.0023,-0.0009,-0.0012,180.0000,-0.0000,0.0000
189,1.8900,-0.0093,0.0209,-0.0319,0.0392,0.0000,0.0000,0.0000,20.0000,0.8285,1.8727,14.8825,31.3009,0.0811,0.000678,219.0831,12.4644,-76.5749,64.1105,219.0831,-0.0016,-17.0586,-18.8955,-0.9800,0.0000,-0.002636,-0.002224,0.007533,-0.0019,-0.0016,-0.0007,180.0000,-0.0000,0.0000
190,1.9000,-0.0065,0.0375,-0.0282,0.0474,0.0000,0.0000,0.0000,20.0000,0.8175,1.8149,24.3489,30.6581,0.0816,0.000803,219.0831,12.4644,-76.5749,64.1105,219.0831,-0.0016,-17.0586,-18.8955,-0.9800,0.0000,-0.001960,-0.004378,0.006621,-0.0021,-0.0015,0.0004,180.0000,-0.0000,0.0000
191,1.9100,-0.0033,0.0464,-0.0348,0.0581,0.0000,0.0000,0.0000,20.0000,0.9430,1.7635,21.9100,30.2440,0.0821,0.000798,219.0831,12.4644,-76.5749,64.1105,219.0831,-0.0016,-17.0586,-18.8955,-0.9800,0.0000,-0.001262,-0.006450,0.006763,-0.0036,-0.0021,0.0012,180.0000,-0.0000,0.0000
192,1.9200,-0.0143,0.0393,-0.0466,0.0626,0.0000,0.0000,0.0000,20.0000,1.0733,1.7220,14.9476,29.5940,0.0827,0.000791,219.0831,12.4644,-76.5749,64.1105,219.0831,-0.0016,-17.0586,-18.8955,-0.9800,0.0000,-0.001975,-0.006868,0.008008,-0.0030,-0.0010,0.0014,180.0000,-0.0000,0.0000
193,1.9300,-0.0343,0.0358,-0.0563,0.0750,0.0000,0.0000,0.0000,20.0000,1.3220,1.6931,32.7622,29.2783,0.0834,0.000763,219.1036,12.5053,-76.6601,64.1549,219.1036,-0.0152,-17.1243,-19.6299,-0.9845,-0.0000,-0.004515,-0.007345,0.010021,-0.0016,-0.0009,0.0020,180.0000,-0.0000,-0.0000
194,1.9400,-0.0539,0.0367,-0.0620,0.0900,0.0000,0.0000,0.0000,20.0000,1.6049,1.6805,37.5846,29.6026,0.0843,0.001013,219.1036,12.5053,-76.6601,64.1549,219.1036,-0.0152,-17.1243,-19.6299,-0.9845,-0.0000,-0.007868,-0.007690,0.011684,-0.0011,-0.0008,0.0012,180.0000,-0.0000,-0.0000
195,1.9500,-0.0776,0.0326,-0.0610,0.1040,0.0000,0.0000,0.0000,20.0000,1.8897,1.6842,42.9021,30.1879,0.0854,0.000732,219.1036,12.5053,-76.6601,64.1549,219.1036,-0.0152,-17.1243,-19.6299,-0.9845,-0.0000,-0.012079,-0.007455,0.012475,-0.0019,-0.0012,0.0004,180.0000,-0.0000,-0.0000
196,1.9600,-0.0981,0.0291,-0.0523,0.1149,0.0000,0.0000,0.0000,20.0000,2.1507,1.7027,43.9889,30.9172,0.0866,0.000758,219.1036,12.5053,-76.6601,64.1549,219.1036,-0.0152,-17.1243,-19.6299,-0.9845,-0.0000,-0.016425,-0.006953,0.012018,-0.0005,-0.0017,0.0003,180.0000,-0.0000,-0.0000
197,1.9700,-0.1043,0.0316,-0.0377,0.1153,0.0000,0.0000,0.0000,20.0000,2.3035,1.7315,34.6410,31.3792,0.0877,0.000784,219.1036,12.5053,-76.6601,64.1549,219.1036,-0.0152,-17.1243,-19.6299,-0.9845,-0.0000,-0.019421,-0.006911,0.010280,-0.0014,-0.0032,-0.0009,180.0000,-0.0000,-0.0000
198,1.9800,-0.1004,0.0274,-0.0235,0.1067,0.0000,0.0000,0.0000,20.0000,2.3026,1.7629,27.2997,31.3567,0.0889,0.000792,219.1036,12.5053,-76.6601,64.1549,219.1036,-0.0152,-17.1243,-19.6299,-0.9845,-0.0000,-0.020647,-0.006460,0.007883,-0.0020,-0.0038,-0.0002,180.0000,-0.0000,-0.0000
199,1.9900,-0.0905,0.0123,-0.0190,0.0933,0.0000,0.0000,0.0000,20.0000,2.1696,1.7890,25.4870,31.0836,0.0898,0.000809,219.1036,12.5053,-76.6601,64.1549,219.1036,-0.0152,-17.1243,-19.6299,-0.9845,-0.0000,-0.020290,-0.004683,0.006091,-0.0012,-0.0027,0.0006,180.0000,-0.0000,-0.0000
200,2.0000,-0.0754,-0.0047,-0.0263,0.0800,0.0000,0.0000,0.0000,20.0000,1.9540,1.8040,32.1533,30.9591,0.0907,0.000741,219.1036,12.5053,-76.6601,64.1549,219.1036,-0.0152,-17.1243,-19.6299,-0.9845,-0.0000,-0.018544,-0.001996,0.005824,-0.0012,-0.0027,0.0002,180.0000,-0.0000,-0.0000
201,2.0100,-0.0608,-0.0167,-0.0445,0.0772,0.0000,0.0000,0.0000,20.0000,1.7748,1.8073,40.0590,31.2423,0.0914,0.000744,219.1036,12.5053,-76.6601,64.1549,219.1036,-0.0152,-17.1243,-19.6299,-0.9845,-0.0000,-0.016081,0.000695,0.007478,-0.0023,-0.0020,0.0010,180.0000,-0.0000,-0.0000
202,2.0200,-0.0492,-0.0260,-0.0685,0.0883,0.0000,0.0000,0.0000,20.0000,1.7576,1.8050,48.1820,31.9507,0.0921,0.000800,219.1036,12.5053,-76.6601,64.1549,219.1036,-0.0152,-17.1243,-19.6299,-0.9845,-0.0000,-0.013531,0.003109,0.010777,-0.0020,-0.0019,0.0015,180.0000,-0.0000,-0.0000
203,2.0300,-0.0511,-0.0307,-0.0857,0.1044,0.0000,0.0000,0.0000,20.0000,1.9478,1.8077,41.5215,32.6603,0.0929,0.000788,219.1036,12.5053,-76.6601,64.1549,219.1036,-0.0152,-17.1243,-19.6299,-0.9845,-0.0000,-0.012276,0.004906,0.014304,-0.0032,0.0002,0.0001,180.0000,-0.0000,-0.0000
204,2.0400,-0.0708,-0.0322,-0.0866,0.1164,0.0000,0.0000,0.0000,20.0000,2.2038,1.8224,26.2609,32.7280,0.0938,0.000753,219.1036,12.5053,-76.6601,64.1549,219.1036,-0.0152,-17.1243,-19.6299,-0.9845,-0.0000,-0.013531,0.006041,0.016313,-0.0048,0.0008,-0.0009,180.0000,-0.0000,-0.0000
205,2.0500,-0.0945,-0.0352,-0.0783,0.1277,0.0000,0.0000,0.0000,20.0000,2.4442,1.8500,31.8942,32.5272,0.0947,0.000787,219.1036,12.5053,-76.6601,64.1549,219.1036,-0.0152,-17.1243,-19.6299,-0.9845,-0.0000,-0.016574,0.006962,0.016561,-0.0052,0.0018,-0.0012,180.0000,-0.0000,-0.0000
206,2.0600,-0.1121,-0.0376,-0.0625,0.1338,0.0000,0.0000,0.0000,20.0000,2.6192,1.8875,37.8633,32.6566,0.0957,0.000694,219.1036,12.5053,-76.6601,64.1549,219.1036,-0.0152,-17.1243,-19.6299,-0.9845,-0.0000,-0.019984,0.007690,0.015084,-0.0045,0.0025,-0.0015,180.0000,-0.0000,-0.0000
207,2.0700,-0.1264,-0.0418,-0.0422,0.1397,0.0000,0.0000,0.0000,20.0000,2.7606,1.9316,44.3546,33.1215,0.0966,0.000765,219.1036,12.5053,-76.6601,64.1549,219.1036,-0.0152,-17.1243,-19.6299,-0.9845,-0.0000,-0.023257,0.008502,0.012203,-0.0044,0.0038,-0.0030,180.0000,-0.0000,-0.0000
208,2.0800,-0.1352,-0.0511,-0.0329,0.1483,0.0000,0.0000,0.0000,20.0000,2.9350,1.9820,39.1336,33.5958,0.0975,0.000784,219.1036,12.5053,-76.6601,64.1549,219.1036,-0.0152,-17.1243,-19.6299,-0.9845,-0.0000,-0.025901,0.009863,0.009659,-0.0041,0.0030,-0.0027,180.0000,-0.0000,-0.0000
209,2.0900,-0.1297,-0.0534,-0.0404,0.1460,0.0000,0.0000,0.0000,20.0000,3.0236,2.0369,14.5712,33.2249,0.0984,0.000765,219.1036,12.5053,-76.6601,64.1549,219.1036,-0.0152,-17.1243,-19.6299,-0.9845,-0.0000,-0.026761,0.010830,0.008989,-0.0028,0.0028,-0.0025,180.0000,-0.0000,-0.0000
210,2.1000,-0.1208,-0.0524,-0.0538,0.1422,0.0000,0.0000,0.0000,20.0000,3.0265,2.0913,11.3820,32.1111,0.0993,0.000750,219.1036,12.5053,-76.6601,64.1549,219.1036,-0.0152,-17.1243,-19.6299,-0.9845,-0.0000,-0.026285,0.011238,0.009939,-0.0026,0.0029,-0.0015,180.0000,-0.0000,-0.0000
211,2.1100,-0.1157,-0.0640,-0.0716,0.1504,0.0000,0.0000,0.0000,20.0000,3.0931,2.1445,27.8368,31.4234,0.1002,0.000724,219.1036,12.5053,-76.6601,64.1549,219.1036,-0.0152,-17.1243,-19.6299,-0.9845,-0.0000,-0.025466,0.012598,0.012226,-0.0027,0.0026,-0.0013,180.0000,-0.0000,-0.0000
212,2.1200,-0.1052,-0.0747,-0.0939,0.1596,0.0000,0.0000,0.0000,20.0000,3.2020,2.1997,42.0669,31.6175,0.1012,0.000781,219.1036,12.5053,-76.6601,64.1549,219.1036,-0.0152,-17.1243,-19.6299,-0.9845,-0.0000,-0.023910,0.014398,0.015694,-0.0013,0.0017,-0.0002,180.0000,-0.0000,-0.0000
213,2.1300,-0.0866,-0.0695,-0.1114,0.1573,0.0000,0.0000,0.0000,20.0000,3.2788,2.2570,46.1103,32.3035,0.1023,0.000787,219.0885,12.5372,-76.7333,64.1960,219.0885,-0.0023,-17.1449,-20.8998,-0.9854,0.0000,-0.021641,0.014802,0.019688,0.0007,0.0013,-0.0014,180.0000,0.0000,0.0000
214,2.1400,-0.0762,-0.0558,-0.1212,0.1536,0.0000,0.0000,0.0000,20.0000,3.2856,2.3133,40.9703,32.9216,0.1035,0.000775,219.0885,12.5372,-76.7333,64.1960,219.0885,-0.0023,-17.1449,-20.8998,-0.9854,0.0000,-0.019295,0.013628,0.022836,0.0010,0.0019,-0.0031,180.0000,0.0000,0.0000
215,2.1500,-0.0782,-0.0413,-0.1266,0.1544,0.0000,0.0000,0.0000,20.0000,3.3027,2.3673,32.9441,33.1436,0.1049,0.000665,219.0885,12.5372,-76.7333,64.1960,219.0885,-0.0023,-17.1449,-20.8998,-0.9854,0.0000,-0.018160,0.011496,0.025076,0.0018,0.0012,-0.0038,180.0000,0.0000,0.0000
216,2.1600,-0.0847,-0.0231,-0.1308,0.1575,0.0000,0.0000,0.0000,20.0000,3.3362,2.4197,34.2274,33.1679,0.1064,0.000747,219.0885,12.5372,-76.7333,64.1960,219.0885,-0.0023,-17.1449,-20.8998,-0.9854,0.0000,-0.018152,0.008472,0.026679,0.0011,0.0013,-0.0053,180.0000,0.0000,0.0000
217,2.1700,-0.1054,-0.0102,-0.1354,0.1719,0.0000,0.0000,0.0000,20.0000,3.4927,2.4744,38.2398,33.3366,0.1082,0.000780,219.0885,12.5372,-76.7333,64.1960,219.0885,-0.0023,-17.1449,-20.8998,-0.9854,0.0000,-0.020175,0.005497,0.027976,-0.0022,0.0019,-0.0057,180.0000,0.0000,0.0000
218,2.1800,-0.1368,-0.0065,-0.1442,0.1989,0.0000,0.0000,0.0000,20.0000,3.8452,2.5401,49.3058,33.9106,0.1103,0.000695,219.0885,12.5372,-76.7333,64.1960,219.0885,-0.0023,-17.1449,-20.8998,-0.9854,0.0000,-0.024397,0.003471,0.029518,-0.0046,0.0007,-0.0052,180.0000,0.0000,0.0000
219,2.1900,-0.1624,0.0100,-0.1564,0.2257,0.0000,0.0000,0.0000,20.0000,4.3008,2.6244,59.3634,35.0341,0.1128,0.000735,219.0885,12.5372,-76.7333,64.1960,219.0885,-0.0023,-17.1449,-20.8998,-0.9854,0.0000,-0.029244,0.000695,0.031527,-0.0069,-0.0018,-0.0045,180.0000,0.0000,0.0000
220,2.2000,-0.1802,0.0538,-0.1671,0.2516,0.0000,0.0000,0.0000,20.0000,4.7867,2.7300,76.7151,36.8497,0.1158,0.000992,219.0885,12.5372,-76.7333,64.1960,219.0885,-0.0023,-17.1449,-20.8998,-0.9854,0.0000,-0.033640,-0.005223,0.033650,-0.0105,-0.0049,-0.0060,180.0000,0.0000,0.0000
221,2.2100,-0.1969,0.1243,-0.1753,0.2914,0.0000,0.0000,0.0000,20.0000,5.4092,2.8603,112.3249,40.0220,0.1194,0.000682,219.0885,12.5372,-76.7333,64.1960,219.0885,-0.0023,-17.1449,-20.8998,-0.9854,0.0000,-0.037675,-0.015528,0.035573,-0.0132,-0.0080,-0.0067,180.0000,0.0000,0.0000
222,2.2200,-0.2199,0.2155,-0.1872,0.3604,0.0000,0.0000,0.0000,20.0000,6.4189,3.0282,156.0173,45.2009,0.1239,0.000960,219.0885,12.5372,-76.7333,64.1960,219.0885,-0.0023,-17.1449,-20.8998,-0.9854,0.0000,-0.042134,-0.030318,0.037760,-0.0161,-0.0097,-0.0101,180.0000,0.0000,0.0000
223,2.2300,-0.2412,0.3152,-0.2063,0.4473,0.0000,0.0000,0.0000,20.0000,7.8628,3.2545,188.7959,52.1983,0.1293,0.000928,219.0885,12.5372,-76.7333,64.1960,219.0885,-0.0023,-17.1449,-20.8998,-0.9854,0.0000,-0.046641,-0.048398,0.040798,-0.0155,-0.0126,-0.0111,180.0000,0.0000,0.0000
224,2.2400,-0.2607,0.3956,-0.2298,0.5266,0.0000,0.0000,0.0000,20.0000,9.4886,3.5527,188.7785,59.7118,0.1359,0.000686,219.0885,12.5372,-76.7333,64.1960,219.0885,-0.0023,-17.1449,-20.8998,-0.9854,0.0000,-0.050992,-0.066338,0.044747,-0.0137,-0.0130,-0.0123,180.0000,0.0000,0.0000
225,2.2500,-0.2857,0.4322,-0.2571,0.5784,0.0000,0.0000,0.0000,20.0000,10.9248,3.9187,150.7029,65.7642,0.1436,0.000739,219.0885,12.5372,-76.7333,64.1960,219.0885,-0.0023,-17.1449,-20.8998,-0.9854,0.0000,-0.055789,-0.079788,0.049565,-0.0093,-0.0118,-0.0121,180.0000,0.0000,0.0000
226,2.2600,-0.3007,0.4261,-0.2822,0.5930,0.0000,0.0000,0.0000,20.0000,11.8492,4.3295,93.0545,68.8510,0.1522,0.000830,219.0885,12.5372,-76.7333,64.1960,219.0885,-0.0023,-17.1449,-20.8998,-0.9854,0.0000,-0.059838,-0.086453,0.054642,-0.0056,-0.0100,-0.0105,180.0000,0.0000,0.0000
227,2.2700,-0.2950,0.3868,-0.2893,0.5660,0.0000,0.0000,0.0000,20.0000,12.0577,4.7489,37.6764,68.6592,0.1614,0.000686,219.0885,12.5372,-76.7333,64.1960,219.0885,-0.0023,-17.1449,-20.8998,-0.9854,0.0000,-0.061383,-0.086028,0.058052,-0.0011,-0.0088,-0.0077,180.0000,0.0000,0.0000
228,2.2800,-0.2722,0.3284,-0.2798,0.5101,0.0000,0.0000,0.0000,20.0000,11.5806,5.1378,64.8805,67.7032,0.1705,0.000746,219.0885,12.5372,-76.7333,64.1960,219.0885,-0.0023,-17.1449,-20.8998,-0.9854,0.0000,-0.059836,-0.079781,0.058871,0.0011,-0.0053,-0.0064,180.0000,0.0000,0.0000
229,2.2900,-0.2317,0.2712,-0.2555,0.4388,0.0000,0.0000,0.0000,20.0000,10.5786,5.4647,108.0245,68.7345,0.1792,0.000955,219.0885,12.5372,-76.7333,64.1960,219.0885,-0.0023,-17.1449,-20.8998,-0.9854,0.0000,-0.054807,-0.070454,0.056773,0.0028,-0.0040,-0.0055,180.0000,0.0000,0.0000
230,2.3000,-0.1743,0.2272,-0.2139,0.3574,0.0000,0.0000,0.0000,20.0000,9.1975,5.7080,140.7243,71.7952,0.1869,0.000686,219.0885,12.5372,-76.7333,64.1960,219.0885,-0.0023,-17.1449,-20.8998,-0.9854,0.0000,-0.046183,-0.060749,0.051342,0.0022,-0.0023,-0.0029,180.0000,0.0000,0.0000
231,2.3100,-0.1161,0.1973,-0.1686,0.2843,0.0000,0.0000,0.0000,20.0000,7.6834,5.8583,156.2785,76.0146,0.1935,0.000804,219.0885,12.5372,-76.7333,64.1960,219.0885,-0.0023,-17.1449,-20.8998,-0.9854,0.0000,-0.035497,-0.052280,0.043705,0.0024,-0.0021,-0.0007,180.0000,0.0000,0.0000
232,2.3200,-0.0635,0.1821,-0.1316,0.2334,0.0000,0.0000,0.0000,20.0000,6.4005,5.9234,140.1646,79.9866,0.1989,0.000664,219.0677,12.5996,-76.8831,64.2836,219.0677,-0.0156,-17.0897,-17.5869,-0.9836,-0.0000,-0.025141,-0.046182,0.036492,0.0013,-0.0029,0.0014,180.0000,0.0000,0.0000
233,2.3300,-0.0231,0.1649,-0.1007,0.1946,0.0000,0.0000,0.0000,20.0000,5.2704,5.9186,131.9707,83.0715,0.2033,0.000696,219.0677,12.5996,-76.8831,64.2836,219.0677,-0.0156,-17.0897,-17.5869,-0.9836,-0.0000,-0.015328,-0.041008,0.029345,-0.0007,-0.0034,0.0024,180.0000,0.0000,0.0000
234,2.3400,-0.0003,0.1381,-0.0800,0.1596,0.0000,0.0000,0.0000,20.0000,4.3020,5.8563,113.3659,85.2496,0.2067,0.000799,219.0677,12.5996,-76.8831,64.2836,219.0677,-0.0156,-17.0897,-17.5869,-0.9836,-0.0000,-0.007589,-0.035384,0.023262,-0.0014,-0.0023,0.0036,180.0000,0.0000,0.0000
235,2.3500,0.0052,0.1122,-0.0699,0.1323,0.0000,0.0000,0.0000,20.0000,3.5211,5.7493,87.3068,86.0795,0.2094,0.001019,219.0677,12.5996,-76.8831,64.2836,219.0677,-0.0156,-17.0897,-17.5869,-0.9836,-0.0000,-0.002746,-0.029615,0.018847,-0.0020,-0.0025,0.0020,180.0000,0.0000,0.0000
236,2.3600,-0.0030,0.0881,-0.0606,0.1070,0.0000,0.0000,0.0000,20.0000,2.8513,5.6083,68.6293,85.6333,0.2115,0.000696,219.0677,12.5996,-76.8831,64.2836,219.0677,-0.0156,-17.0897,-17.5869,-0.9836,-0.0000,-0.000890,-0.023954,0.015440,-0.0025,-0.0018,-0.0011,180.0000,0.0000,0.0000
237,2.3700,-0.0157,0.0636,-0.0511,0.0831,0.0000,0.0000,0.0000,20.0000,2.2255,5.4394,63.1860,84.5483,0.2133,0.000781,219.0677,12.5996,-76.8831,64.2836,219.0677,-0.0156,-17.0897,-17.5869,-0.9836,-0.0000,-0.001127,-0.018328,0.012574,-0.0029,-0.0005,-0.0017,180.0000,0.0000,0.0000
238,2.3800,-0.0235,0.0495,-0.0401,0.0679,0.0000,0.0000,0.0000,20.0000,1.7061,5.2484,53.7995,83.1150,0.2146,0.000761,219.0677,12.5996,-76.8831,64.2836,219.0677,-0.0156,-17.0897,-17.5869,-0.9836,-0.0000,-0.002036,-0.013770,0.009865,-0.0018,-0.0006,-0.0018,180.0000,0.0000,0.0000
239,2.3900,-0.0265,0.0523,-0.0251,0.0638,0.0000,0.0000,0.0000,20.0000,1.3685,5.0442,38.6164,81.0848,0.2158,0.000685,219.0677,12.5996,-76.8831,64.2836,219.0677,-0.0156,-17.0897,-17.5869,-0.9836,-0.0000,-0.002841,-0.011506,0.006841,-0.0025,-0.0006,-0.0029,180.0000,0.0000,0.0000
240,2.4000,-0.0264,0.0637,-0.0131,0.0702,0.0000,0.0000,0.0000,20.0000,1.2472,4.8387,29.1527,78.4884,0.2167,0.000812,219.0677,12.5996,-76.8831,64.2836,219.0677,-0.0156,-17.0897,-17.5869,-0.9836,-0.0000,-0.003267,-0.011366,0.003961,-0.0032,-0.0003,-0.0030,180.0000,0.0000,0.0000
241,2.4100,-0.0239,0.0847,-0.0127,0.0889,0.0000,0.0000,0.0000,20.0000,1.3953,4.6452,25.9218,75.6857,0.2177,0.000638,219.0677,12.5996,-76.8831,64.2836,219.0677,-0.0156,-17.0897,-17.5869,-0.9836,-0.0000,-0.003246,-0.013371,0.002317,-0.0037,0.0013,-0.0030,180.0000,0.0000,0.0000
242,2.4200,-0.0231,0.1270,-0.0307,0.1327,0.0000,0.0000,0.0000,20.0000,1.9214,4.4809,53.8501,73.7164,0.2190,0.000677,219.0677,12.5996,-76.8831,64.2836,219.0677,-0.0156,-17.0897,-17.5869,-0.9836,-0.0000,-0.003151,-0.018680,0.003212,-0.0054,0.0020,-0.0049,180.0000,0.0000,0.0000
243,2.4300,-0.0323,0.1969,-0.0808,0.2152,0.0000,0.0000,0.0000,20.0000,3.0128,4.3701,113.4058,74.2616,0.2212,0.000830,219.0677,12.5996,-76.8831,64.2836,219.0677,-0.0156,-17.0897,-17.5869,-0.9836,-0.0000,-0.004005,-0.028563,0.008709,-0.0071,0.0028,-0.0083,180.0000,0.0000,0.0000
244,2.4400,-0.0679,0.2904,-0.1761,0.3463,0.0000,0.0000,0.0000,20.0000,4.8920,4.3472,197.8603,78.7377,0.2251,0.000795,219.0677,12.5996,-76.8831,64.2836,219.0677,-0.0156,-17.0897,-17.5869,-0.9836,-0.0000,-0.008028,-0.043322,0.021257,-0.0097,0.0017,-0.0120,180.0000,0.0000,0.0000
245,2.4500,-0.1274,0.3939,-0.3025,0.5128,0.0000,0.0000,0.0000,20.0000,7.5756,4.4509,280.6656,87.5679,0.2317,0.000656,219.0677,12.5996,-76.8831,64.2836,219.0677,-0.0156,-17.0897,-17.5869,-0.9836,-0.0000,-0.016192,-0.061750,0.040790,-0.0108,0.0014,-0.0150,180.0000,0.0000,0.0000
246,2.4600,-0.1942,0.4885,-0.4334,0.6813,0.0000,0.0000,0.0000,20.0000,10.7354,4.7097,327.4355,99.4762,0.2416,0.000771,219.0677,12.5996,-76.8831,64.2836,219.0677,-0.0156,-17.0897,-17.5869,-0.9836,-0.0000,-0.027347,-0.081267,0.064597,-0.0108,0.0018,-0.0169,180.0000,0.0000,0.0000
247,2.4700,-0.2543,0.5578,-0.5541,0.8264,0.0000,0.0000,0.0000,20.0000,13.9177,5.1287,329.4539,112.0713,0.2549,0.000727,219.0677,12.5996,-76.8831,64.2836,219.0677,-0.0156,-17.0897,-17.5869,-0.9836,-0.0000,-0.039475,-0.098825,0.089697,-0.0086,0.0042,-0.0173,180.0000,0.0000,0.0000
248,2.4800,-0.2925,0.5738,-0.6574,0.9203,0.0000,0.0000,0.0000,20.0000,16.5863,5.6856,284.5626,122.7944,0.2714,0.000648,219.0677,12.5996,-76.8831,64.2836,219.0677,-0.0156,-17.0897,-17.5869,-0.9836,-0.0000,-0.049919,-0.109934,0.113724,-0.0076,0.0057,-0.0129,180.0000,0.0000,0.0000
249,2.4900,-0.2807,0.5167,-0.7490,0.9522,0.0000,0.0000,0.0000,20.0000,18.3223,6.3329,226.6390,130.0998,0.2904,0.000716,219.0677,12.5996,-76.8831,64.2836,219.0677,-0.0156,-17.0897,-17.5869,-0.9836,-0.0000,-0.054410,-0.110142,0.135937,-0.0040,0.0147,-0.0056,180.0000,0.0000,0.0000
250,2.5000,-0.2044,0.4110,-0.8444,0.9611,0.0000,0.0000,0.0000,20.0000,19.2648,7.0184,246.1829,135.9478,0.3106,0.000835,219.0677,12.5996,-76.8831,64.2836,219.0677,-0.0156,-17.0897,-17.5869,-0.9836,-0.0000,-0.049152,-0.099470,0.157490,0.0034,0.0293,0.0006,180.0000,0.0000,0.0000
251,2.5100,-0.0634,0.2978,-0.9477,0.9954,0.0000,0.0000,0.0000,20.0000,19.9869,7.7119,328.1394,144.2657,0.3311,0.000661,219.0677,12.5996,-76.8831,64.2836,219.0677,-0.0156,-17.0897,-17.5869,-0.9836,-0.0000,-0.032049,-0.082045,0.179413,0.0129,0.0492,0.0070,180.0000,0.0000,0.0000
252,2.5200,0.1434,0.1887,-1.0433,1.0699,0.0000,0.0000,0.0000,20.0000,21.1522,8.4192,416.4978,156.8104,0.3514,0.000711,219.0992,12.7339,-77.1642,64.4302,219.0992,0.0004,-19.2687,-16.9668,-1.7514,0.0000,-0.002762,-0.062839,0.201954,0.0224,0.0737,0.0128,180.0000,0.0000,-0.0000
253,2.5300,0.4111,0.1008,-1.1096,1.1876,0.0000,0.0000,0.0000,20.0000,22.8408,9.1660,507.6446,173.6022,0.3705,0.000724,219.0992,12.7339,-77.1642,64.4302,219.0992,0.0004,-19.2687,-16.9668,-1.7514,0.0000,0.040210,-0.043304,0.220632,0.0324,0.1065,0.0174,180.0000,0.0000,-0.0000
254,2.5400,0.7348,0.0568,-1.1236,1.3437,0.0000,0.0000,0.0000,20.0000,25.2658,9.9850,591.7013,194.2891,0.3876,0.000766,219.0992,12.7339,-77.1642,64.4302,219.0992,0.0004,-19.2687,-16.9668,-1.7514,0.0000,0.096247,-0.028026,0.231920,0.0444,0.1386,0.0222,180.0000,0.0000,-0.0000
255,2.5500,1.1159,0.0521,-1.0916,1.5620,0.0000,0.0000,0.0000,20.0000,28.7449,10.9212,695.2970,218.9993,0.4021,0.000730,219.0992,12.7339,-77.1642,64.4302,219.0992,0.0004,-19.2687,-16.9668,-1.7514,0.0000,0.165147,-0.019046,0.234501,0.0527,0.1794,0.0314,180.0000,0.0000,-0.0000
256,2.5600,1.5559,0.0589,-1.0422,1.8736,0.0000,0.0000,0.0000,20.0000,33.8103,12.0410,819.6121,248.6186,0.4139,0.000670,219.0992,12.7339,-77.1642,64.4302,219.0992,0.0004,-19.2687,-16.9668,-1.7514,0.0000,0.246897,-0.014726,0.230518,0.0613,0.2143,0.0404,180.0000,0.0000,-0.0000
257,2.5700,2.0619,0.0555,-1.0000,2.2922,0.0000,0.0000,0.0000,20.0000,40.8961,13.4333,955.8365,283.7746,0.4234,0.000643,219.0992,12.7339,-77.1642,64.4302,219.0992,0.0004,-19.2687,-16.9668,-1.7514,0.0000,0.342192,-0.011973,0.223629,0.0709,0.2515,0.0509,180.0000,0.0000,-0.0000
258,2.5800,2.6417,0.0312,-0.9868,2.8202,0.0000,0.0000,0.0000,20.0000,50.2071,15.2001,1101.9535,324.7622,0.4321,0.000848,219.0992,12.7339,-77.1642,64.4302,219.0992,0.0004,-19.2687,-16.9668,-1.7514,0.0000,0.452175,-0.007994,0.218057,0.0812,0.2867,0.0606,180.0000,0.0000,-0.0000
259,2.5900,3.2798,-0.0260,-1.0129,3.4327,0.0000,0.0000,0.0000,20.0000,61.5453,17.4376,1239.5568,371.2986,0.4429,0.000653,219.0992,12.7339,-77.1642,64.4302,219.0992,0.0004,-19.2687,-16.9668,-1.7514,0.0000,0.575873,-0.000057,0.217146,0.0887,0.3217,0.0694,180.0000,0.0000,-0.0000
260,2.6000,3.9474,-0.1094,-1.0673,4.0906,0.0000,0.0000,0.0000,20.0000,74.3765,20.2168,1346.6278,422.0046,0.4604,0.000656,219.0992,12.7339,-77.1642,64.4302,219.0992,0.0004,-19.2687,-16.9668,-1.7514,0.0000,0.709857,0.012667,0.221650,0.0953,0.3482,0.0750,180.0000,0.0000,-0.0000
261,2.6100,4.6248,-0.1995,-1.1368,4.7667,0.0000,0.0000,0.0000,20.0000,88.1446,23.5747,1415.8957,474.7714,0.4907,0.000755,219.0992,12.7339,-77.1642,64.4302,219.0992,0.0004,-19.2687,-16.9668,-1.7514,0.0000,0.850250,0.028686,0.230650,0.1007,0.3767,0.0813,180.0000,0.0000,-0.0000
262,2.6200,5.2844,-0.2923,-1.2166,5.4305,0.0000,0.0000,0.0000,20.0000,102.2543,27.5146,1435.5671,527.0818,0.5416,0.000693,219.0992,12.7339,-77.1642,64.4302,219.0992,0.0004,-19.2687,-16.9668,-1.7514,0.0000,0.992114,0.046769,0.243139,0.1033,0.4032,0.0863,180.0000,0.0000,-0.0000
263,2.6300,5.9043,-0.3924,-1.2955,6.0575,0.0000,0.0000,0.0000,20.0000,116.1395,32.0078,1405.7709,576.2363,0.6216,0.000669,219.0992,12.7339,-77.1642,64.4302,219.0992,0.0004,-19.2687,-16.9668,-1.7514,0.0000,1.130537,0.066679,0.257448,0.1052,0.4294,0.0906,180.0000,0.0000,-0.0000
264,2.6400,6.4935,-0.4878,-1.3636,6.6531,0.0000,0.0000,0.0000,20.0000,129.5517,37.0046,1354.8399,620.4665,0.7400,0.000863,219.0992,12.7339,-77.1642,64.4302,219.0992,0.0004,-19.2687,-16.9668,-1.7514,0.0000,1.263719,0.087092,0.271649,0.1084,0.4537,0.0954,180.0000,0.0000,-0.0000
265,2.6500,7.0625,-0.5764,-1.4194,7.2268,0.0000,0.0000,0.0000,20.0000,142.4529,42.4503,1301.7850,659.4037,0.9064,0.000748,219.0992,12.7339,-77.1642,64.4302,219.0992,0.0004,-19.2687,-16.9668,-1.7514,0.0000,1.391709,0.107057,0.284545,0.1093,0.4757,0.1018,180.0000,0.0000,-0.0000
266,2.6600,7.6004,-0.6609,-1.4667,7.7688,0.0000,0.0000,0.0000,20.0000,154.7276,48.2888,1237.9082,692.9830,1.1309,0.000655,219.0992,12.7339,-77.1642,64.4302,219.0992,0.0004,-19.2687,-16.9668,-1.7514,0.0000,1.513468,0.126335,0.295833,0.1064,0.4976,0.1062,180.0000,0.0000,-0.0000
267,2.6700,8.0910,-0.7196,-1.5127,8.2626,0.0000,0.0000,0.0000,20.0000,166.1482,54.4579,1149.5949,720.5293,1.4234,0.000806,219.0992,12.7339,-77.1642,64.4302,219.0992,0.0004,-19.2687,-16.9668,-1.7514,0.0000,1.626808,0.142610,0.306074,0.1038,0.5153,0.1093,180.0000,0.0000,-0.0000
268,2.6800,8.5252,-0.7349,-1.5672,8.6991,0.0000,0.0000,0.0000,20.0000,176.4988,60.8865,1038.5690,741.0777,1.7935,0.001360,219.0992,12.7339,-77.1642,64.4302,219.0992,0.0004,-19.2687,-16.9668,-1.7514,0.0000,1.729624,0.152843,0.316582,0.0994,0.5292,0.1115,180.0000,0.0000,-0.0000
269,2.6900,8.8999,-0.7180,-1.6366,9.0776,0.0000,0.0000,0.0000,20.0000,185.6518,67.4978,917.2750,754.1060,2.2498,0.000659,219.0992,12.7339,-77.1642,64.4302,219.0992,0.0004,-19.2687,-16.9668,-1.7514,0.0000,1.820474,0.156506,0.328697,0.0959,0.5420,0.1116,180.0000,0.0000,-0.0000
270,2.7000,9.2142,-0.6899,-1.7159,9.3979,0.0000,0.0000,0.0000,20.0000,193.5403,74.2142,792.5134,759.6502,2.7995,0.000783,219.0992,12.7339,-77.1642,64.4302,219.0992,0.0004,-19.2687,-16.9668,-1.7514,0.0000,1.898477,0.155407,0.342663,0.0944,0.5539,0.1099,180.0000,0.0000,-0.0000
271,2.7100,9.4750,-0.6599,-1.7973,9.6665,0.0000,0.0000,0.0000,20.0000,200.1961,80.9612,672.6086,758.1600,3.4480,0.000775,219.0992,12.7339,-77.1642,64.4302,219.0992,0.0004,-19.2687,-16.9668,-1.7514,0.0000,1.963888,0.151491,0.357834,0.0946,0.5639,0.1096,180.0000,0.0000,-0.0000
272,2.7200,9.6955,-0.6297,-1.8667,9.8936,0.0000,0.0000,0.0000,20.0000,206.7609,87.7006,670.5247,753.3967,4.2037,0.000683,219.4565,11.9500,-76.5553,64.6052,219.4565,-4.8785,-23.1021,-11.3224,-2.8753,-0.5199,2.027638,0.145187,0.377635,0.0933,0.5709,0.1091,-180.0000,-0.0000,0.0000
273,2.7300,9.8782,-0.5977,-1.9114,10.0792,0.0000,0.0000,0.0000,20.0000,211.8330,94.3894,520.5322,744.7127,5.0680,0.000731,219.4565,11.9500,-76.5553,64.6052,219.4565,-4.8785,-23.1021,-11.3224,-2.8753,-0.5199,2.077094,0.138213,0.392301,0.0909,0.5738,0.1102,-180.0000,-0.0000,0.0000
274,2.7400,10.0180,-0.5653,-1.9284,10.2176,0.0000,0.0000,0.0000,20.0000,215.5989,100.9533,389.5163,728.7775,6.0407,0.000803,219.4565,11.9500,-76.5553,64.6052,219.4565,-4.8785,-23.1021,-11.3224,-2.8753,-0.5199,2.114263,0.130845,0.401322,0.0845,0.5718,0.1114,-180.0000,-0.0000,0.0000
275,2.7500,10.1139,-0.5293,-1.9264,10.3093,0.0000,0.0000,0.0000,20.0000,218.1668,107.3303,273.8142,706.9331,7.1201,0.000651,219.4565,11.9500,-76.5553,64.6052,219.4565,-4.8785,-23.1021,-11.3224,-2.8753,-0.5199,2.140164,0.122904,0.405302,0.0780,0.5666,0.1112,-180.0000,-0.0000,0.0000
276,2.7600,10.1710,-0.4833,-1.9105,10.3602,0.0000,0.0000,0.0000,20.0000,219.6591,113.4683,182.6312,680.6002,8.3033,0.000798,219.4565,11.9500,-76.5553,64.6052,219.4565,-4.8785,-23.1021,-11.3224,-2.8753,-0.5199,2.155919,0.113669,0.405102,0.0725,0.5605,0.1107,-180.0000,-0.0000,0.0000
277,2.7700,10.2029,-0.4355,-1.8833,10.3844,0.0000,0.0000,0.0000,20.0000,220.2872,119.3269,131.4965,651.8015,9.5869,0.000795,219.4565,11.9500,-76.5553,64.6052,219.4565,-4.8785,-23.1021,-11.3224,-2.8753,-0.5199,2.163503,0.103563,0.401463,0.0703,0.5573,0.1108,-180.0000,-0.0000,0.0000
278,2.7800,10.2256,-0.3952,-1.8525,10.3996,0.0000,0.0000,0.0000,20.0000,220.3466,124.8822,116.5523,622.7696,10.9676,0.000742,219.4565,11.9500,-76.5553,64.6052,219.4565,-4.8785,-23.1021,-11.3224,-2.8753,-0.5199,2.165641,0.093736,0.395571,0.0702,0.5596,0.1089,-180.0000,-0.0000,0.0000
279,2.7900,10.2564,-0.3698,-1.8214,10.4234,0.0000,0.0000,0.0000,20.0000,220.1786,130.1288,108.5781,594.7042,12.4439,0.000731,219.4565,11.9500,-76.5553,64.6052,219.4565,-4.8785,-23.1021,-11.3224,-2.8753,-0.5199,2.165567,0.085579,0.388405,0.0718,0.5646,0.1074,-180.0000,-0.0000,0.0000
280,2.8000,10.3093,-0.3642,-1.7926,10.4703,0.0000,0.0000,0.0000,20.0000,220.1159,135.0806,92.8642,567.5312,14.0160,0.001480,219.4565,11.9500,-76.5553,64.6052,219.4565,-4.8785,-23.1021,-11.3224,-2.8753,-0.5199,2.166482,0.080339,0.380793,0.0739,0.5713,0.1079,-180.0000,-0.0000,0.0000
281,2.8100,10.3797,-0.3799,-1.7675,10.5360,0.0000,0.0000,0.0000,20.0000,220.2994,139.7632,82.7787,541.1433,15.6854,0.000674,219.4565,11.9500,-76.5553,64.6052,219.4565,-4.8785,-23.1021,-11.3224,-2.8753,-0.5199,2.169701,0.078852,0.373313,0.0752,0.5784,0.1102,-180.0000,-0.0000,0.0000
282,2.8200,10.4812,-0.4266,-1.7356,10.6325,0.0000,0.0000,0.0000,20.0000,220.9257,144.2106,116.7782,516.8647,17.4557,0.000829,219.4565,11.9500,-76.5553,64.6052,219.4565,-4.8785,-23.1021,-11.3224,-2.8753,-0.5199,2.177292,0.082542,0.365243,0.0735,0.5892,0.1153,-180.0000,-0.0000,0.0000
283,2.8300,10.6283,-0.4858,-1.6842,10.7718,0.0000,0.0000,0.0000,20.0000,222.2222,148.4662,194.7086,497.0002,19.3327,0.000704,219.4565,11.9500,-76.5553,64.6052,219.4565,-4.8785,-23.1021,-11.3224,-2.8753,-0.5199,2.191837,0.090338,0.354909,0.0741,0.5996,0.1200,-180.0000,-0.0000,0.0000
284,2.8400,10.8083,-0.5326,-1.6111,10.9407,0.0000,0.0000,0.0000,20.0000,224.1829,152.5773,271.1325,482.4737,21.3235,0.000768,219.4565,11.9500,-76.5553,64.6052,219.4565,-4.8785,-23.1021,-11.3224,-2.8753,-0.5199,2.213495,0.099145,0.341181,0.0734,0.6138,0.1252,-180.0000,-0.0000,0.0000
285,2.8500,11.0264,-0.5607,-1.5222,11.1451,0.0000,0.0000,0.0000,20.0000,226.8639,156.5899,348.1565,472.9667,23.4369,0.000748,219.4565,11.9500,-76.5553,64.6052,219.4565,-4.8785,-23.1021,-11.3224,-2.8753,-0.5199,2.242849,0.106619,0.324015,0.0743,0.6268,0.1300,-180.0000,-0.0000,0.0000
286,2.8600,11.2772,-0.5674,-1.4302,11.3817,0.0000,0.0000,0.0000,20.0000,230.2630,160.5490,418.4584,468.0347,25.6832,0.000730,219.4565,11.9500,-76.5553,64.6052,219.4565,-4.8785,-23.1021,-11.3224,-2.8753,-0.5199,2.279673,0.111212,0.304678,0.0731,0.6390,0.1335,-180.0000,-0.0000,0.0000
287,2.8700,11.5155,-0.5600,-1.3472,11.6076,0.0000,0.0000,0.0000,20.0000,233.9475,164.4852,442.3887,465.9658,28.0699,0.000756,219.4565,11.9500,-76.5553,64.6052,219.4565,-4.8785,-23.1021,-11.3224,-2.8753,-0.5199,2.319300,0.112790,0.285075,0.0718,0.6476,0.1359,-180.0000,-0.0000,0.0000
288,2.8800,11.6985,-0.5462,-1.2903,11.7821,0.0000,0.0000,0.0000,20.0000,237.2711,168.3976,394.6225,463.3551,30.5986,0.000732,219.4565,11.9500,-76.5553,64.6052,219.4565,-4.8785,-23.1021,-11.3224,-2.8753,-0.5199,2.354864,0.112054,0.267988,0.0695,0.6482,0.1392,-180.0000,-0.0000,0.0000
289,2.8900,11.8065,-0.5218,-1.2725,11.8863,0.0000,0.0000,0.0000,20.0000,239.6839,172.2526,284.7588,456.5526,33.2649,0.000706,219.4565,11.9500,-76.5553,64.6052,219.4565,-4.8785,-23.1021,-11.3224,-2.8753,-0.5199,2.380612,0.108987,0.256219,0.0674,0.6431,0.1413,-180.0000,-0.0000,0.0000
290,2.9000,11.8445,-0.4883,-1.2837,11.9239,0.0000,0.0000,0.0000,20.0000,240.9177,175.9958,154.5644,443.5217,36.0596,0.000723,219.4565,11.9500,-76.5553,64.6052,219.4565,-4.8785,-23.1021,-11.3224,-2.8753,-0.5199,2.393891,0.103716,0.250322,0.0651,0.6383,0.1439,-180.0000,-0.0000,0.0000
291,2.9100,11.8504,-0.4572,-1.3044,11.9308,0.0000,0.0000,0.0000,20.0000,241.1867,179.5744,71.7446,425.3488,38.9737,0.000734,219.4565,11.9500,-76.5553,64.6052,219.4565,-4.8785,-23.1021,-11.3224,-2.8753,-0.5199,2.397035,0.097491,0.248637,0.0670,0.6399,0.1466,-180.0000,-0.0000,0.0000
292,2.9200,11.8851,-0.4286,-1.3186,11.9657,0.0000,0.0000,0.0000,20.0000,246.4286,183.1077,529.7760,418.4954,42.0725,0.000757,221.1766,7.7325,-71.9611,64.2287,221.1766,-4.8121,-23.5069,-14.7400,-3.0627,-0.8014,2.448842,0.093688,0.259041,0.0706,0.6462,0.1505,180.0000,-0.0000,0.0000
293,2.9300,11.9752,-0.4079,-1.3144,12.0541,0.0000,0.0000,0.0000,20.0000,249.7182,186.6814,333.9171,419.2299,45.3371,0.000694,221.1766,7.7325,-71.9611,64.2287,221.1766,-4.8121,-23.5069,-14.7400,-3.0627,-0.8014,2.481596,0.089332,0.263853,0.0727,0.6592,0.1508,180.0000,-0.0000,0.0000
294,2.9400,12.1059,-0.3955,-1.2927,12.1811,0.0000,0.0000,0.0000,20.0000,252.3093,190.2202,264.8680,412.6379,48.7619,0.000752,221.1766,7.7325,-71.9611,64.2287,221.1766,-4.8121,-23.5069,-14.7400,-3.0627,-0.8014,2.507805,0.085506,0.263814,0.0752,0.6696,0.1482,180.0000,-0.0000,0.0000
295,2.9500,12.2403,-0.3850,-1.2643,12.3114,0.0000,0.0000,0.0000,20.0000,254.5408,193.6969,234.0062,403.6605,52.3450,0.000721,221.1766,7.7325,-71.9611,64.2287,221.1766,-4.8121,-23.5069,-14.7400,-3.0627,-0.8014,2.530717,0.082168,0.260425,0.0764,0.6726,0.1427,180.0000,-0.0000,0.0000
296,2.9600,12.3329,-0.3734,-1.2439,12.4011,0.0000,0.0000,0.0000,20.0000,256.1630,197.0885,177.2317,392.7666,56.0808,0.000766,221.1766,7.7325,-71.9611,64.2287,221.1766,-4.8121,-23.5069,-14.7400,-3.0627,-0.8014,2.547582,0.078995,0.255994,0.0747,0.6653,0.1357,180.0000,-0.0000,0.0000
297,2.9700,12.3513,-0.3651,-1.2422,12.4189,0.0000,0.0000,0.0000,20.0000,256.7267,200.3535,73.5744,378.0595,59.9558,0.000796,221.1766,7.7325,-71.9611,64.2287,221.1766,-4.8121,-23.5069,-14.7400,-3.0627,-0.8014,2.553646,0.076250,0.252860,0.0701,0.6552,0.1275,180.0000,-0.0000,0.0000
298,2.9800,12.3253,-0.3621,-1.2491,12.3937,0.0000,0.0000,0.0000,20.0000,256.2727,203.4420,50.2141,360.6679,63.9552,0.000822,221.1766,7.7325,-71.9611,64.2287,221.1766,-4.8121,-23.5069,-14.7400,-3.0627,-0.8014,2.549293,0.074285,0.251310,0.0676,0.6489,0.1253,180.0000,-0.0000,0.0000
299,2.9900,12.3274,-0.3644,-1.2368,12.3947,0.0000,0.0000,0.0000,20.0000,255.5191,206.3274,78.0129,344.3550,68.0733,0.000762,221.1766,7.7325,-71.9611,64.2287,221.1766,-4.8121,-23.5069,-14.7400,-3.0627,-0.8014,2.542001,0.073283,0.248725,0.0641,0.6540,0.1281,180.0000,-0.0000,0.0000
300,3.0000,12.3968,-0.3668,-1.1970,12.4599,0.0000,0.0000,0.0000,20.0000,255.2448,209.0258,63.1622,329.2956,72.3161,0.000794,221.1766,7.7325,-71.9611,64.2287,221.1766,-4.8121,-23.5069,-14.7400,-3.0627,-0.8014,2.539828,0.072822,0.242812,0.0594,0.6700,0.1320,180.0000,-0.0000,0.0000
301,3.0100,12.5427,-0.3564,-1.1426,12.5997,0.0000,0.0000,0.0000,20.0000,255.9817,211.5885,124.6857,316.3483,76.7000,0.000769,221.1766,7.7325,-71.9611,64.2287,221.1766,-4.8121,-23.5069,-14.7400,-3.0627,-0.8014,2.548134,0.071381,0.233625,0.0548,0.6898,0.1370,180.0000,-0.0000,0.0000
302,3.0200,12.7497,-0.3211,-1.0897,12.8002,0.0000,0.0000,0.0000,20.0000,257.8844,214.0828,233.5601,308.7998,81.2464,0.000731,221.1766,7.7325,-71.9611,64.2287,221.1766,-4.8121,-23.5069,-14.7400,-3.0627,-0.8014,2.568332,0.066904,0.222784,0.0522,0.7071,0.1422,180.0000,-0.0000,0.0000
303,3.0300,12.9731,-0.2657,-1.0552,13.0186,0.0000,0.0000,0.0000,20.0000,260.6070,216.5671,311.2186,306.7969,85.9734,0.000784,221.1766,7.7325,-71.9611,64.2287,221.1766,-4.8121,-23.5069,-14.7400,-3.0627,-0.8014,2.596695,0.058761,0.212894,0.0499,0.7174,0.1443,180.0000,-0.0000,0.0000
304,3.0400,13.1734,-0.2119,-1.0521,13.2171,0.0000,0.0000,0.0000,20.0000,263.5785,219.0714,327.1019,307.4770,90.8907,0.000731,221.1766,7.7325,-71.9611,64.2287,221.1766,-4.8121,-23.5069,-14.7400,-3.0627,-0.8014,2.627216,0.048764,0.206691,0.0511,0.7227,0.1467,180.0000,-0.0000,0.0000
305,3.0500,13.3617,-0.1823,-1.0730,13.4059,0.0000,0.0000,0.0000,20.0000,266.5848,221.6023,316.7601,308.2721,96.0045,0.000805,221.1766,7.7325,-71.9611,64.2287,221.1766,-4.8121,-23.5069,-14.7400,-3.0627,-0.8014,2.657654,0.040174,0.204945,0.0535,0.7317,0.1534,180.0000,-0.0000,0.0000
306,3.0600,13.5751,-0.1933,-1.0943,13.6205,0.0000,0.0000,0.0000,20.0000,269.8603,224.1668,330.7029,309.1225,101.3255,0.000745,221.1766,7.7325,-71.9611,64.2287,221.1766,-4.8121,-23.5069,-14.7400,-3.0627,-0.8014,2.690506,0.036448,0.205695,0.0580,0.7464,0.1613,180.0000,-0.0000,0.0000
307,3.0700,13.8239,-0.2270,-1.1044,13.8698,0.0000,0.0000,0.0000,20.0000,273.6246,226.7838,376.9491,311.5815,106.8691,0.000765,221.1766,7.7325,-71.9611,64.2287,221.1766,-4.8121,-23.5069,-14.7400,-3.0627,-0.8014,2.728167,0.037683,0.206713,0.0627,0.7658,0.1664,180.0000,-0.0000,0.0000
308,3.0800,14.0902,-0.2563,-1.1198,14.1369,0.0000,0.0000,0.0000,20.0000,277.8293,229.4761,421.7560,316.4096,112.6506,0.000740,221.1766,7.7325,-71.9611,64.2287,221.1766,-4.8121,-23.5069,-14.7400,-3.0627,-0.8014,2.770159,0.041228,0.208398,0.0654,0.7857,0.1735,180.0000,-0.0000,0.0000
309,3.0900,14.3504,-0.2701,-1.1616,14.3998,0.0000,0.0000,0.0000,20.0000,282.2259,232.2568,440.6390,322.7239,118.6821,0.000817,221.1766,7.7325,-71.9611,64.2287,221.1766,-4.8121,-23.5069,-14.7400,-3.0627,-0.8014,2.813851,0.044480,0.213096,0.0668,0.8013,0.1774,180.0000,-0.0000,0.0000
310,3.1000,14.5700,-0.2583,-1.2340,14.6244,0.0000,0.0000,0.0000,20.0000,286.3352,235.1186,415.6966,328.5242,124.9657,0.000700,221.1766,7.7325,-71.9611,64.2287,221.1766,-4.8121,-23.5069,-14.7400,-3.0627,-0.8014,2.854339,0.045014,0.222502,0.0713,0.8080,0.1765,180.0000,-0.0000,0.0000
311,3.1100,14.7182,-0.2304,-1.3357,14.7805,0.0000,0.0000,0.0000,20.0000,289.5896,238.0254,349.5139,331.4990,131.4904,0.000713,221.1766,7.7325,-71.9611,64.2287,221.1766,-4.8121,-23.5069,-14.7400,-3.0627,-0.8014,2.885834,0.042427,0.237434,0.0759,0.8109,0.1742,180.0000,-0.0000,0.0000
312,3.1200,14.8188,-0.2198,-1.4530,14.8915,0.0000,0.0000,0.0000,20.0000,298.5211,241.1075,916.7533,348.0914,138.3966,0.000695,223.6139,2.6958,-66.4865,63.7907,223.6139,-6.0213,-20.9451,-15.1006,-3.6337,-1.1813,2.973067,0.042454,0.265625,0.0802,0.8153,0.1768,180.0000,0.0000,0.0000
313,3.1300,14.9287,-0.2258,-1.5516,15.0108,0.0000,0.0000,0.0000,20.0000,304.0552,244.4179,588.0479,370.3316,145.6181,0.000701,223.6139,2.6958,-66.4865,63.7907,223.6139,-6.0213,-20.9451,-15.1006,-3.6337,-1.1813,3.026335,0.042978,0.290531,0.0831,0.8233,0.1789,180.0000,0.0000,0.0000
314,3.1400,15.0602,-0.2239,-1.6130,15.1480,0.0000,0.0000,0.0000,20.0000,307.8813,247.8037,413.4152,377.5047,153.1219,0.000656,223.6139,2.6958,-66.4865,63.7907,223.6139,-6.0213,-20.9451,-15.1006,-3.6337,-1.1813,3.062879,0.042993,0.309861,0.0839,0.8309,0.1811,180.0000,0.0000,0.0000
315,3.1500,15.1914,-0.2100,-1.6489,15.2821,0.0000,0.0000,0.0000,20.0000,310.7241,251.1866,304.6495,376.4885,160.8892,0.000748,223.6139,2.6958,-66.4865,63.7907,223.6139,-6.0213,-20.9451,-15.1006,-3.6337,-1.1813,3.090075,0.041528,0.323512,0.0791,0.8343,0.1824,180.0000,0.0000,0.0000
316,3.1600,15.2944,-0.1609,-1.6744,15.3866,0.0000,0.0000,0.0000,20.0000,312.7210,254.5166,221.3383,370.2454,168.9027,0.000647,223.6139,2.6958,-66.4865,63.7907,223.6139,-6.0213,-20.9451,-15.1006,-3.6337,-1.1813,3.109229,0.035723,0.332962,0.0736,0.8318,0.1827,180.0000,0.0000,0.0000
317,3.1700,15.3346,-0.0742,-1.6959,15.4283,0.0000,0.0000,0.0000,20.0000,313.6162,257.7429,160.7277,360.3873,177.1365,0.000710,223.6139,2.6958,-66.4865,63.7907,223.6139,-6.0213,-20.9451,-15.1006,-3.6337,-1.1813,3.117622,0.023772,0.339676,0.0673,0.8226,0.1820,180.0000,0.0000,0.0000
318,3.1800,15.2990,0.0099,-1.7142,15.3947,0.0000,0.0000,0.0000,20.0000,313.1486,260.8035,166.4547,349.5619,185.5548,0.000816,223.6139,2.6958,-66.4865,63.7907,223.6139,-6.0213,-20.9451,-15.1006,-3.6337,-1.1813,3.112463,0.008710,0.344532,0.0645,0.8118,0.1816,180.0000,0.0000,0.0000
319,3.1900,15.2251,0.0786,-1.7212,15.3222,0.0000,0.0000,0.0000,20.0000,311.5409,263.6387,225.8074,341.1220,194.1248,0.000672,223.6139,2.6958,-66.4865,63.7907,223.6139,-6.0213,-20.9451,-15.1006,-3.6337,-1.1813,3.095992,-0.006500,0.347225,0.0637,0.8072,0.1832,180.0000,0.0000,0.0000
320,3.2000,15.1544,0.1394,-1.7093,15.2511,0.0000,0.0000,0.0000,20.0000,309.3206,266.2126,266.4078,335.8955,202.8255,0.000700,223.6139,2.6958,-66.4865,63.7907,223.6139,-6.0213,-20.9451,-15.1006,-3.6337,-1.1813,3.073628,-0.020973,0.346836,0.0630,0.8074,0.1873,180.0000,0.0000,0.0000
321,3.2100,15.0999,0.1841,-1.6806,15.1942,0.0000,0.0000,0.0000,20.0000,306.9080,268.5176,272.6146,332.2438,211.6465,0.000696,223.6139,2.6958,-66.4865,63.7907,223.6139,-6.0213,-20.9451,-15.1006,-3.6337,-1.1813,3.049665,-0.033407,0.343051,0.0602,0.8054,0.1889,180.0000,0.0000,0.0000
322,3.2200,15.0438,0.2254,-1.6464,15.1353,0.0000,0.0000,0.0000,20.0000,304.3735,270.5596,279.4104,329.1506,220.5795,0.000653,223.6139,2.6958,-66.4865,63.7907,223.6139,-6.0213,-20.9451,-15.1006,-3.6337,-1.1813,3.024713,-0.044347,0.336852,0.0579,0.7980,0.1863,180.0000,0.0000,0.0000
323,3.2300,14.9410,0.2780,-1.6192,15.0310,0.0000,0.0000,0.0000,20.0000,301.3234,272.3358,328.5622,327.7664,229.6039,0.000684,223.6139,2.6958,-66.4865,63.7907,223.6139,-6.0213,-20.9451,-15.1006,-3.6337,-1.1813,2.994589,-0.055557,0.330039,0.0535,0.7845,0.1806,180.0000,0.0000,0.0000
324,3.2400,14.7704,0.3206,-1.5991,14.8602,0.0000,0.0000,0.0000,20.0000,297.3290,273.8205,415.2434,330.1942,238.6854,0.000752,223.6139,2.6958,-66.4865,63.7907,223.6139,-6.0213,-20.9451,-15.1006,-3.6337,-1.1813,2.954893,-0.065903,0.323598,0.0480,0.7673,0.1753,180.0000,0.0000,0.0000
325,3.2500,14.5619,0.3323,-1.5725,14.6504,0.0000,0.0000,0.0000,20.0000,292.4301,274.9789,496.4891,337.1072,247.7885,0.000699,223.6139,2.6958,-66.4865,63.7907,223.6139,-6.0213,-20.9451,-15.1006,-3.6337,-1.1813,2.906189,-0.072669,0.316733,0.0428,0.7532,0.1728,180.0000,0.0000,0.0000
326,3.2600,14.3784,0.3198,-1.5250,14.4626,0.0000,0.0000,0.0000,20.0000,287.2599,275.7966,519.5718,346.5093,256.8963,0.000770,223.6139,2.6958,-66.4865,63.7907,223.6139,-6.0213,-20.9451,-15.1006,-3.6337,-1.1813,2.855103,-0.075004,0.307552,0.0366,0.7484,0.1756,180.0000,0.0000,0.0000
327,3.2700,14.2748,0.3088,-1.4548,14.3521,0.0000,0.0000,0.0000,20.0000,282.7211,276.3024,460.9625,354.4172,266.0196,0.000934,223.6139,2.6958,-66.4865,63.7907,223.6139,-6.0213,-20.9451,-15.1006,-3.6337,-1.1813,2.810793,-0.075046,0.294843,0.0283,0.7512,0.1812,180.0000,0.0000,0.0000
328,3.2800,14.2699,0.3205,-1.3782,14.3399,0.0000,0.0000,0.0000,20.0000,279.5240,276.5675,342.2584,357.0132,275.1945,0.000699,223.6139,2.6958,-66.4865,63.7907,223.6139,-6.0213,-20.9451,-15.1006,-3.6337,-1.1813,2.780183,-0.076096,0.279568,0.0193,0.7579,0.1890,180.0000,0.0000,0.0000
329,3.2900,14.3435,0.3672,-1.3181,14.4086,0.0000,0.0000,0.0000,20.0000,277.8874,276.6851,219.1100,352.8145,284.4672,0.000732,223.6139,2.6958,-66.4865,63.7907,223.6139,-6.0213,-20.9451,-15.1006,-3.6337,-1.1813,2.765060,-0.081194,0.264555,0.0122,0.7648,0.1967,180.0000,0.0000,0.0000
330,3.3000,14.4669,0.4468,-1.2847,14.5307,0.0000,0.0000,0.0000,20.0000,277.6536,276.7449,162.1344,343.8926,293.8825,0.000674,223.6139,2.6958,-66.4865,63.7907,223.6139,-6.0213,-20.9451,-15.1006,-3.6337,-1.1813,2.763516,-0.091803,0.252392,0.0089,0.7727,0.2035,180.0000,0.0000,0.0000
331,3.3100,14.6154,0.5376,-1.2772,14.6809,0.0000,0.0000,0.0000,20.0000,278.4775,276.8175,188.0311,334.6067,303.4766,0.000794,223.6139,2.6958,-66.4865,63.7907,223.6139,-6.0213,-20.9451,-15.1006,-3.6337,-1.1813,2.771981,-0.106572,0.244406,0.0087,0.7811,0.2100,180.0000,0.0000,0.0000
332,3.3200,14.7739,0.6113,-1.2841,14.8422,0.0000,0.0000,0.0000,20.0000,288.0796,277.1729,966.1725,347.9459,313.5623,0.000730,227.0402,-3.0689,-60.5475,63.6164,227.0402,-5.3840,-21.3052,-15.2887,-3.4065,-1.3333,2.867517,-0.120335,0.248696,0.0104,0.7911,0.2148,180.0000,0.0000,0.0000
333,3.3300,14.9318,0.6572,-1.2912,15.0020,0.0000,0.0000,0.0000,20.0000,294.4117,277.9470,640.5151,372.9964,324.0391,0.000731,227.0402,-3.0689,-60.5475,63.6164,227.0402,-5.3840,-21.3052,-15.2887,-3.4065,-1.3333,2.930390,-0.132292,0.251276,0.0145,0.8036,0.2156,180.0000,0.0000,0.0000
334,3.3400,15.0639,0.6846,-1.2999,15.1354,0.0000,0.0000,0.0000,20.0000,298.6594,278.9695,431.0961,381.9522,334.8426,0.000660,227.0402,-3.0689,-60.5475,63.6164,227.0402,-5.3840,-21.3052,-15.2887,-3.4065,-1.3333,2.972493,-0.141379,0.253068,0.0122,0.8044,0.2138,180.0000,0.0000,0.0000
335,3.3500,15.1333,0.7068,-1.3075,15.2061,0.0000,0.0000,0.0000,20.0000,301.1182,280.1203,252.7183,379.7494,345.9144,0.000810,227.0402,-3.0689,-60.5475,63.6164,227.0402,-5.3840,-21.3052,-15.2887,-3.4065,-1.3333,2.996753,-0.148344,0.254320,0.0088,0.7988,0.2081,180.0000,0.0000,0.0000
336,3.3600,15.1249,0.7242,-1.3064,15.1985,0.0000,0.0000,0.0000,20.0000,301.8004,281.2941,84.4334,368.1332,357.1922,0.000720,227.0402,-3.0689,-60.5475,63.6164,227.0402,-5.3840,-21.3052,-15.2887,-3.4065,-1.3333,3.003337,-0.153631,0.254388,0.0065,0.7892,0.2036,180.0000,0.0000,0.0000
337,3.3700,15.0612,0.7342,-1.2927,15.1344,0.0000,0.0000,0.0000,20.0000,300.9342,282.3983,96.3298,352.8546,368.6180,0.000703,227.0402,-3.0689,-60.5475,63.6164,227.0402,-5.3840,-21.3052,-15.2887,-3.4065,-1.3333,2.994600,-0.157247,0.252548,0.0035,0.7819,0.2025,180.0000,0.0000,0.0000
338,3.3800,14.9837,0.7447,-1.2534,15.0545,0.0000,0.0000,0.0000,20.0000,299.0557,283.3662,195.4231,341.4692,380.1501,0.000827,227.0402,-3.0689,-60.5475,63.6164,227.0402,-5.3840,-21.3052,-15.2887,-3.4065,-1.3333,2.976033,-0.159986,0.247101,-0.0023,0.7747,0.2040,180.0000,0.0000,0.0000
339,3.3900,14.9192,0.7729,-1.1881,14.9864,0.0000,0.0000,0.0000,20.0000,296.7402,284.1656,251.1403,334.9679,391.7666,0.000702,227.0402,-3.0689,-60.5475,63.6164,227.0402,-5.3840,-21.3052,-15.2887,-3.4065,-1.3333,2.953368,-0.164004,0.237059,-0.0078,0.7714,0.2035,180.0000,0.0000,0.0000
340,3.4000,14.8739,0.8339,-1.1172,14.9391,0.0000,0.0000,0.0000,20.0000,294.3976,284.7929,276.2320,331.0468,403.4602,0.000681,227.0402,-3.0689,-60.5475,63.6164,227.0402,-5.3840,-21.3052,-15.2887,-3.4065,-1.3333,2.930403,-0.171991,0.223950,-0.0147,0.7679,0.2049,180.0000,0.0000,0.0000
341,3.4100,14.8544,0.9248,-1.0610,14.9210,0.0000,0.0000,0.0000,20.0000,292.3377,285.2645,277.7285,328.0727,415.2370,0.000779,227.0402,-3.0689,-60.5475,63.6164,227.0402,-5.3840,-21.3052,-15.2887,-3.4065,-1.3333,2.909894,-0.185158,0.210631,-0.0217,0.7658,0.2073,180.0000,0.0000,0.0000
342,3.4200,14.8505,1.0239,-1.0208,14.9208,0.0000,0.0000,0.0000,20.0000,290.6203,285.6064,270.1620,325.0953,427.1062,0.001075,227.0402,-3.0689,-60.5475,63.6164,227.0402,-5.3840,-21.3052,-15.2887,-3.4065,-1.3333,2.892350,-0.201973,0.198828,-0.0259,0.7649,0.2098,180.0000,0.0000,0.0000
343,3.4300,14.8532,1.1076,-0.9854,14.9270,0.0000,0.0000,0.0000,20.0000,289.1611,285.8421,252.7645,321.5950,439.0754,0.000672,227.0402,-3.0689,-60.5475,63.6164,227.0402,-5.3840,-21.3052,-15.2887,-3.4065,-1.3333,2.877128,-0.219231,0.188370,-0.0262,0.7669,0.2136,180.0000,0.0000,0.0000
344,3.4400,14.8609,1.1563,-0.9401,14.9354,0.0000,0.0000,0.0000,20.0000,287.8703,285.9891,221.1328,316.9388,451.1496,0.000788,227.0402,-3.0689,-60.5475,63.6164,227.0402,-5.3840,-21.3052,-15.2887,-3.4065,-1.3333,2.863735,-0.233206,0.177679,-0.0255,0.7683,0.2176,180.0000,0.0000,0.0000
345,3.4500,14.8597,1.1701,-0.8797,14.9316,0.0000,0.0000,0.0000,20.0000,286.5499,286.0563,200.4004,311.0985,463.3258,0.000731,227.0402,-3.0689,-60.5475,63.6164,227.0402,-5.3840,-21.3052,-15.2887,-3.4065,-1.3333,2.850482,-0.241838,0.165372,-0.0242,0.7701,0.2190,180.0000,0.0000,0.0000
346,3.4600,14.8335,1.1811,-0.8095,14.9024,0.0000,0.0000,0.0000,20.0000,284.9611,286.0397,217.7663,305.4868,475.5904,0.000766,227.0402,-3.0689,-60.5475,63.6164,227.0402,-5.3840,-21.3052,-15.2887,-3.4065,-1.3333,2.834837,-0.247226,0.151216,-0.0252,0.7669,0.2180,180.0000,0.0000,0.0000
347,3.4700,14.7807,1.2049,-0.7395,14.8481,0.0000,0.0000,0.0000,20.0000,282.9773,285.9258,252.3329,301.6122,487.9226,0.000721,227.0402,-3.0689,-60.5475,63.6164,227.0402,-5.3840,-21.3052,-15.2887,-3.4065,-1.3333,2.815234,-0.252094,0.136091,-0.0280,0.7580,0.2179,180.0000,0.0000,0.0000
348,3.4800,14.7046,1.2326,-0.6782,14.7717,0.0000,0.0000,0.0000,20.0000,280.5598,285.6972,286.6990,299.8467,500.2996,0.001783,227.0402,-3.0689,-60.5475,63.6164,227.0402,-5.3840,-21.3052,-15.2887,-3.4065,-1.3333,2.791162,-0.257051,0.121329,-0.0320,0.7473,0.2178,180.0000,0.0000,0.0000
349,3.4900,14.6150,1.2586,-0.6223,14.6823,0.0000,0.0000,0.0000,20.0000,277.7767,285.3380,315.4085,299.9131,512.7007,0.000731,227.0402,-3.0689,-60.5475,63.6164,227.0402,-5.3840,-21.3052,-15.2887,-3.4065,-1.3333,2.763312,-0.261876,0.107331,-0.0337,0.7392,0.2187,180.0000,0.0000,0.0000
350,3.5000,14.5406,1.2753,-0.5584,14.6071,0.0000,0.0000,0.0000,20.0000,274.9398,284.8441,320.0834,300.8940,525.1187,0.000751,227.0402,-3.0689,-60.5475,63.6164,227.0402,-5.3840,-21.3052,-15.2887,-3.4065,-1.3333,2.734950,-0.265690,0.092993,-0.0347,0.7359,0.2198,180.0000,0.0000,0.0000
351,3.5100,14.5000,1.2791,-0.4795,14.5642,0.0000,0.0000,0.0000,20.0000,281.2219,284.4720,635.9217,310.6364,537.9735,0.000758,231.4329,-8.8025,-55.1362,63.9387,231.4329,-5.8263,-18.6560,-15.0179,-3.2988,-1.5582,2.798032,-0.268822,0.085593,-0.0347,0.7357,0.2189,180.0000,-0.0000,0.0000
352,3.5200,14.4795,1.2785,-0.3975,14.5412,0.0000,0.0000,0.0000,20.0000,283.9068,284.3671,299.6166,319.2800,551.1057,0.000739,231.4329,-8.8025,-55.1362,63.9387,231.4329,-5.8263,-18.6560,-15.0179,-3.2988,-1.5582,2.825257,-0.269963,0.073135,-0.0346,0.7358,0.2138,180.0000,-0.0000,0.0000
353,3.5300,14.4572,1.2914,-0.3310,14.5185,0.0000,0.0000,0.0000,20.0000,284.6017,284.3609,155.1258,314.2242,564.4245,0.000680,231.4329,-8.8025,-55.1362,63.9387,231.4329,-5.8263,-18.6560,-15.0179,-3.2988,-1.5582,2.832428,-0.271345,0.059449,-0.0376,0.7342,0.2074,180.0000,-0.0000,0.0000
354,3.5400,14.4174,1.3272,-0.2878,14.4812,0.0000,0.0000,0.0000,20.0000,284.0504,284.3590,138.0876,305.0039,577.8712,0.000779,231.4329,-8.8025,-55.1362,63.9387,231.4329,-5.8263,-18.6560,-15.0179,-3.2988,-1.5582,2.826749,-0.275138,0.047447,-0.0399,0.7307,0.2024,180.0000,-0.0000,0.0000
355,3.5500,14.3656,1.3761,-0.2673,14.4339,0.0000,0.0000,0.0000,20.0000,282.7102,284.3051,177.1528,296.8966,591.4070,0.000643,231.4329,-8.8025,-55.1362,63.9387,231.4329,-5.8263,-18.6560,-15.0179,-3.2988,-1.5582,2.812779,-0.281576,0.038660,-0.0408,0.7270,0.2019,180.0000,-0.0000,0.0000
356,3.5600,14.3131,1.4118,-0.2578,14.3849,0.0000,0.0000,0.0000,20.0000,280.9190,284.1681,205.8007,291.0977,605.0088,0.000727,231.4329,-8.8025,-55.1362,63.9387,231.4329,-5.8263,-18.6560,-15.0179,-3.2988,-1.5582,2.794181,-0.288140,0.032781,-0.0417,0.7269,0.2021,180.0000,-0.0000,0.0000
357,3.5700,14.2710,1.4257,-0.2437,14.3441,0.0000,0.0000,0.0000,20.0000,278.9629,283.9356,211.0159,286.5491,618.6669,0.000819,231.4329,-8.8025,-55.1362,63.9387,231.4329,-5.8263,-18.6560,-15.0179,-3.2988,-1.5582,2.774102,-0.292581,0.028050,-0.0416,0.7302,0.2032,180.0000,-0.0000,0.0000
