GerardoEmirSanchez/Integraci-n-de-xArm5-5-DOF-en-NVIDIA-Isaac-Sim-con-ROS-2-Humble-para-pHRI/mediciones/2026.04.28_VIC_pHRI_tanh_2026-04-28_13-45-21.csv
Index,Time_s,Fx,Fy,Fz,F_Amp,Psi_Imp,Psi_Int,Beta,K_Stiffness,Vel_Raw,Vel_Filt,Acc_Raw,Acc_Filt,Lyapunov_V_Nmm,Loop_Duration_s,q1,q2,q3,q4,q5,tau1,tau2,tau3,tau4,tau5,deltaXcmd,deltaYcmd,deltaZcmd,Tx_EE,Ty_EE,Tz_EE,Roll,Pitch,Yaw
0,0.0000,-0.0175,-0.0326,0.0981,0.1049,0.0000,0.0000,0.0000,20.0000,1.8447,0.2179,42.3641,8.5591,0.0000,0.000348,90.5916,-41.3490,-45.6019,86.9509,90.5916,-0.0000,-3.1936,-11.1569,-1.0041,-0.0000,-0.001391,0.005707,-0.017487,-0.0031,0.0003,-0.0055,180.0000,0.0000,0.0000
1,0.0100,-0.0344,-0.0390,0.1021,0.1146,0.0000,0.0000,0.0000,20.0000,2.1411,0.3155,38.6883,10.3176,0.0001,0.000341,90.5916,-41.3490,-45.6019,86.9509,90.5916,-0.0000,-3.1936,-11.1569,-1.0041,-0.0000,-0.004212,0.007025,-0.019782,-0.0020,-0.0006,-0.0043,180.0000,0.0000,0.0000
2,0.0200,-0.0445,-0.0397,0.0955,0.1126,0.0000,0.0000,0.0000,20.0000,2.2825,0.4198,27.3246,11.5656,0.0001,0.000531,90.5916,-41.3490,-45.6019,86.9509,90.5916,-0.0000,-3.1936,-11.1569,-1.0041,-0.0000,-0.006768,0.007805,-0.020354,-0.0014,-0.0006,-0.0030,180.0000,0.0000,0.0000
3,0.0300,-0.0476,-0.0398,0.0806,0.1017,0.0000,0.0000,0.0000,20.0000,2.2487,0.5214,21.4906,12.2720,0.0001,0.000507,90.5916,-41.3490,-45.6019,86.9509,90.5916,-0.0000,-3.1936,-11.1569,-1.0041,-0.0000,-0.008484,0.008228,-0.019131,-0.0015,0.0004,-0.0027,180.0000,0.0000,0.0000
4,0.0400,-0.0444,-0.0367,0.0654,0.0871,0.0000,0.0000,0.0000,20.0000,2.0845,0.6119,23.1226,12.8240,0.0002,0.000472,90.5916,-41.3490,-45.6019,86.9509,90.5916,-0.0000,-3.1936,-11.1569,-1.0041,-0.0000,-0.009090,0.008141,-0.016901,-0.0012,0.0007,-0.0019,180.0000,0.0000,0.0000
5,0.0500,-0.0382,-0.0285,0.0568,0.0741,0.0000,0.0000,0.0000,20.0000,1.8655,0.6868,23.2835,13.3950,0.0002,0.000482,90.5916,-41.3490,-45.6019,86.9509,90.5916,-0.0000,-3.1936,-11.1569,-1.0041,-0.0000,-0.008789,0.007253,-0.014770,-0.0010,0.0014,0.0003,180.0000,0.0000,0.0000
6,0.0600,-0.0340,-0.0215,0.0550,0.0681,0.0000,0.0000,0.0000,20.0000,1.6812,0.7466,19.3252,13.8300,0.0003,0.000484,90.5916,-41.3490,-45.6019,86.9509,90.5916,-0.0000,-3.1936,-11.1569,-1.0041,-0.0000,-0.008181,0.006054,-0.013381,-0.0020,0.0011,0.0005,180.0000,0.0000,0.0000
7,0.0700,-0.0334,-0.0171,0.0570,0.0683,0.0000,0.0000,0.0000,20.0000,1.5763,0.7951,13.2578,13.9654,0.0003,0.000470,90.5916,-41.3490,-45.6019,86.9509,90.5916,-0.0000,-3.1936,-11.1569,-1.0041,-0.0000,-0.007778,0.004938,-0.012790,-0.0019,0.0003,0.0004,180.0000,0.0000,0.0000
8,0.0800,-0.0244,-0.0089,0.0623,0.0675,0.0000,0.0000,0.0000,20.0000,1.4981,0.8360,18.5228,14.0713,0.0004,0.000437,90.5916,-41.3490,-45.6019,86.9509,90.5916,-0.0000,-3.1936,-11.1569,-1.0041,-0.0000,-0.006633,0.003493,-0.012970,-0.0001,-0.0023,0.0012,180.0000,0.0000,0.0000
9,0.0900,-0.0087,-0.0025,0.0709,0.0715,0.0000,0.0000,0.0000,20.0000,1.4734,0.8717,28.0742,14.5789,0.0005,0.000394,90.5916,-41.3490,-45.6019,86.9509,90.5916,-0.0000,-3.1936,-11.1569,-1.0041,-0.0000,-0.004420,0.002041,-0.013906,-0.0012,-0.0031,0.0020,180.0000,0.0000,0.0000
10,0.1000,0.0020,0.0000,0.0824,0.0825,0.0000,0.0000,0.0000,20.0000,1.5719,0.9075,30.2111,15.3800,0.0005,0.000429,90.5916,-41.3490,-45.6019,86.9509,90.5916,-0.0000,-3.1936,-11.1569,-1.0041,-0.0000,-0.002113,0.000985,-0.015546,-0.0010,-0.0048,0.0015,180.0000,0.0000,0.0000
11,0.1100,0.0088,0.0050,0.0898,0.0904,0.0000,0.0000,0.0000,20.0000,1.7157,0.9480,27.5498,16.1226,0.0006,0.000441,90.5916,-41.3490,-45.6019,86.9509,90.5916,-0.0000,-3.1936,-11.1569,-1.0041,-0.0000,-0.000158,-0.000099,-0.017156,-0.0012,-0.0051,0.0014,180.0000,0.0000,0.0000
12,0.1200,0.0191,0.0100,0.0893,0.0919,0.0000,0.0000,0.0000,20.0000,1.8111,0.9929,25.1684,16.6857,0.0007,0.000507,90.5916,-41.3490,-45.6019,86.9509,90.5916,-0.0000,-3.1936,-11.1569,-1.0041,-0.0000,0.001958,-0.001196,-0.017965,-0.0022,-0.0055,0.0029,180.0000,0.0000,0.0000
13,0.1300,0.0254,0.0062,0.0837,0.0877,0.0000,0.0000,0.0000,20.0000,1.8261,1.0383,18.1132,16.9583,0.0008,0.000384,90.5916,-41.3490,-45.6019,86.9509,90.5916,-0.0000,-3.1936,-11.1569,-1.0041,-0.0000,0.003749,-0.001419,-0.017816,-0.0034,-0.0038,0.0031,180.0000,0.0000,0.0000
14,0.1400,0.0197,-0.0022,0.0776,0.0801,0.0000,0.0000,0.0000,20.0000,1.7604,1.0798,10.9717,16.8254,0.0009,0.000465,90.5916,-41.3490,-45.6019,86.9509,90.5916,-0.0000,-3.1936,-11.1569,-1.0041,-0.0000,0.004162,-0.000707,-0.017091,-0.0022,-0.0026,0.0021,180.0000,0.0000,0.0000
15,0.1500,0.0145,-0.0030,0.0719,0.0734,0.0000,0.0000,0.0000,20.0000,1.6699,1.1148,10.5296,16.4912,0.0009,0.000473,90.5965,-41.3457,-45.5890,86.9348,90.5965,-0.0000,-3.1932,-11.1565,-1.0040,-0.0000,0.003814,-0.000167,-0.016256,-0.0020,-0.0006,0.0020,180.0000,0.0000,0.0000
16,0.1600,0.0098,0.0064,0.0659,0.0670,0.0000,0.0000,0.0000,20.0000,1.5513,1.1420,14.2561,16.2658,0.0010,0.000316,90.5965,-41.3457,-45.5890,86.9348,90.5965,-0.0000,-3.1932,-11.1565,-1.0040,-0.0000,0.003145,-0.000803,-0.015170,-0.0002,0.0002,0.0024,180.0000,0.0000,0.0000
17,0.1700,-0.0007,0.0227,0.0647,0.0686,0.0000,0.0000,0.0000,20.0000,1.4784,1.1625,25.5535,16.4660,0.0011,0.000323,90.5965,-41.3457,-45.5890,86.9348,90.5965,-0.0000,-3.1932,-11.1565,-1.0040,-0.0000,0.001716,-0.002783,-0.014418,0.0011,0.0015,0.0020,180.0000,0.0000,0.0000
18,0.1800,-0.0141,0.0347,0.0656,0.0756,0.0000,0.0000,0.0000,20.0000,1.4957,1.1804,31.5233,17.1301,0.0012,0.000465,90.5965,-41.3457,-45.5890,86.9348,90.5965,-0.0000,-3.1932,-11.1565,-1.0040,-0.0000,-0.000417,-0.005076,-0.014062,0.0011,0.0022,0.0003,180.0000,0.0000,0.0000
19,0.1900,-0.0253,0.0347,0.0659,0.0786,0.0000,0.0000,0.0000,20.0000,1.5480,1.1992,26.2646,17.7772,0.0013,0.000475,90.5965,-41.3457,-45.5890,86.9348,90.5965,-0.0000,-3.1932,-11.1565,-1.0040,-0.0000,-0.002713,-0.006337,-0.013861,-0.0001,0.0017,-0.0004,180.0000,0.0000,0.0000
20,0.2000,-0.0349,0.0176,0.0694,0.0796,0.0000,0.0000,0.0000,20.0000,1.5830,1.2193,24.5733,18.1975,0.0014,0.000358,90.5965,-41.3457,-45.5890,86.9348,90.5965,-0.0000,-3.1932,-11.1565,-1.0040,-0.0000,-0.004936,-0.005311,-0.014072,0.0003,0.0006,-0.0020,180.0000,0.0000,0.0000
21,0.2100,-0.0438,-0.0128,0.0763,0.0889,0.0000,0.0000,0.0000,20.0000,1.6528,1.2413,42.5939,19.0439,0.0015,0.000556,90.5965,-41.3457,-45.5890,86.9348,90.5965,-0.0000,-3.1932,-11.1565,-1.0040,-0.0000,-0.007046,-0.001695,-0.014854,0.0003,-0.0002,-0.0028,180.0000,0.0000,0.0000
22,0.2200,-0.0442,-0.0407,0.0833,0.1027,0.0000,0.0000,0.0000,20.0000,1.8228,1.2686,50.6181,20.5600,0.0016,0.000485,90.5965,-41.3457,-45.5890,86.9348,90.5965,-0.0000,-3.1932,-11.1565,-1.0040,-0.0000,-0.008241,0.003098,-0.015960,0.0002,-0.0007,-0.0039,180.0000,0.0000,0.0000
23,0.2300,-0.0393,-0.0529,0.0929,0.1139,0.0000,0.0000,0.0000,20.0000,2.0618,1.3056,41.6187,21.9659,0.0018,0.000490,90.5965,-41.3457,-45.5890,86.9348,90.5965,-0.0000,-3.1932,-11.1565,-1.0040,-0.0000,-0.008395,0.006963,-0.017497,0.0000,0.0005,-0.0036,180.0000,0.0000,0.0000
24,0.2400,-0.0287,-0.0499,0.1013,0.1165,0.0000,0.0000,0.0000,20.0000,2.2334,1.3519,26.6004,22.6339,0.0020,0.000456,90.5965,-41.3457,-45.5890,86.9348,90.5965,-0.0000,-3.1932,-11.1565,-1.0040,-0.0000,-0.007395,0.008787,-0.019154,0.0016,0.0009,-0.0026,180.0000,0.0000,0.0000
25,0.2500,-0.0104,-0.0354,0.1047,0.1110,0.0000,0.0000,0.0000,20.0000,2.2563,1.4011,27.2601,22.8703,0.0022,0.000494,90.5965,-41.3457,-45.5890,86.9348,90.5965,-0.0000,-3.1932,-11.1565,-1.0040,-0.0000,-0.004998,0.008325,-0.020367,0.0013,0.0010,-0.0011,180.0000,0.0000,0.0000
26,0.2600,0.0046,-0.0109,0.1040,0.1047,0.0000,0.0000,0.0000,20.0000,2.1779,1.4459,39.6312,23.4520,0.0024,0.000459,90.5965,-41.3457,-45.5890,86.9348,90.5965,-0.0000,-3.1932,-11.1565,-1.0040,-0.0000,-0.002168,0.005608,-0.020933,0.0012,0.0015,-0.0021,180.0000,0.0000,0.0000
27,0.2700,0.0104,0.0152,0.0999,0.1016,0.0000,0.0000,0.0000,20.0000,2.0841,1.4836,46.5503,24.5323,0.0026,0.000488,90.5965,-41.3457,-45.5890,86.9348,90.5965,-0.0000,-3.1932,-11.1565,-1.0040,-0.0000,-0.000016,0.001483,-0.020788,0.0006,0.0006,-0.0022,180.0000,0.0000,0.0000
28,0.2800,0.0097,0.0366,0.0959,0.1031,0.0000,0.0000,0.0000,20.0000,2.0509,1.5158,45.9679,25.7274,0.0028,0.000601,90.5965,-41.3457,-45.5890,86.9348,90.5965,-0.0000,-3.1932,-11.1565,-1.0040,-0.0000,0.001106,-0.002944,-0.020266,0.0011,-0.0006,-0.0032,180.0000,0.0000,0.0000
29,0.2900,0.0027,0.0552,0.0895,0.1051,0.0000,0.0000,0.0000,20.0000,2.0635,1.5455,44.0292,26.7875,0.0030,0.000418,90.5965,-41.3457,-45.5890,86.9348,90.5965,-0.0000,-3.1932,-11.1565,-1.0040,-0.0000,0.001024,-0.007238,-0.019297,0.0012,-0.0004,-0.0047,180.0000,0.0000,0.0000
30,0.3000,-0.0054,0.0758,0.0799,0.1102,0.0000,0.0000,0.0000,20.0000,2.1245,1.5757,47.5561,27.8329,0.0032,0.000321,90.5965,-41.3457,-45.5890,86.9348,90.5965,-0.0000,-3.1932,-11.1565,-1.0040,-0.0000,0.000165,-0.011656,-0.017761,0.0019,0.0004,-0.0054,180.0000,0.0000,0.0000
31,0.3100,-0.0106,0.0886,0.0723,0.1148,0.0000,0.0000,0.0000,20.0000,2.2279,1.6087,41.6926,28.7566,0.0033,0.000332,90.5965,-41.3457,-45.5890,86.9348,90.5965,-0.0000,-3.1932,-11.1565,-1.0040,-0.0000,-0.000832,-0.015357,-0.016120,0.0019,0.0011,-0.0048,180.0000,0.0000,0.0000
32,0.3200,-0.0218,0.0902,0.0691,0.1157,0.0000,0.0000,0.0000,20.0000,2.3121,1.6451,30.1231,29.1500,0.0035,0.000357,90.5965,-41.3457,-45.5890,86.9348,90.5965,-0.0000,-3.1932,-11.1565,-1.0040,-0.0000,-0.002498,-0.017531,-0.014866,0.0016,0.0026,-0.0048,180.0000,0.0000,0.0000
33,0.3300,-0.0386,0.0886,0.0655,0.1167,0.0000,0.0000,0.0000,20.0000,2.3651,1.6833,29.9481,29.1987,0.0037,0.000320,90.5965,-41.3457,-45.5890,86.9348,90.5965,-0.0000,-3.1932,-11.1565,-1.0040,-0.0000,-0.005098,-0.018538,-0.013774,0.0017,0.0030,-0.0051,180.0000,0.0000,0.0000
34,0.3400,-0.0523,0.0798,0.0590,0.1122,0.0000,0.0000,0.0000,20.0000,2.3434,1.7202,30.9873,29.2685,0.0038,0.000309,90.5965,-41.3457,-45.5890,86.9348,90.5965,-0.0000,-3.1932,-11.1565,-1.0040,-0.0000,-0.007899,-0.018183,-0.012495,0.0004,0.0028,-0.0037,180.0000,0.0000,0.0000
35,0.3500,-0.0644,0.0557,0.0507,0.0991,0.0000,0.0000,0.0000,20.0000,2.2055,1.7507,40.2618,29.6181,0.0040,0.000377,90.6049,-41.3508,-45.5425,86.8932,90.6049,-0.0001,-3.1770,-11.1332,-1.0018,0.0000,-0.010715,-0.015496,-0.011467,-0.0013,0.0022,-0.0016,180.0000,0.0000,0.0000
36,0.3600,-0.0760,0.0252,0.0454,0.0921,0.0000,0.0000,0.0000,20.0000,2.0160,1.7705,54.2695,30.5889,0.0042,0.000362,90.6049,-41.3508,-45.5425,86.8932,90.6049,-0.0001,-3.1770,-11.1332,-1.0018,0.0000,-0.013419,-0.010927,-0.010342,-0.0020,0.0022,-0.0003,180.0000,0.0000,0.0000
37,0.3700,-0.0833,-0.0026,0.0479,0.0962,0.0000,0.0000,0.0000,20.0000,1.9347,1.7817,57.7281,31.9866,0.0044,0.000326,90.6049,-41.3508,-45.5425,86.8932,90.6049,-0.0001,-3.1770,-11.1332,-1.0018,0.0000,-0.015616,-0.005602,-0.009954,-0.0020,0.0017,-0.0002,180.0000,0.0000,0.0000
38,0.3800,-0.0802,-0.0282,0.0529,0.1001,0.0000,0.0000,0.0000,20.0000,1.9391,1.7903,55.9122,33.3527,0.0045,0.000365,90.6049,-41.3508,-45.5425,86.8932,90.6049,-0.0001,-3.1770,-11.1332,-1.0018,0.0000,-0.016482,-0.000085,-0.010216,-0.0020,0.0008,0.0014,180.0000,0.0000,0.0000
39,0.3900,-0.0679,-0.0463,0.0590,0.1012,0.0000,0.0000,0.0000,20.0000,1.9731,1.7994,49.7543,34.4243,0.0047,0.000368,90.6049,-41.3508,-45.5425,86.8932,90.6049,-0.0001,-3.1770,-11.1332,-1.0018,0.0000,-0.015703,0.004774,-0.010952,-0.0012,0.0017,0.0007,180.0000,0.0000,0.0000
40,0.4000,-0.0542,-0.0544,0.0659,0.1012,0.0000,0.0000,0.0000,20.0000,2.0132,1.8101,40.8297,35.0221,0.0049,0.000335,90.6049,-41.3508,-45.5425,86.8932,90.6049,-0.0001,-3.1770,-11.1332,-1.0018,0.0000,-0.013870,0.008260,-0.012029,-0.0005,0.0032,-0.0011,180.0000,0.0000,0.0000
41,0.4100,-0.0388,-0.0557,0.0686,0.0965,0.0000,0.0000,0.0000,20.0000,1.9974,1.8208,33.9153,35.1514,0.0052,0.000365,90.6049,-41.3508,-45.5425,86.8932,90.6049,-0.0001,-3.1770,-11.1332,-1.0018,0.0000,-0.011290,0.010297,-0.012863,-0.0000,0.0029,-0.0014,180.0000,0.0000,0.0000
42,0.4200,-0.0164,-0.0558,0.0669,0.0886,0.0000,0.0000,0.0000,20.0000,1.8980,1.8278,38.6738,35.2143,0.0054,0.000317,90.6049,-41.3508,-45.5425,86.8932,90.6049,-0.0001,-3.1770,-11.1332,-1.0018,0.0000,-0.007596,0.011411,-0.013127,-0.0008,0.0014,0.0001,180.0000,0.0000,0.0000
43,0.4300,0.0031,-0.0555,0.0635,0.0844,0.0000,0.0000,0.0000,20.0000,1.7977,1.8289,40.4933,35.4546,0.0056,0.000355,90.6049,-41.3508,-45.5425,86.8932,90.6049,-0.0001,-3.1770,-11.1332,-1.0018,0.0000,-0.003593,0.011981,-0.012912,-0.0010,0.0016,-0.0010,180.0000,0.0000,0.0000
44,0.4400,0.0107,-0.0521,0.0593,0.0797,0.0000,0.0000,0.0000,20.0000,1.7180,1.8250,30.3539,35.4529,0.0057,0.000297,90.6049,-41.3508,-45.5425,86.8932,90.6049,-0.0001,-3.1770,-11.1332,-1.0018,0.0000,-0.000611,0.011928,-0.012348,-0.0011,0.0019,0.0008,180.0000,0.0000,0.0000
45,0.4500,0.0137,-0.0421,0.0630,0.0770,0.0000,0.0000,0.0000,20.0000,1.6532,1.8173,22.1379,34.9464,0.0059,0.000310,90.6049,-41.3508,-45.5425,86.8932,90.6049,-0.0001,-3.1770,-11.1332,-1.0018,0.0000,0.001334,0.010871,-0.012383,-0.0021,0.0010,0.0018,180.0000,0.0000,0.0000
46,0.4600,0.0127,-0.0272,0.0746,0.0804,0.0000,0.0000,0.0000,20.0000,1.6295,1.8076,25.7598,34.3415,0.0061,0.000287,90.6049,-41.3508,-45.5425,86.8932,90.6049,-0.0001,-3.1770,-11.1332,-1.0018,0.0000,0.002311,0.008782,-0.013530,-0.0005,0.0012,0.0016,180.0000,0.0000,0.0000
47,0.4700,0.0036,-0.0094,0.0819,0.0825,0.0000,0.0000,0.0000,20.0000,1.6090,1.7973,32.7022,34.0604,0.0063,0.000365,90.6049,-41.3508,-45.5425,86.8932,90.6049,-0.0001,-3.1770,-11.1332,-1.0018,0.0000,0.001939,0.005823,-0.014873,0.0014,0.0022,0.0000,180.0000,0.0000,0.0000
48,0.4800,-0.0128,0.0022,0.0848,0.0858,0.0000,0.0000,0.0000,20.0000,1.6160,1.7871,35.1223,34.0522,0.0066,0.000295,90.6049,-41.3508,-45.5425,86.8932,90.6049,-0.0001,-3.1770,-11.1332,-1.0018,0.0000,0.000083,0.003015,-0.015876,0.0008,0.0027,0.0010,180.0000,0.0000,0.0000
49,0.4900,-0.0312,0.0069,0.0831,0.0891,0.0000,0.0000,0.0000,20.0000,1.6494,1.7786,35.2891,34.1157,0.0069,0.000351,90.6049,-41.3508,-45.5425,86.8932,90.6049,-0.0001,-3.1770,-11.1332,-1.0018,0.0000,-0.002782,0.000986,-0.016228,0.0011,0.0019,-0.0006,180.0000,0.0000,0.0000
50,0.5000,-0.0457,0.0074,0.0726,0.0861,0.0000,0.0000,0.0000,20.0000,1.6406,1.7713,33.6593,34.1354,0.0071,0.000350,90.6049,-41.3508,-45.5425,86.8932,90.6049,-0.0001,-3.1770,-11.1332,-1.0018,0.0000,-0.005810,-0.000188,-0.015342,0.0021,0.0021,-0.0015,180.0000,0.0000,0.0000
51,0.5100,-0.0562,-0.0020,0.0580,0.0807,0.0000,0.0000,0.0000,20.0000,1.5840,1.7625,33.7097,34.1106,0.0074,0.000315,90.6049,-41.3508,-45.5425,86.8932,90.6049,-0.0001,-3.1770,-11.1332,-1.0018,0.0000,-0.008517,0.000107,-0.013355,0.0018,0.0017,-0.0016,180.0000,0.0000,0.0000
52,0.5200,-0.0671,-0.0217,0.0446,0.0835,0.0000,0.0000,0.0000,20.0000,1.5706,1.7523,41.5709,34.3047,0.0076,0.000370,90.6049,-41.3508,-45.5425,86.8932,90.6049,-0.0001,-3.1770,-11.1332,-1.0018,0.0000,-0.011095,0.002240,-0.010888,0.0009,0.0023,-0.0021,180.0000,0.0000,0.0000
53,0.5300,-0.0697,-0.0398,0.0297,0.0855,0.0000,0.0000,0.0000,20.0000,1.5940,1.7430,44.6085,34.7880,0.0078,0.000383,90.6049,-41.3508,-45.5425,86.8932,90.6049,-0.0001,-3.1770,-11.1332,-1.0018,0.0000,-0.012751,0.005223,-0.008014,0.0012,0.0017,-0.0026,180.0000,0.0000,0.0000
54,0.5400,-0.0672,-0.0456,0.0171,0.0829,0.0000,0.0000,0.0000,20.0000,1.6555,1.7365,32.1005,34.9842,0.0080,0.000320,90.6294,-41.3670,-45.4787,86.8457,90.6294,-0.0005,-3.2023,-11.1678,-1.0046,0.0000,-0.013622,0.007394,-0.005817,0.0019,0.0015,-0.0026,180.0000,0.0000,0.0000
55,0.5500,-0.0759,-0.0389,0.0104,0.0859,0.0000,0.0000,0.0000,20.0000,1.7364,1.7342,23.7411,34.5956,0.0082,0.000357,90.6294,-41.3670,-45.4787,86.8457,90.6294,-0.0005,-3.2023,-11.1678,-1.0046,0.0000,-0.014953,0.007909,-0.003919,0.0027,0.0012,-0.0031,180.0000,0.0000,0.0000
56,0.5600,-0.0880,-0.0247,0.0043,0.0915,0.0000,0.0000,0.0000,20.0000,1.8309,1.7370,27.8412,34.1113,0.0083,0.000386,90.6294,-41.3670,-45.4787,86.8457,90.6294,-0.0005,-3.2023,-11.1678,-1.0046,0.0000,-0.016865,0.006761,-0.002253,0.0020,0.0013,-0.0029,180.0000,0.0000,0.0000
57,0.5700,-0.0940,-0.0061,0.0004,0.0942,0.0000,0.0000,0.0000,20.0000,1.9003,1.7440,32.6360,33.8983,0.0084,0.000303,90.6294,-41.3670,-45.4787,86.8457,90.6294,-0.0005,-3.2023,-11.1678,-1.0046,0.0000,-0.018496,0.004259,-0.000937,0.0003,0.0010,-0.0026,180.0000,0.0000,0.0000
58,0.5800,-0.1004,0.0166,0.0045,0.1018,0.0000,0.0000,0.0000,20.0000,2.0008,1.7554,39.7421,34.0243,0.0086,0.000309,90.6294,-41.3670,-45.4787,86.8457,90.6294,-0.0005,-3.2023,-11.1678,-1.0046,0.0000,-0.019990,0.000591,-0.000614,-0.0001,0.0000,-0.0028,180.0000,0.0000,0.0000
59,0.5900,-0.1083,0.0269,0.0152,0.1126,0.0000,0.0000,0.0000,20.0000,2.1762,1.7737,35.5158,34.2226,0.0088,0.000291,90.6294,-41.3670,-45.4787,86.8457,90.6294,-0.0005,-3.2023,-11.1678,-1.0046,0.0000,-0.021570,-0.002463,-0.001503,-0.0008,0.0010,-0.0022,180.0000,0.0000,0.0000
60,0.6000,-0.1101,0.0233,0.0277,0.1159,0.0000,0.0000,0.0000,20.0000,2.3122,1.7996,24.0806,33.9792,0.0090,0.000309,90.6294,-41.3670,-45.4787,86.8457,90.6294,-0.0005,-3.2023,-11.1678,-1.0046,0.0000,-0.022578,-0.003793,-0.003240,-0.0022,0.0020,-0.0013,180.0000,0.0000,0.0000
61,0.6100,-0.1045,0.0184,0.0386,0.1129,0.0000,0.0000,0.0000,20.0000,2.3491,1.8288,20.6067,33.3392,0.0092,0.000366,90.6294,-41.3670,-45.4787,86.8457,90.6294,-0.0005,-3.2023,-11.1678,-1.0046,0.0000,-0.022532,-0.004025,-0.005287,-0.0035,0.0019,-0.0016,180.0000,0.0000,0.0000
62,0.6200,-0.0934,0.0146,0.0448,0.1046,0.0000,0.0000,0.0000,20.0000,2.2790,1.8555,21.2373,32.6561,0.0095,0.000379,90.6294,-41.3670,-45.4787,86.8457,90.6294,-0.0005,-3.2023,-11.1678,-1.0046,0.0000,-0.021348,-0.003768,-0.007031,-0.0023,0.0016,-0.0013,180.0000,0.0000,0.0000
63,0.6300,-0.0806,0.0047,0.0473,0.0935,0.0000,0.0000,0.0000,20.0000,2.1209,1.8745,25.7685,32.1526,0.0098,0.000371,90.6294,-41.3670,-45.4787,86.8457,90.6294,-0.0005,-3.2023,-11.1678,-1.0046,0.0000,-0.019372,-0.002625,-0.008226,-0.0022,0.0018,-0.0008,180.0000,0.0000,0.0000
64,0.6400,-0.0665,-0.0031,0.0498,0.0831,0.0000,0.0000,0.0000,20.0000,1.9181,1.8824,30.4210,31.9294,0.0102,0.000431,90.6294,-41.3670,-45.4787,86.8457,90.6294,-0.0005,-3.2023,-11.1678,-1.0046,0.0000,-0.016832,-0.001207,-0.009118,-0.0022,0.0012,-0.0010,180.0000,0.0000,0.0000
65,0.6500,-0.0501,-0.0075,0.0523,0.0728,0.0000,0.0000,0.0000,20.0000,1.6920,1.8782,33.8469,31.9407,0.0105,0.000345,90.6294,-41.3670,-45.4787,86.8457,90.6294,-0.0005,-3.2023,-11.1678,-1.0046,0.0000,-0.013759,0.000011,-0.009847,-0.0020,0.0001,-0.0012,180.0000,0.0000,0.0000
66,0.6600,-0.0379,-0.0081,0.0570,0.0689,0.0000,0.0000,0.0000,20.0000,1.5226,1.8633,31.6063,31.9839,0.0108,0.000300,90.6294,-41.3670,-45.4787,86.8457,90.6294,-0.0005,-3.2023,-11.1678,-1.0046,0.0000,-0.010807,0.000750,-0.010699,-0.0001,0.0004,-0.0021,180.0000,0.0000,0.0000
67,0.6700,-0.0377,-0.0029,0.0642,0.0745,0.0000,0.0000,0.0000,20.0000,1.4991,1.8439,20.3930,31.6547,0.0111,0.000341,90.6294,-41.3670,-45.4787,86.8457,90.6294,-0.0005,-3.2023,-11.1678,-1.0046,0.0000,-0.009139,0.000637,-0.011866,0.0003,0.0011,-0.0023,180.0000,0.0000,0.0000
68,0.6800,-0.0426,0.0072,0.0688,0.0812,0.0000,0.0000,0.0000,20.0000,1.5599,1.8266,15.8969,30.9116,0.0114,0.000435,90.6294,-41.3670,-45.4787,86.8457,90.6294,-0.0005,-3.2023,-11.1678,-1.0046,0.0000,-0.008685,-0.000433,-0.012951,0.0006,0.0018,-0.0032,180.0000,0.0000,0.0000
69,0.6900,-0.0422,0.0210,0.0661,0.0812,0.0000,0.0000,0.0000,20.0000,1.5864,1.8127,20.1711,30.2032,0.0117,0.000365,90.6294,-41.3670,-45.4787,86.8457,90.6294,-0.0005,-3.2023,-11.1678,-1.0046,0.0000,-0.008382,-0.002404,-0.013253,0.0006,0.0013,-0.0045,180.0000,0.0000,0.0000
70,0.7000,-0.0406,0.0255,0.0566,0.0742,0.0000,0.0000,0.0000,20.0000,1.5332,1.7987,17.7348,29.5843,0.0120,0.000384,90.6294,-41.3670,-45.4787,86.8457,90.6294,-0.0005,-3.2023,-11.1678,-1.0046,0.0000,-0.008034,-0.003946,-0.012448,0.0005,0.0009,-0.0041,180.0000,0.0000,0.0000
71,0.7100,-0.0381,0.0215,0.0463,0.0637,0.0000,0.0000,0.0000,20.0000,1.4016,1.7805,16.3340,28.8940,0.0123,0.000315,90.6294,-41.3670,-45.4787,86.8457,90.6294,-0.0005,-3.2023,-11.1678,-1.0046,0.0000,-0.007573,-0.004392,-0.010946,0.0005,-0.0003,-0.0017,180.0000,0.0000,0.0000
72,0.7200,-0.0267,0.0210,0.0398,0.0523,0.0000,0.0000,0.0000,20.0000,1.2166,1.7546,20.7119,28.3235,0.0126,0.000339,90.6294,-41.3670,-45.4787,86.8457,90.6294,-0.0005,-3.2023,-11.1678,-1.0046,0.0000,-0.006163,-0.004574,-0.009440,0.0004,-0.0016,-0.0013,180.0000,0.0000,0.0000
73,0.7300,-0.0104,0.0273,0.0382,0.0481,0.0000,0.0000,0.0000,20.0000,1.0643,1.7208,27.1404,28.0816,0.0128,0.000404,90.6294,-41.3670,-45.4787,86.8457,90.6294,-0.0005,-3.2023,-11.1678,-1.0046,0.0000,-0.003746,-0.005296,-0.008437,0.0003,-0.0019,-0.0009,180.0000,0.0000,0.0000
74,0.7400,0.0014,0.0311,0.0424,0.0526,0.0000,0.0000,0.0000,20.0000,1.0740,1.6850,21.3879,27.8716,0.0130,0.000413,90.6851,-41.3683,-45.4404,86.8087,90.6851,0.0022,-3.1979,-11.1657,-1.0044,-0.0000,-0.001751,-0.006008,-0.008729,-0.0003,-0.0022,0.0010,180.0000,0.0000,0.0000
75,0.7500,0.0020,0.0420,0.0511,0.0662,0.0000,0.0000,0.0000,20.0000,1.2301,1.6556,21.3664,27.5144,0.0132,0.000357,90.6851,-41.3683,-45.4404,86.8087,90.6851,0.0022,-3.1979,-11.1657,-1.0044,-0.0000,-0.000585,-0.007482,-0.009746,0.0001,-0.0004,-0.0002,180.0000,0.0000,0.0000
76,0.7600,-0.0149,0.0566,0.0588,0.0830,0.0000,0.0000,0.0000,20.0000,1.4826,1.6392,28.1160,27.3618,0.0134,0.000407,90.6851,-41.3683,-45.4404,86.8087,90.6851,0.0022,-3.1979,-11.1657,-1.0044,-0.0000,-0.001630,-0.009737,-0.011060,-0.0007,0.0009,-0.0021,180.0000,0.0000,0.0000
77,0.7700,-0.0388,0.0645,0.0656,0.0999,0.0000,0.0000,0.0000,20.0000,1.7728,1.6385,38.4672,27.6880,0.0137,0.000285,90.6851,-41.3683,-45.4404,86.8087,90.6851,0.0022,-3.1979,-11.1657,-1.0044,-0.0000,-0.004596,-0.011757,-0.012447,-0.0002,0.0017,-0.0018,180.0000,0.0000,0.0000
78,0.7800,-0.0643,0.0659,0.0771,0.1201,0.0000,0.0000,0.0000,20.0000,2.1241,1.6556,47.5145,28.5298,0.0141,0.000392,90.6851,-41.3683,-45.4404,86.8087,90.6851,0.0022,-3.1979,-11.1657,-1.0044,-0.0000,-0.008780,-0.012986,-0.014334,-0.0006,0.0030,-0.0008,180.0000,0.0000,0.0000
79,0.7900,-0.0898,0.0620,0.0924,0.1430,0.0000,0.0000,0.0000,20.0000,2.5420,1.6929,54.7655,29.7735,0.0146,0.000409,90.6851,-41.3683,-45.4404,86.8087,90.6851,0.0022,-3.1979,-11.1657,-1.0044,-0.0000,-0.013619,-0.013252,-0.016885,-0.0000,0.0038,-0.0006,180.0000,0.0000,0.0000
80,0.8000,-0.0956,0.0598,0.1057,0.1546,0.0000,0.0000,0.0000,20.0000,2.8994,1.7494,42.1613,30.8016,0.0152,0.000384,90.6851,-41.3683,-45.4404,86.8087,90.6851,0.0022,-3.1979,-11.1657,-1.0044,-0.0000,-0.016850,-0.013150,-0.019591,-0.0002,0.0025,0.0018,180.0000,0.0000,0.0000
81,0.8100,-0.0735,0.0609,0.1166,0.1507,0.0000,0.0000,0.0000,20.0000,3.0533,1.8169,25.7901,30.9762,0.0159,0.000368,90.6851,-41.3683,-45.4404,86.8087,90.6851,0.0022,-3.1979,-11.1657,-1.0044,-0.0000,-0.016392,-0.013185,-0.022129,0.0002,0.0017,0.0033,180.0000,0.0000,0.0000
82,0.8200,-0.0469,0.0568,0.1268,0.1467,0.0000,0.0000,0.0000,20.0000,3.0737,1.8855,38.1061,31.0297,0.0167,0.000371,90.6851,-41.3683,-45.4404,86.8087,90.6851,0.0022,-3.1979,-11.1657,-1.0044,-0.0000,-0.013449,-0.012766,-0.024513,-0.0010,0.0024,0.0027,180.0000,0.0000,0.0000
83,0.8300,-0.0300,0.0486,0.1372,0.1487,0.0000,0.0000,0.0000,20.0000,3.0957,1.9514,42.0309,31.5269,0.0174,0.000392,90.6851,-41.3683,-45.4404,86.8087,90.6851,0.0022,-3.1979,-11.1657,-1.0044,-0.0000,-0.010107,-0.011691,-0.026824,-0.0003,0.0021,0.0020,180.0000,0.0000,0.0000
84,0.8400,-0.0187,0.0461,0.1472,0.1554,0.0000,0.0000,0.0000,20.0000,3.1801,2.0167,38.3356,32.0031,0.0182,0.000374,90.6851,-41.3683,-45.4404,86.8087,90.6851,0.0022,-3.1979,-11.1657,-1.0044,-0.0000,-0.007107,-0.010822,-0.029046,-0.0007,0.0017,0.0009,180.0000,0.0000,0.0000
85,0.8500,-0.0160,0.0405,0.1576,0.1635,0.0000,0.0000,0.0000,20.0000,3.3147,2.0844,31.3522,32.1593,0.0190,0.000324,90.6851,-41.3683,-45.4404,86.8087,90.6851,0.0022,-3.1979,-11.1657,-1.0044,-0.0000,-0.005158,-0.009753,-0.031257,-0.0001,0.0022,-0.0010,180.0000,0.0000,0.0000
86,0.8600,-0.0287,0.0289,0.1697,0.1745,0.0000,0.0000,0.0000,20.0000,3.4971,2.1571,29.5705,32.0659,0.0200,0.000329,90.6851,-41.3683,-45.4404,86.8087,90.6851,0.0022,-3.1979,-11.1657,-1.0044,-0.0000,-0.005349,-0.007990,-0.033624,-0.0021,0.0037,-0.0030,180.0000,0.0000,0.0000
87,0.8700,-0.0512,0.0241,0.1746,0.1836,0.0000,0.0000,0.0000,20.0000,3.6768,2.2357,32.6529,32.0134,0.0210,0.000291,90.6851,-41.3683,-45.4404,86.8087,90.6851,0.0022,-3.1979,-11.1657,-1.0044,-0.0000,-0.007692,-0.006519,-0.035358,-0.0007,0.0043,-0.0033,180.0000,0.0000,0.0000
88,0.8800,-0.0686,0.0266,0.1657,0.1813,0.0000,0.0000,0.0000,20.0000,3.7414,2.3168,30.7776,31.9970,0.0220,0.000405,90.6851,-41.3683,-45.4404,86.8087,90.6851,0.0022,-3.1979,-11.1657,-1.0044,-0.0000,-0.010715,-0.005939,-0.035352,-0.0012,0.0036,-0.0031,180.0000,0.0000,0.0000
89,0.8900,-0.0821,0.0268,0.1499,0.1730,0.0000,0.0000,0.0000,20.0000,3.6812,2.3935,34.3267,32.0276,0.0231,0.000363,90.6851,-41.3683,-45.4404,86.8087,90.6851,0.0022,-3.1979,-11.1657,-1.0044,-0.0000,-0.013707,-0.005625,-0.033699,-0.0020,0.0044,-0.0032,180.0000,0.0000,0.0000
90,0.9000,-0.0960,0.0281,0.1327,0.1662,0.0000,0.0000,0.0000,20.0000,3.5661,2.4612,40.5389,32.3249,0.0242,0.000428,90.6851,-41.3683,-45.4404,86.8087,90.6851,0.0022,-3.1979,-11.1657,-1.0044,-0.0000,-0.016728,-0.005575,-0.030997,-0.0029,0.0043,-0.0038,180.0000,0.0000,0.0000
91,0.9100,-0.1039,0.0348,0.1103,0.1555,0.0000,0.0000,0.0000,20.0000,3.3843,2.5169,45.4352,32.9114,0.0253,0.000371,90.6851,-41.3683,-45.4404,86.8087,90.6851,0.0022,-3.1979,-11.1657,-1.0044,-0.0000,-0.019150,-0.006206,-0.027204,-0.0015,0.0034,-0.0025,180.0000,0.0000,0.0000
92,0.9200,-0.1019,0.0395,0.0869,0.1396,0.0000,0.0000,0.0000,20.0000,3.1229,2.5575,46.9715,33.6426,0.0262,0.000338,90.6851,-41.3683,-45.4404,86.8087,90.6851,0.0022,-3.1979,-11.1657,-1.0044,-0.0000,-0.020256,-0.007011,-0.022711,-0.0019,0.0014,-0.0009,180.0000,0.0000,0.0000
93,0.9300,-0.0943,0.0425,0.0699,0.1249,0.0000,0.0000,0.0000,20.0000,2.8358,2.5807,42.9492,34.2651,0.0271,0.000380,90.6851,-41.3683,-45.4404,86.8087,90.6851,0.0022,-3.1979,-11.1657,-1.0044,-0.0000,-0.020064,-0.007744,-0.018483,-0.0019,0.0015,-0.0008,180.0000,0.0000,0.0000
94,0.9400,-0.0877,0.0504,0.0603,0.1178,0.0000,0.0000,0.0000,20.0000,2.6821,2.5905,30.7613,34.4076,0.0279,0.000405,90.7239,-41.4069,-45.3647,86.7716,90.7239,-0.0007,-3.1788,-11.1444,-1.0022,0.0000,-0.019629,-0.009185,-0.015801,-0.0007,0.0014,-0.0014,180.0000,0.0000,0.0000
95,0.9500,-0.0838,0.0545,0.0588,0.1160,0.0000,0.0000,0.0000,20.0000,2.5824,2.5928,21.5790,33.9545,0.0286,0.000314,90.7239,-41.4069,-45.3647,86.7716,90.7239,-0.0007,-3.1788,-11.1444,-1.0022,0.0000,-0.018961,-0.010377,-0.014131,-0.0005,0.0012,-0.0004,180.0000,0.0000,0.0000
96,0.9600,-0.0827,0.0512,0.0659,0.1175,0.0000,0.0000,0.0000,20.0000,2.5441,2.5911,6.4552,32.8578,0.0294,0.000856,90.7239,-41.4069,-45.3647,86.7716,90.7239,-0.0007,-3.1788,-11.1444,-1.0022,0.0000,-0.018443,-0.010680,-0.013893,0.0004,0.0011,0.0000,180.0000,0.0000,0.0000
97,0.9700,-0.0784,0.0436,0.0819,0.1215,0.0000,0.0000,0.0000,20.0000,2.5481,2.5887,17.4004,31.7065,0.0302,0.000621,90.7239,-41.4069,-45.3647,86.7716,90.7239,-0.0007,-3.1788,-11.1444,-1.0022,0.0000,-0.017683,-0.010071,-0.015334,0.0006,0.0017,0.0012,180.0000,0.0000,0.0000
98,0.9800,-0.0671,0.0340,0.1012,0.1261,0.0000,0.0000,0.0000,20.0000,2.5703,2.5870,33.9070,31.3735,0.0310,0.000460,90.7239,-41.4069,-45.3647,86.7716,90.7239,-0.0007,-3.1788,-11.1444,-1.0022,0.0000,-0.016095,-0.008755,-0.018026,0.0019,0.0017,0.0019,180.0000,0.0000,0.0000
99,0.9900,-0.0500,0.0338,0.1114,0.1267,0.0000,0.0000,0.0000,20.0000,2.5803,2.5864,36.8642,31.5942,0.0319,0.000392,90.7239,-41.4069,-45.3647,86.7716,90.7239,-0.0007,-3.1788,-11.1444,-1.0022,0.0000,-0.013476,-0.007986,-0.020504,0.0045,0.0007,0.0030,180.0000,0.0000,0.0000
100,1.0000,-0.0383,0.0464,0.1078,0.1234,0.0000,0.0000,0.0000,20.0000,2.5606,2.5855,29.3106,31.6763,0.0328,0.000338,90.7239,-41.4069,-45.3647,86.7716,90.7239,-0.0007,-3.1788,-11.1444,-1.0022,0.0000,-0.010832,-0.008802,-0.021468,0.0055,0.0011,0.0015,180.0000,0.0000,0.0000
101,1.0100,-0.0350,0.0629,0.0956,0.1197,0.0000,0.0000,0.0000,20.0000,2.5102,2.5828,28.5593,31.5255,0.0337,0.000395,90.7239,-41.4069,-45.3647,86.7716,90.7239,-0.0007,-3.1788,-11.1444,-1.0022,0.0000,-0.009019,-0.010887,-0.020742,0.0048,0.0007,0.0002,180.0000,0.0000,0.0000
102,1.0200,-0.0401,0.0849,0.0766,0.1211,0.0000,0.0000,0.0000,20.0000,2.4754,2.5778,41.0779,31.7067,0.0345,0.000516,90.7239,-41.4069,-45.3647,86.7716,90.7239,-0.0007,-3.1788,-11.1444,-1.0022,0.0000,-0.008513,-0.014216,-0.018390,0.0043,0.0015,-0.0028,180.0000,0.0000,0.0000
103,1.0300,-0.0482,0.1002,0.0551,0.1241,0.0000,0.0000,0.0000,20.0000,2.4738,2.5721,48.5815,32.4286,0.0352,0.000503,90.7239,-41.4069,-45.3647,86.7716,90.7239,-0.0007,-3.1788,-11.1444,-1.0022,0.0000,-0.009028,-0.017560,-0.014904,0.0029,0.0023,-0.0024,180.0000,0.0000,0.0000
104,1.0400,-0.0476,0.0958,0.0405,0.1144,0.0000,0.0000,0.0000,20.0000,2.3996,2.5647,36.8547,32.9946,0.0358,0.000524,90.7239,-41.4069,-45.3647,86.7716,90.7239,-0.0007,-3.1788,-11.1444,-1.0022,0.0000,-0.009230,-0.018937,-0.011491,0.0003,0.0020,-0.0020,180.0000,0.0000,0.0000
105,1.0500,-0.0375,0.0843,0.0386,0.1000,0.0000,0.0000,0.0000,20.0000,2.2357,2.5511,23.3344,32.8350,0.0364,0.000476,90.7239,-41.4069,-45.3647,86.7716,90.7239,-0.0007,-3.1788,-11.1444,-1.0022,0.0000,-0.008311,-0.018510,-0.009389,-0.0011,0.0012,-0.0020,180.0000,0.0000,0.0000
106,1.0600,-0.0247,0.0749,0.0431,0.0899,0.0000,0.0000,0.0000,20.0000,2.0409,2.5284,22.9286,32.3013,0.0369,0.000473,90.7239,-41.4069,-45.3647,86.7716,90.7239,-0.0007,-3.1788,-11.1444,-1.0022,0.0000,-0.006506,-0.017296,-0.008664,-0.0009,0.0022,-0.0010,180.0000,0.0000,0.0000
107,1.0700,-0.0166,0.0550,0.0452,0.0731,0.0000,0.0000,0.0000,20.0000,1.7509,2.4936,32.5689,32.0508,0.0374,0.000451,90.7239,-41.4069,-45.3647,86.7716,90.7239,-0.0007,-3.1788,-11.1444,-1.0022,0.0000,-0.004688,-0.014602,-0.008448,-0.0009,0.0013,0.0004,180.0000,0.0000,0.0000
108,1.0800,-0.0144,0.0265,0.0455,0.0546,0.0000,0.0000,0.0000,20.0000,1.3649,2.4421,45.4379,32.4333,0.0378,0.000478,90.7239,-41.4069,-45.3647,86.7716,90.7239,-0.0007,-3.1788,-11.1444,-1.0022,0.0000,-0.003455,-0.010230,-0.008349,-0.0008,-0.0002,0.0005,180.0000,0.0000,0.0000
109,1.0900,-0.0206,0.0083,0.0432,0.0486,0.0000,0.0000,0.0000,20.0000,1.0578,2.3744,42.6535,33.0721,0.0382,0.000431,90.7239,-41.4069,-45.3647,86.7716,90.7239,-0.0007,-3.1788,-11.1444,-1.0022,0.0000,-0.003389,-0.005976,-0.008044,0.0003,-0.0005,0.0001,180.0000,0.0000,0.0000
110,1.1000,-0.0309,-0.0018,0.0350,0.0467,0.0000,0.0000,0.0000,20.0000,0.8684,2.2968,36.5445,33.4311,0.0385,0.000438,90.7239,-41.4069,-45.3647,86.7716,90.7239,-0.0007,-3.1788,-11.1444,-1.0022,0.0000,-0.004371,-0.002603,-0.007038,0.0005,-0.0016,-0.0007,180.0000,0.0000,0.0000
111,1.1100,-0.0449,-0.0148,0.0286,0.0553,0.0000,0.0000,0.0000,20.0000,0.8610,2.2180,39.0849,33.6722,0.0388,0.000484,90.7239,-41.4069,-45.3647,86.7716,90.7239,-0.0007,-3.1788,-11.1444,-1.0022,0.0000,-0.006311,0.000568,-0.005829,0.0001,-0.0024,-0.0009,180.0000,0.0000,0.0000
112,1.1200,-0.0618,-0.0209,0.0379,0.0754,0.0000,0.0000,0.0000,20.0000,1.1296,2.1508,36.3285,33.8942,0.0392,0.000457,90.7239,-41.4069,-45.3647,86.7716,90.7239,-0.0007,-3.1788,-11.1444,-1.0022,0.0000,-0.009054,0.002936,-0.006083,0.0004,-0.0019,-0.0019,180.0000,0.0000,0.0000
113,1.1300,-0.0805,-0.0104,0.0608,0.1014,0.0000,0.0000,0.0000,20.0000,1.5389,2.1059,41.5628,34.1720,0.0397,0.000489,90.7239,-41.4069,-45.3647,86.7716,90.7239,-0.0007,-3.1788,-11.1444,-1.0022,0.0000,-0.012428,0.003189,-0.008498,0.0001,0.0008,-0.0033,180.0000,0.0000,0.0000
114,1.1400,-0.1007,-0.0004,0.0855,0.1321,0.0000,0.0000,0.0000,20.0000,2.1345,2.0910,64.2514,35.2026,0.0404,0.000374,90.7766,-41.4615,-45.2705,86.7319,90.7766,0.0005,-3.1827,-11.1619,-1.0037,-0.0000,-0.016785,0.001918,-0.013046,-0.0008,0.0028,-0.0036,180.0000,0.0000,0.0000
115,1.1500,-0.1208,0.0051,0.1122,0.1649,0.0000,0.0000,0.0000,20.0000,2.7931,2.1116,68.8730,36.9276,0.0415,0.000387,90.7766,-41.4615,-45.2705,86.7319,90.7766,0.0005,-3.1827,-11.1619,-1.0037,-0.0000,-0.021173,0.000663,-0.018203,-0.0012,0.0044,-0.0036,180.0000,0.0000,0.0000
116,1.1600,-0.1337,0.0121,0.1401,0.1940,0.0000,0.0000,0.0000,20.0000,3.4421,2.1669,68.4689,38.6738,0.0428,0.000486,90.7766,-41.4615,-45.2705,86.7319,90.7766,0.0005,-3.1827,-11.1619,-1.0037,-0.0000,-0.024845,-0.000734,-0.023811,-0.0023,0.0041,-0.0042,180.0000,0.0000,0.0000
117,1.1700,-0.1400,0.0178,0.1589,0.2126,0.0000,0.0000,0.0000,20.0000,3.9806,2.2518,57.4109,40.0086,0.0444,0.000450,90.7766,-41.4615,-45.2705,86.7319,90.7766,0.0005,-3.1827,-11.1619,-1.0037,-0.0000,-0.027457,-0.002073,-0.028745,-0.0021,0.0040,-0.0051,180.0000,0.0000,0.0000
118,1.1800,-0.1477,0.0168,0.1611,0.2192,0.0000,0.0000,0.0000,20.0000,4.3418,2.3569,36.6265,40.3942,0.0462,0.000414,90.7766,-41.4615,-45.2705,86.7319,90.7766,0.0005,-3.1827,-11.1619,-1.0037,-0.0000,-0.029612,-0.002712,-0.031637,-0.0009,0.0026,-0.0043,180.0000,0.0000,0.0000
119,1.1900,-0.1477,0.0180,0.1547,0.2146,0.0000,0.0000,0.0000,20.0000,4.4866,2.4700,15.0849,39.5945,0.0481,0.000345,90.7766,-41.4615,-45.2705,86.7319,90.7766,0.0005,-3.1827,-11.1619,-1.0037,-0.0000,-0.030741,-0.003174,-0.032524,0.0008,0.0014,-0.0038,180.0000,0.0000,0.0000
120,1.2000,-0.1344,0.0260,0.1471,0.2009,0.0000,0.0000,0.0000,20.0000,4.4192,2.5791,13.4333,38.2008,0.0500,0.000391,90.7766,-41.4615,-45.2705,86.7319,90.7766,0.0005,-3.1827,-11.1619,-1.0037,-0.0000,-0.029976,-0.004228,-0.032195,0.0015,0.0017,-0.0023,180.0000,0.0000,0.0000
121,1.2100,-0.1203,0.0311,0.1351,0.1836,0.0000,0.0000,0.0000,20.0000,4.1985,2.6743,26.1185,37.1873,0.0519,0.000460,90.7766,-41.4615,-45.2705,86.7319,90.7766,0.0005,-3.1827,-11.1619,-1.0037,-0.0000,-0.028086,-0.005309,-0.030752,0.0022,0.0021,-0.0018,180.0000,0.0000,0.0000
122,1.2200,-0.1053,0.0345,0.1227,0.1653,0.0000,0.0000,0.0000,20.0000,3.8848,2.7495,34.7182,36.8150,0.0536,0.000500,90.7766,-41.4615,-45.2705,86.7319,90.7766,0.0005,-3.1827,-11.1619,-1.0037,-0.0000,-0.025489,-0.006241,-0.028645,0.0023,0.0024,-0.0010,180.0000,0.0000,0.0000
123,1.2300,-0.0796,0.0402,0.1168,0.1469,0.0000,0.0000,0.0000,20.0000,3.5111,2.8017,45.7236,37.0023,0.0553,0.000475,90.7766,-41.4615,-45.2705,86.7319,90.7766,0.0005,-3.1827,-11.1619,-1.0037,-0.0000,-0.021428,-0.007310,-0.026836,0.0018,0.0020,-0.0014,180.0000,0.0000,0.0000
124,1.2400,-0.0515,0.0428,0.1146,0.1328,0.0000,0.0000,0.0000,20.0000,3.1414,2.8305,53.1691,37.6868,0.0567,0.000538,90.7766,-41.4615,-45.2705,86.7319,90.7766,0.0005,-3.1827,-11.1619,-1.0037,-0.0000,-0.016333,-0.008148,-0.025567,0.0005,0.0020,-0.0011,180.0000,0.0000,0.0000
125,1.2500,-0.0305,0.0412,0.1137,0.1247,0.0000,0.0000,0.0000,20.0000,2.8492,2.8396,50.3524,38.4610,0.0581,0.000433,90.7766,-41.4615,-45.2705,86.7319,90.7766,0.0005,-3.1827,-11.1619,-1.0037,-0.0000,-0.011377,-0.008429,-0.024724,0.0000,0.0012,-0.0010,180.0000,0.0000,0.0000
126,1.2600,-0.0146,0.0467,0.1174,0.1272,0.0000,0.0000,0.0000,20.0000,2.7140,2.8364,44.0833,38.9427,0.0593,0.000551,90.7766,-41.4615,-45.2705,86.7319,90.7766,0.0005,-3.1827,-11.1619,-1.0037,-0.0000,-0.007027,-0.009126,-0.024576,0.0004,0.0012,-0.0010,180.0000,0.0000,0.0000
127,1.2700,0.0011,0.0600,0.1215,0.1355,0.0000,0.0000,0.0000,20.0000,2.7276,2.8300,43.4366,39.2077,0.0605,0.000493,90.7766,-41.4615,-45.2705,86.7319,90.7766,0.0005,-3.1827,-11.1619,-1.0037,-0.0000,-0.003038,-0.010823,-0.024852,0.0011,0.0003,0.0005,180.0000,0.0000,0.0000
128,1.2800,0.0141,0.0712,0.1281,0.1472,0.0000,0.0000,0.0000,20.0000,2.8660,2.8282,41.2059,39.3790,0.0617,0.000565,90.7766,-41.4615,-45.2705,86.7319,90.7766,0.0005,-3.1827,-11.1619,-1.0037,-0.0000,0.000467,-0.012851,-0.025613,0.0016,-0.0009,0.0009,180.0000,0.0000,0.0000
129,1.2900,0.0139,0.0705,0.1349,0.1529,0.0000,0.0000,0.0000,20.0000,3.0159,2.8344,24.2364,39.0127,0.0629,0.000491,90.7766,-41.4615,-45.2705,86.7319,90.7766,0.0005,-3.1827,-11.1619,-1.0037,-0.0000,0.002391,-0.013881,-0.026668,0.0009,-0.0005,0.0001,180.0000,0.0000,0.0000
130,1.3000,0.0045,0.0551,0.1362,0.1470,0.0000,0.0000,0.0000,20.0000,3.0315,2.8448,12.0044,37.8635,0.0641,0.000411,90.7766,-41.4615,-45.2705,86.7319,90.7766,0.0005,-3.1827,-11.1619,-1.0037,-0.0000,0.002512,-0.012884,-0.027326,0.0003,-0.0005,-0.0016,180.0000,0.0000,0.0000
131,1.3100,-0.0032,0.0326,0.1392,0.1430,0.0000,0.0000,0.0000,20.0000,2.9746,2.8535,29.7683,36.9296,0.0654,0.000397,90.7766,-41.4615,-45.2705,86.7319,90.7766,0.0005,-3.1827,-11.1619,-1.0037,-0.0000,0.001802,-0.010058,-0.027936,-0.0011,-0.0017,-0.0026,180.0000,0.0000,0.0000
132,1.3200,-0.0099,0.0129,0.1466,0.1475,0.0000,0.0000,0.0000,20.0000,2.9684,2.8600,38.4972,36.7758,0.0667,0.000333,90.7766,-41.4615,-45.2705,86.7319,90.7766,0.0005,-3.1827,-11.1619,-1.0037,-0.0000,0.000729,-0.006504,-0.028953,-0.0017,-0.0016,-0.0035,180.0000,0.0000,0.0000
133,1.3300,-0.0161,0.0014,0.1496,0.1505,0.0000,0.0000,0.0000,20.0000,2.9957,2.8667,34.4919,36.7603,0.0680,0.000566,90.7766,-41.4615,-45.2705,86.7319,90.7766,0.0005,-3.1827,-11.1619,-1.0037,-0.0000,-0.000480,-0.003377,-0.029763,-0.0013,-0.0007,-0.0034,180.0000,0.0000,0.0000
134,1.3400,-0.0140,0.0047,0.1434,0.1441,0.0000,0.0000,0.0000,20.0000,3.0440,2.8752,16.8501,36.1503,0.0695,0.000428,90.8401,-41.4978,-45.1841,86.6819,90.8401,0.0002,-3.1734,-11.1617,-1.0036,0.0000,-0.001539,-0.002191,-0.030322,0.0002,-0.0006,-0.0034,180.0000,0.0000,-0.0000
135,1.3500,-0.0030,0.0209,0.1266,0.1284,0.0000,0.0000,0.0000,20.0000,2.9082,2.8807,18.0020,35.1203,0.0709,0.000416,90.8401,-41.4978,-45.1841,86.6819,90.8401,0.0002,-3.1734,-11.1617,-1.0036,0.0000,-0.001025,-0.003156,-0.028892,0.0003,-0.0011,-0.0023,180.0000,0.0000,-0.0000
136,1.3600,0.0069,0.0342,0.0980,0.1040,0.0000,0.0000,0.0000,20.0000,2.5680,2.8729,43.3683,34.8763,0.0721,0.000402,90.8401,-41.4978,-45.1841,86.6819,90.8401,0.0002,-3.1734,-11.1617,-1.0036,0.0000,0.000249,-0.005012,-0.025185,0.0002,0.0010,-0.0017,180.0000,0.0000,-0.0000
137,1.3700,0.0105,0.0368,0.0672,0.0773,0.0000,0.0000,0.0000,20.0000,2.1012,2.8433,54.3546,35.6456,0.0730,0.000434,90.8401,-41.4978,-45.1841,86.6819,90.8401,0.0002,-3.1734,-11.1617,-1.0036,0.0000,0.001309,-0.006283,-0.020008,-0.0001,0.0025,-0.0009,180.0000,0.0000,-0.0000
138,1.3800,0.0064,0.0323,0.0438,0.0548,0.0000,0.0000,0.0000,20.0000,1.6207,2.7892,52.5804,36.6260,0.0737,0.000441,90.8401,-41.4978,-45.1841,86.6819,90.8401,0.0002,-3.1734,-11.1617,-1.0036,0.0000,0.001491,-0.006529,-0.014758,-0.0003,0.0028,-0.0005,180.0000,0.0000,-0.0000
139,1.3900,-0.0099,0.0220,0.0314,0.0396,0.0000,0.0000,0.0000,20.0000,1.1989,2.7133,45.3646,37.3051,0.0743,0.000454,90.8401,-41.4978,-45.1841,86.6819,90.8401,0.0002,-3.1734,-11.1617,-1.0036,0.0000,-0.000047,-0.005625,-0.010587,-0.0006,0.0030,-0.0005,180.0000,0.0000,-0.0000
140,1.4000,-0.0381,0.0074,0.0333,0.0512,0.0000,0.0000,0.0000,20.0000,0.9929,2.6244,46.8400,37.7890,0.0748,0.000400,90.8401,-41.4978,-45.1841,86.6819,90.8401,0.0002,-3.1734,-11.1617,-1.0036,0.0000,-0.003717,-0.003645,-0.008455,0.0002,0.0032,-0.0010,180.0000,0.0000,-0.0000
141,1.4100,-0.0623,-0.0039,0.0482,0.0789,0.0000,0.0000,0.0000,20.0000,1.2043,2.5404,49.7956,38.3682,0.0755,0.000330,90.8401,-41.4978,-45.1841,86.6819,90.8401,0.0002,-3.1734,-11.1617,-1.0036,0.0000,-0.008160,-0.001415,-0.008744,0.0010,0.0021,-0.0018,180.0000,0.0000,-0.0000
142,1.4200,-0.0741,-0.0105,0.0629,0.0978,0.0000,0.0000,0.0000,20.0000,1.5695,2.4770,43.9157,38.8351,0.0763,0.000381,90.8401,-41.4978,-45.1841,86.6819,90.8401,0.0002,-3.1734,-11.1617,-1.0036,0.0000,-0.011779,0.000474,-0.010361,0.0018,0.0010,-0.0035,180.0000,0.0000,-0.0000
143,1.4300,-0.0763,-0.0142,0.0683,0.1034,0.0000,0.0000,0.0000,20.0000,1.8369,2.4344,29.6973,38.7235,0.0772,0.000435,90.8401,-41.4978,-45.1841,86.6819,90.8401,0.0002,-3.1734,-11.1617,-1.0036,0.0000,-0.013969,0.001895,-0.011777,0.0009,0.0008,-0.0041,180.0000,0.0000,-0.0000
144,1.4400,-0.0665,-0.0139,0.0662,0.0948,0.0000,0.0000,0.0000,20.0000,1.8964,2.4032,9.4639,37.6705,0.0781,0.000517,90.8401,-41.4978,-45.1841,86.6819,90.8401,0.0002,-3.1734,-11.1617,-1.0036,0.0000,-0.014173,0.002643,-0.012320,0.0003,0.0003,-0.0047,180.0000,0.0000,-0.0000
145,1.4500,-0.0434,-0.0046,0.0552,0.0704,0.0000,0.0000,0.0000,20.0000,1.6719,2.3691,24.2476,36.5255,0.0789,0.000453,90.8401,-41.4978,-45.1841,86.6819,90.8401,0.0002,-3.1734,-11.1617,-1.0036,0.0000,-0.011954,0.002121,-0.011494,0.0008,-0.0003,-0.0041,180.0000,0.0000,-0.0000
146,1.4600,-0.0178,0.0105,0.0334,0.0393,0.0000,0.0000,0.0000,20.0000,1.2021,2.3179,49.8506,36.5543,0.0796,0.000453,90.8401,-41.4978,-45.1841,86.6819,90.8401,0.0002,-3.1734,-11.1617,-1.0036,0.0000,-0.008141,0.000315,-0.008839,0.0013,-0.0006,-0.0035,180.0000,0.0000,-0.0000
147,1.4700,0.0015,0.0335,0.0092,0.0347,0.0000,0.0000,0.0000,20.0000,0.7063,2.2428,65.2307,37.7087,0.0800,0.000393,90.8401,-41.4978,-45.1841,86.6819,90.8401,0.0002,-3.1734,-11.1617,-1.0036,0.0000,-0.004083,-0.002977,-0.004934,0.0014,-0.0005,-0.0033,180.0000,0.0000,-0.0000
148,1.4800,0.0101,0.0566,-0.0042,0.0576,0.0000,0.0000,0.0000,20.0000,0.7307,2.1590,62.4549,39.1463,0.0801,0.000422,90.8401,-41.4978,-45.1841,86.6819,90.8401,0.0002,-3.1734,-11.1617,-1.0036,0.0000,-0.000975,-0.007101,-0.001421,0.0008,-0.0003,-0.0034,180.0000,0.0000,-0.0000
149,1.4900,0.0065,0.0719,-0.0051,0.0724,0.0000,0.0000,0.0000,20.0000,1.0926,2.0904,45.1881,39.9536,0.0802,0.000449,90.8401,-41.4978,-45.1841,86.6819,90.8401,0.0002,-3.1734,-11.1617,-1.0036,0.0000,0.000389,-0.010902,0.000607,-0.0004,0.0004,-0.0040,180.0000,0.0000,-0.0000
150,1.5000,-0.0051,0.0856,0.0084,0.0862,0.0000,0.0000,0.0000,20.0000,1.4354,2.0449,34.7887,39.9555,0.0803,0.000465,90.8401,-41.4978,-45.1841,86.6819,90.8401,0.0002,-3.1734,-11.1617,-1.0036,0.0000,-0.000017,-0.014349,0.000375,-0.0014,0.0016,-0.0048,180.0000,0.0000,-0.0000
151,1.5100,-0.0189,0.0997,0.0378,0.1083,0.0000,0.0000,0.0000,20.0000,1.7916,2.0212,47.7520,40.0278,0.0807,0.000452,90.8401,-41.4978,-45.1841,86.6819,90.8401,0.0002,-3.1734,-11.1617,-1.0036,0.0000,-0.001628,-0.017638,-0.002689,-0.0024,0.0024,-0.0040,180.0000,0.0000,-0.0000
152,1.5200,-0.0342,0.1030,0.0730,0.1308,0.0000,0.0000,0.0000,20.0000,2.1646,2.0188,61.1189,40.8203,0.0814,0.000486,90.8401,-41.4978,-45.1841,86.6819,90.8401,0.0002,-3.1734,-11.1617,-1.0036,0.0000,-0.004040,-0.019746,-0.007894,-0.0023,0.0025,-0.0036,180.0000,0.0000,-0.0000
153,1.5300,-0.0439,0.0965,0.0993,0.1453,0.0000,0.0000,0.0000,20.0000,2.5820,2.0383,69.1389,42.1575,0.0825,0.000429,90.8692,-41.5389,-45.0875,86.6264,90.8692,0.0021,-3.1673,-12.9808,-1.0047,-0.0000,-0.006610,-0.020477,-0.014271,-0.0021,0.0017,-0.0027,-180.0000,0.0000,0.0000
154,1.5400,-0.0462,0.0908,0.1104,0.1502,0.0000,0.0000,0.0000,20.0000,2.8897,2.0767,48.9431,43.0862,0.0839,0.000497,90.8692,-41.5389,-45.0875,86.6264,90.8692,0.0021,-3.1673,-12.9808,-1.0047,-0.0000,-0.008244,-0.020264,-0.018880,-0.0014,0.0018,-0.0010,-180.0000,0.0000,0.0000
155,1.5500,-0.0477,0.0747,0.1087,0.1402,0.0000,0.0000,0.0000,20.0000,2.9640,2.1235,31.1186,42.9182,0.0855,0.000496,90.8692,-41.5389,-45.0875,86.6264,90.8692,0.0021,-3.1673,-12.9808,-1.0047,-0.0000,-0.009282,-0.018496,-0.021220,-0.0009,0.0014,-0.0006,-180.0000,0.0000,0.0000
156,1.5600,-0.0474,0.0600,0.0939,0.1211,0.0000,0.0000,0.0000,20.0000,2.8164,2.1656,25.4646,42.1136,0.0870,0.000492,90.8692,-41.5389,-45.0875,86.6264,90.8692,0.0021,-3.1673,-12.9808,-1.0047,-0.0000,-0.009809,-0.016015,-0.020989,-0.0005,0.0008,-0.0015,-180.0000,0.0000,0.0000
157,1.5700,-0.0449,0.0569,0.0695,0.1004,0.0000,0.0000,0.0000,20.0000,2.5280,2.1935,31.1954,41.3554,0.0884,0.000503,90.8692,-41.5389,-45.0875,86.6264,90.8692,0.0021,-3.1673,-12.9808,-1.0047,-0.0000,-0.009832,-0.014297,-0.018385,-0.0016,0.0012,0.0002,-180.0000,0.0000,0.0000
158,1.5800,-0.0368,0.0596,0.0492,0.0856,0.0000,0.0000,0.0000,20.0000,2.2076,2.2031,36.7382,40.9489,0.0896,0.000405,90.8692,-41.5389,-45.0875,86.6264,90.8692,0.0021,-3.1673,-12.9808,-1.0047,-0.0000,-0.009021,-0.013594,-0.014872,0.0001,-0.0006,-0.0001,-180.0000,0.0000,0.0000
159,1.5900,-0.0227,0.0717,0.0379,0.0842,0.0000,0.0000,0.0000,20.0000,1.9913,2.1974,37.0882,40.7269,0.0906,0.000417,90.8692,-41.5389,-45.0875,86.6264,90.8692,0.0021,-3.1673,-12.9808,-1.0047,-0.0000,-0.007142,-0.014384,-0.011773,-0.0005,-0.0020,-0.0000,-180.0000,0.0000,0.0000
160,1.6000,-0.0121,0.0788,0.0308,0.0855,0.0000,0.0000,0.0000,20.0000,1.8781,2.1829,34.2547,40.4489,0.0914,0.000435,90.8692,-41.5389,-45.0875,86.6264,90.8692,0.0021,-3.1673,-12.9808,-1.0047,-0.0000,-0.005022,-0.015508,-0.009328,-0.0010,-0.0010,0.0004,-180.0000,0.0000,0.0000
161,1.6100,-0.0109,0.0672,0.0283,0.0737,0.0000,0.0000,0.0000,20.0000,1.7215,2.1619,21.5533,39.7588,0.0921,0.000499,90.8692,-41.5389,-45.0875,86.6264,90.8692,0.0021,-3.1673,-12.9808,-1.0047,-0.0000,-0.003728,-0.014938,-0.007701,-0.0024,-0.0001,-0.0001,-180.0000,0.0000,0.0000
162,1.6200,-0.0145,0.0504,0.0328,0.0619,0.0000,0.0000,0.0000,20.0000,1.5181,2.1320,21.0992,38.7449,0.0928,0.000480,90.8692,-41.5389,-45.0875,86.6264,90.8692,0.0021,-3.1673,-12.9808,-1.0047,-0.0000,-0.003364,-0.012911,-0.007242,-0.0020,-0.0000,-0.0012,-180.0000,0.0000,0.0000
163,1.6300,-0.0217,0.0361,0.0413,0.0590,0.0000,0.0000,0.0000,20.0000,1.3527,2.0937,26.9180,37.9342,0.0934,0.000466,90.8692,-41.5389,-45.0875,86.6264,90.8692,0.0021,-3.1673,-12.9808,-1.0047,-0.0000,-0.003872,-0.010332,-0.007825,-0.0024,0.0009,-0.0019,-180.0000,0.0000,0.0000
164,1.6400,-0.0334,0.0154,0.0500,0.0620,0.0000,0.0000,0.0000,20.0000,1.2477,2.0501,39.7135,37.6802,0.0941,0.000473,90.8692,-41.5389,-45.0875,86.6264,90.8692,0.0021,-3.1673,-12.9808,-1.0047,-0.0000,-0.005312,-0.006821,-0.008996,-0.0019,0.0012,-0.0017,-180.0000,0.0000,0.0000
165,1.6500,-0.0441,-0.0013,0.0559,0.0712,0.0000,0.0000,0.0000,20.0000,1.2881,2.0070,42.5782,37.8708,0.0949,0.000362,90.8692,-41.5389,-45.0875,86.6264,90.8692,0.0021,-3.1673,-12.9808,-1.0047,-0.0000,-0.007170,-0.003189,-0.010215,-0.0020,-0.0003,-0.0015,-180.0000,0.0000,0.0000
166,1.6600,-0.0469,-0.0087,0.0598,0.0765,0.0000,0.0000,0.0000,20.0000,1.4096,1.9708,32.1241,37.8422,0.0958,0.000398,90.8692,-41.5389,-45.0875,86.6264,90.8692,0.0021,-3.1673,-12.9808,-1.0047,-0.0000,-0.008470,-0.000444,-0.011260,-0.0016,-0.0004,-0.0003,-180.0000,0.0000,0.0000
167,1.6700,-0.0460,-0.0108,0.0662,0.0813,0.0000,0.0000,0.0000,20.0000,1.5469,1.9437,21.9055,37.2466,0.0967,0.000477,90.8692,-41.5389,-45.0875,86.6264,90.8692,0.0021,-3.1673,-12.9808,-1.0047,-0.0000,-0.009081,0.001286,-0.012457,-0.0009,-0.0007,-0.0002,-180.0000,0.0000,0.0000
168,1.6800,-0.0466,-0.0075,0.0720,0.0861,0.0000,0.0000,0.0000,20.0000,1.6734,1.9254,14.1756,36.1902,0.0976,0.000454,90.8692,-41.5389,-45.0875,86.6264,90.8692,0.0021,-3.1673,-12.9808,-1.0047,-0.0000,-0.009458,0.001912,-0.013671,-0.0014,0.0005,0.0001,-180.0000,0.0000,0.0000
169,1.6900,-0.0448,-0.0012,0.0759,0.0882,0.0000,0.0000,0.0000,20.0000,1.7568,1.9138,10.7914,34.8861,0.0987,0.000429,90.8692,-41.5389,-45.0875,86.6264,90.8692,0.0021,-3.1673,-12.9808,-1.0047,-0.0000,-0.009463,0.001627,-0.014712,-0.0021,0.0012,-0.0008,-180.0000,0.0000,0.0000
170,1.7000,-0.0384,-0.0025,0.0803,0.0890,0.0000,0.0000,0.0000,20.0000,1.8064,1.9066,11.7878,33.5881,0.0998,0.000415,90.8692,-41.5389,-45.0875,86.6264,90.8692,0.0021,-3.1673,-12.9808,-1.0047,-0.0000,-0.008807,0.001595,-0.015691,-0.0026,0.0017,0.0002,-180.0000,0.0000,0.0000
171,1.7100,-0.0332,-0.0130,0.0790,0.0866,0.0000,0.0000,0.0000,20.0000,1.8102,1.9011,14.1872,32.4549,0.1008,0.000449,90.8692,-41.5389,-45.0875,86.6264,90.8692,0.0021,-3.1673,-12.9808,-1.0047,-0.0000,-0.007907,0.002624,-0.016071,-0.0019,0.0018,0.0001,-180.0000,0.0000,0.0000
172,1.7200,-0.0334,-0.0243,0.0711,0.0822,0.0000,0.0000,0.0000,20.0000,1.7684,1.8950,18.6798,31.5736,0.1018,0.000450,90.8692,-41.5389,-45.0875,86.6264,90.8692,0.0021,-3.1673,-12.9808,-1.0047,-0.0000,-0.007415,0.004320,-0.015463,-0.0023,0.0025,-0.0007,-180.0000,0.0000,0.0000
173,1.7300,-0.0373,-0.0335,0.0641,0.0814,0.0000,0.0000,0.0000,20.0000,1.7720,1.8881,15.6307,30.7805,0.1028,0.000458,90.8968,-41.5934,-45.0178,86.6112,90.8968,-0.0016,-3.1352,-11.1677,-1.0045,0.0000,-0.007773,0.005718,-0.014862,-0.0011,0.0014,0.0002,180.0000,0.0000,0.0000
174,1.7400,-0.0451,-0.0348,0.0587,0.0818,0.0000,0.0000,0.0000,20.0000,1.7746,1.8818,15.9913,29.9570,0.1037,0.000486,90.8968,-41.5934,-45.0178,86.6112,90.8968,-0.0016,-3.1352,-11.1677,-1.0045,0.0000,-0.008743,0.006611,-0.013956,-0.0005,0.0018,0.0007,180.0000,0.0000,0.0000
175,1.7500,-0.0540,-0.0274,0.0573,0.0834,0.0000,0.0000,0.0000,20.0000,1.7886,1.8763,15.7651,29.1826,0.1047,0.000424,90.8968,-41.5934,-45.0178,86.6112,90.8968,-0.0016,-3.1352,-11.1677,-1.0045,0.0000,-0.010147,0.006356,-0.013287,-0.0001,0.0016,0.0006,180.0000,0.0000,0.0000
176,1.7600,-0.0606,-0.0124,0.0625,0.0880,0.0000,0.0000,0.0000,20.0000,1.8326,1.8727,21.8618,28.6122,0.1057,0.000348,90.8968,-41.5934,-45.0178,86.6112,90.8968,-0.0016,-3.1352,-11.1677,-1.0045,0.0000,-0.011568,0.004699,-0.013415,-0.0011,0.0007,0.0006,180.0000,0.0000,0.0000
177,1.7700,-0.0606,0.0015,0.0652,0.0891,0.0000,0.0000,0.0000,20.0000,1.8606,1.8713,24.6268,28.3169,0.1068,0.000445,90.8968,-41.5934,-45.0178,86.6112,90.8968,-0.0016,-3.1352,-11.1677,-1.0045,0.0000,-0.012330,0.002379,-0.013730,-0.0009,0.0008,0.0007,180.0000,0.0000,0.0000
178,1.7800,-0.0532,0.0102,0.0625,0.0827,0.0000,0.0000,0.0000,20.0000,1.8127,1.8694,21.8142,28.0366,0.1079,0.000525,90.8968,-41.5934,-45.0178,86.6112,90.8968,-0.0016,-3.1352,-11.1677,-1.0045,0.0000,-0.011980,0.000229,-0.013602,-0.0013,0.0013,-0.0001,180.0000,0.0000,0.0000
179,1.7900,-0.0491,0.0223,0.0604,0.0810,0.0000,0.0000,0.0000,20.0000,1.7621,1.8648,25.0282,27.7827,0.1091,0.000518,90.8968,-41.5934,-45.0178,86.6112,90.8968,-0.0016,-3.1352,-11.1677,-1.0045,0.0000,-0.011354,-0.002175,-0.013299,-0.0004,0.0014,-0.0017,180.0000,0.0000,0.0000
180,1.8000,-0.0490,0.0378,0.0565,0.0838,0.0000,0.0000,0.0000,20.0000,1.7540,1.8590,29.5611,27.7558,0.1102,0.000490,90.8968,-41.5934,-45.0178,86.6112,90.8968,-0.0016,-3.1352,-11.1677,-1.0045,0.0000,-0.010978,-0.005048,-0.012714,-0.0005,0.0016,-0.0030,180.0000,0.0000,0.0000
181,1.8100,-0.0452,0.0512,0.0524,0.0861,0.0000,0.0000,0.0000,20.0000,1.7713,1.8537,30.7728,27.8885,0.1113,0.000434,90.8968,-41.5934,-45.0178,86.6112,90.8968,-0.0016,-3.1352,-11.1677,-1.0045,0.0000,-0.010364,-0.007966,-0.011954,0.0011,0.0010,-0.0029,180.0000,0.0000,0.0000
182,1.8200,-0.0375,0.0688,0.0532,0.0947,0.0000,0.0000,0.0000,20.0000,1.8650,1.8517,35.6260,28.1806,0.1124,0.000376,90.8968,-41.5934,-45.0178,86.6112,90.8968,-0.0016,-3.1352,-11.1677,-1.0045,0.0000,-0.009236,-0.011326,-0.011587,0.0020,0.0001,-0.0015,180.0000,0.0000,0.0000
183,1.8300,-0.0275,0.0896,0.0595,0.1110,0.0000,0.0000,0.0000,20.0000,2.0828,1.8584,42.6381,28.7830,0.1136,0.000497,90.8968,-41.5934,-45.0178,86.6112,90.8968,-0.0016,-3.1352,-11.1677,-1.0045,0.0000,-0.007594,-0.015239,-0.011996,0.0022,-0.0003,-0.0015,180.0000,0.0000,0.0000
184,1.8400,-0.0108,0.0973,0.0700,0.1203,0.0000,0.0000,0.0000,20.0000,2.3011,1.8768,40.8710,29.4966,0.1148,0.000532,90.8968,-41.5934,-45.0178,86.6112,90.8968,-0.0016,-3.1352,-11.1677,-1.0045,0.0000,-0.005000,-0.018138,-0.013249,0.0006,-0.0007,-0.0004,180.0000,0.0000,0.0000
185,1.8500,0.0023,0.0892,0.0803,0.1201,0.0000,0.0000,0.0000,20.0000,2.4197,1.9034,33.1960,29.9112,0.1160,0.000492,90.8968,-41.5934,-45.0178,86.6112,90.8968,-0.0016,-3.1352,-11.1677,-1.0045,0.0000,-0.002249,-0.018898,-0.014944,0.0016,-0.0005,0.0000,180.0000,0.0000,0.0000
186,1.8600,0.0064,0.0799,0.0911,0.1213,0.0000,0.0000,0.0000,20.0000,2.4966,1.9339,28.2438,29.9557,0.1173,0.000396,90.8968,-41.5934,-45.0178,86.6112,90.8968,-0.0016,-3.1352,-11.1677,-1.0045,0.0000,-0.000316,-0.018348,-0.016929,0.0008,-0.0002,-0.0018,180.0000,0.0000,0.0000
187,1.8700,0.0156,0.0697,0.1005,0.1233,0.0000,0.0000,0.0000,20.0000,2.5491,1.9663,31.3089,29.9458,0.1186,0.000434,90.8968,-41.5934,-45.0178,86.6112,90.8968,-0.0016,-3.1352,-11.1677,-1.0045,0.0000,0.001672,-0.016989,-0.018930,0.0004,-0.0006,-0.0022,180.0000,0.0000,0.0000
188,1.8800,0.0268,0.0561,0.1043,0.1214,0.0000,0.0000,0.0000,20.0000,2.5506,1.9984,34.1386,30.0986,0.1200,0.000436,90.8968,-41.5934,-45.0178,86.6112,90.8968,-0.0016,-3.1352,-11.1677,-1.0045,0.0000,0.003895,-0.014839,-0.020376,0.0002,0.0004,-0.0022,180.0000,0.0000,0.0000
189,1.8900,0.0266,0.0489,0.1006,0.1150,0.0000,0.0000,0.0000,20.0000,2.4980,2.0273,23.0997,30.0172,0.1213,0.000427,90.8968,-41.5934,-45.0178,86.6112,90.8968,-0.0016,-3.1352,-11.1677,-1.0045,0.0000,0.005097,-0.012906,-0.020771,0.0022,0.0010,-0.0025,180.0000,0.0000,0.0000
190,1.9000,0.0138,0.0508,0.0938,0.1076,0.0000,0.0000,0.0000,20.0000,2.3973,2.0505,12.1147,29.3346,0.1225,0.000464,90.8968,-41.5934,-45.0178,86.6112,90.8968,-0.0016,-3.1352,-11.1677,-1.0045,0.0000,0.004467,-0.012003,-0.020265,0.0012,0.0014,-0.0041,180.0000,0.0000,0.0000
191,1.9100,-0.0023,0.0526,0.0903,0.1045,0.0000,0.0000,0.0000,20.0000,2.2938,2.0667,21.1038,28.6346,0.1238,0.000463,90.8968,-41.5934,-45.0178,86.6112,90.8968,-0.0016,-3.1352,-11.1677,-1.0045,0.0000,0.002496,-0.011658,-0.019596,-0.0002,0.0002,-0.0033,180.0000,0.0000,0.0000
192,1.9200,-0.0178,0.0555,0.0914,0.1084,0.0000,0.0000,0.0000,20.0000,2.3120,2.0797,29.3177,28.4462,0.1253,0.000402,90.9258,-41.6180,-44.9604,86.5784,90.9258,-0.0003,-3.1725,-11.1770,-1.0040,0.0000,-0.000418,-0.011888,-0.019825,-0.0015,-0.0000,-0.0030,180.0000,0.0000,0.0000
193,1.9300,-0.0440,0.0621,0.0960,0.1225,0.0000,0.0000,0.0000,20.0000,2.4426,2.0960,43.2877,28.8784,0.1269,0.000385,90.9258,-41.6180,-44.9604,86.5784,90.9258,-0.0003,-3.1725,-11.1770,-1.0040,0.0000,-0.004644,-0.012650,-0.020373,-0.0012,-0.0003,-0.0046,180.0000,0.0000,0.0000
194,1.9400,-0.0707,0.0605,0.1021,0.1381,0.0000,0.0000,0.0000,20.0000,2.6651,2.1212,50.8443,29.8789,0.1287,0.000356,90.9258,-41.6180,-44.9604,86.5784,90.9258,-0.0003,-3.1725,-11.1770,-1.0040,0.0000,-0.009648,-0.012883,-0.021241,-0.0035,-0.0012,-0.0047,180.0000,0.0000,0.0000
195,1.9500,-0.0791,0.0517,0.1022,0.1392,0.0000,0.0000,0.0000,20.0000,2.8142,2.1552,36.9405,30.6497,0.1307,0.000349,90.9258,-41.6180,-44.9604,86.5784,90.9258,-0.0003,-3.1725,-11.1770,-1.0040,0.0000,-0.013231,-0.012104,-0.021689,-0.0033,-0.0013,-0.0039,180.0000,0.0000,0.0000
196,1.9600,-0.0857,0.0444,0.0940,0.1347,0.0000,0.0000,0.0000,20.0000,2.8539,2.1926,29.3544,30.7871,0.1327,0.000553,90.9258,-41.6180,-44.9604,86.5784,90.9258,-0.0003,-3.1725,-11.1770,-1.0040,0.0000,-0.015848,-0.010927,-0.021069,-0.0024,0.0011,-0.0051,180.0000,0.0000,0.0000
197,1.9700,-0.1060,0.0404,0.0820,0.1400,0.0000,0.0000,0.0000,20.0000,2.9141,2.2306,39.3777,30.9840,0.1348,0.000625,90.9258,-41.6180,-44.9604,86.5784,90.9258,-0.0003,-3.1725,-11.1770,-1.0040,0.0000,-0.019293,-0.009855,-0.019490,-0.0006,0.0024,-0.0056,180.0000,0.0000,0.0000
198,1.9800,-0.1269,0.0396,0.0642,0.1477,0.0000,0.0000,0.0000,20.0000,3.0112,2.2709,48.3639,31.6929,0.1368,0.000488,90.9258,-41.6180,-44.9604,86.5784,90.9258,-0.0003,-3.1725,-11.1770,-1.0040,0.0000,-0.023251,-0.009161,-0.016799,-0.0006,0.0026,-0.0048,180.0000,0.0000,0.0000
199,1.9900,-0.1389,0.0380,0.0451,0.1509,0.0000,0.0000,0.0000,20.0000,3.0979,2.3140,48.2312,32.6063,0.1387,0.000388,90.9258,-41.6180,-44.9604,86.5784,90.9258,-0.0003,-3.1725,-11.1770,-1.0040,0.0000,-0.026592,-0.008593,-0.013368,-0.0007,0.0030,-0.0033,180.0000,0.0000,0.0000
200,2.0000,-0.1437,0.0377,0.0347,0.1526,0.0000,0.0000,0.0000,20.0000,3.1767,2.3593,37.5700,33.1725,0.1405,0.000376,90.9258,-41.6180,-44.9604,86.5784,90.9258,-0.0003,-3.1725,-11.1770,-1.0040,0.0000,-0.028865,-0.008237,-0.010397,-0.0014,0.0015,-0.0027,180.0000,0.0000,0.0000
201,2.0100,-0.1479,0.0406,0.0259,0.1555,0.0000,0.0000,0.0000,20.0000,3.2555,2.4064,30.0969,33.2089,0.1422,0.000386,90.9258,-41.6180,-44.9604,86.5784,90.9258,-0.0003,-3.1725,-11.1770,-1.0040,0.0000,-0.030480,-0.008310,-0.007859,-0.0006,0.0014,-0.0015,180.0000,0.0000,0.0000
202,2.0200,-0.1507,0.0379,0.0141,0.1560,0.0000,0.0000,0.0000,20.0000,3.3028,2.4544,28.3446,32.9895,0.1438,0.000455,90.9258,-41.6180,-44.9604,86.5784,90.9258,-0.0003,-3.1725,-11.1770,-1.0040,0.0000,-0.031592,-0.008068,-0.005263,-0.0013,0.0013,-0.0019,180.0000,0.0000,0.0000
203,2.0300,-0.1434,0.0286,0.0060,0.1464,0.0000,0.0000,0.0000,20.0000,3.2326,2.4992,25.1268,32.6455,0.1453,0.000671,90.9258,-41.6180,-44.9604,86.5784,90.9258,-0.0003,-3.1725,-11.1770,-1.0040,0.0000,-0.031419,-0.006990,-0.003000,-0.0013,0.0008,-0.0016,180.0000,0.0000,0.0000
204,2.0400,-0.1262,0.0215,0.0041,0.1281,0.0000,0.0000,0.0000,20.0000,3.0117,2.5334,27.1406,32.2873,0.1466,0.000901,90.9258,-41.6180,-44.9604,86.5784,90.9258,-0.0003,-3.1725,-11.1770,-1.0040,0.0000,-0.029538,-0.005667,-0.001558,-0.0008,-0.0001,-0.0025,180.0000,0.0000,0.0000
205,2.0500,-0.1029,0.0220,0.0102,0.1058,0.0000,0.0000,0.0000,20.0000,2.6616,2.5501,35.0117,32.2207,0.1477,0.000838,90.9258,-41.6180,-44.9604,86.5784,90.9258,-0.0003,-3.1725,-11.1770,-1.0040,0.0000,-0.026111,-0.004977,-0.001367,0.0002,0.0007,-0.0036,180.0000,0.0000,0.0000
206,2.0600,-0.0726,0.0258,0.0224,0.0803,0.0000,0.0000,0.0000,20.0000,2.1849,2.5431,51.0231,32.8146,0.1488,0.000798,90.9258,-41.6180,-44.9604,86.5784,90.9258,-0.0003,-3.1725,-11.1770,-1.0040,0.0000,-0.021132,-0.004965,-0.002481,-0.0001,-0.0007,-0.0032,180.0000,0.0000,0.0000
207,2.0700,-0.0404,0.0328,0.0399,0.0656,0.0000,0.0000,0.0000,20.0000,1.6848,2.5097,64.9452,34.1991,0.1498,0.000791,90.9258,-41.6180,-44.9604,86.5784,90.9258,-0.0003,-3.1725,-11.1770,-1.0040,0.0000,-0.015119,-0.005643,-0.004840,0.0008,-0.0019,-0.0022,180.0000,0.0000,0.0000
208,2.0800,-0.0157,0.0466,0.0638,0.0805,0.0000,0.0000,0.0000,20.0000,1.4612,2.4581,71.1082,36.0599,0.1508,0.000735,90.9258,-41.6180,-44.9604,86.5784,90.9258,-0.0003,-3.1725,-11.1770,-1.0040,0.0000,-0.009290,-0.007389,-0.008521,0.0013,-0.0020,-0.0021,180.0000,0.0000,0.0000
209,2.0900,0.0001,0.0687,0.0853,0.1095,0.0000,0.0000,0.0000,20.0000,1.7094,2.4101,71.1226,37.9882,0.1520,0.000723,90.9258,-41.6180,-44.9604,86.5784,90.9258,-0.0003,-3.1725,-11.1770,-1.0040,0.0000,-0.004470,-0.010547,-0.012689,0.0019,-0.0014,-0.0024,180.0000,0.0000,0.0000
210,2.1000,0.0036,0.0930,0.0956,0.1334,0.0000,0.0000,0.0000,20.0000,2.1774,2.3845,61.0812,39.5347,0.1534,0.000874,90.9258,-41.6180,-44.9604,86.5784,90.9258,-0.0003,-3.1725,-11.1770,-1.0040,0.0000,-0.001451,-0.014701,-0.015996,0.0023,-0.0012,-0.0020,180.0000,0.0000,0.0000
211,2.1100,-0.0011,0.1061,0.1019,0.1471,0.0000,0.0000,0.0000,20.0000,2.5959,2.3846,44.9558,40.2764,0.1550,0.000754,90.9258,-41.6180,-44.9604,86.5784,90.9258,-0.0003,-3.1725,-11.1770,-1.0040,0.0000,-0.000241,-0.018285,-0.018425,0.0017,-0.0016,-0.0034,180.0000,0.0000,0.0000
212,2.1200,-0.0093,0.1005,0.1069,0.1471,0.0000,0.0000,0.0000,20.0000,2.8873,2.4042,30.0594,40.1241,0.1568,0.000478,90.9829,-41.6659,-44.8896,86.5556,90.9829,0.0138,-3.1372,-11.1777,-1.0050,-0.0000,-0.000939,-0.020045,-0.020760,0.0013,-0.0018,-0.0033,180.0000,0.0000,0.0000
213,2.1300,-0.0185,0.0722,0.1073,0.1307,0.0000,0.0000,0.0000,20.0000,2.8642,2.4302,26.3985,39.4698,0.1588,0.000528,90.9829,-41.6659,-44.8896,86.5556,90.9829,0.0138,-3.1372,-11.1777,-1.0050,-0.0000,-0.002241,-0.018144,-0.022048,0.0016,-0.0026,-0.0019,180.0000,0.0000,0.0000
214,2.1400,-0.0194,0.0194,0.1088,0.1122,0.0000,0.0000,0.0000,20.0000,2.5900,2.4465,64.6463,39.8027,0.1607,0.000547,90.9829,-41.6659,-44.8896,86.5556,90.9829,0.0138,-3.1372,-11.1777,-1.0050,-0.0000,-0.003045,-0.011782,-0.022863,0.0030,-0.0032,0.0013,180.0000,0.0000,0.0000
215,2.1500,-0.0090,-0.0463,0.1144,0.1237,0.0000,0.0000,0.0000,20.0000,2.4013,2.4492,101.7388,42.1895,0.1624,0.000547,90.9829,-41.6659,-44.8896,86.5556,90.9829,0.0138,-3.1372,-11.1777,-1.0050,-0.0000,-0.002441,-0.001672,-0.023830,0.0054,-0.0036,0.0035,180.0000,0.0000,0.0000
216,2.1600,0.0045,-0.1136,0.1200,0.1653,0.0000,0.0000,0.0000,20.0000,2.7073,2.4550,124.8343,46.1004,0.1639,0.000454,90.9829,-41.6659,-44.8896,86.5556,90.9829,0.0138,-3.1372,-11.1777,-1.0050,-0.0000,-0.000758,0.010653,-0.024877,0.0083,-0.0028,0.0066,180.0000,0.0000,0.0000
217,2.1700,0.0173,-0.1747,0.1226,0.2142,0.0000,0.0000,0.0000,20.0000,3.4868,2.4903,131.1830,50.6060,0.1650,0.000482,90.9829,-41.6659,-44.8896,86.5556,90.9829,0.0138,-3.1372,-11.1777,-1.0050,-0.0000,0.001455,0.023559,-0.025664,0.0110,-0.0026,0.0076,180.0000,0.0000,0.0000
218,2.1800,0.0193,-0.2220,0.1243,0.2552,0.0000,0.0000,0.0000,20.0000,4.4124,2.5706,119.1526,54.7075,0.1660,0.000431,90.9829,-41.6659,-44.8896,86.5556,90.9829,0.0138,-3.1372,-11.1777,-1.0050,-0.0000,0.002877,0.035377,-0.026214,0.0129,-0.0027,0.0080,180.0000,0.0000,0.0000
219,2.1900,-0.0127,-0.2566,0.1247,0.2856,0.0000,0.0000,0.0000,20.0000,5.2488,2.6949,102.1671,57.7854,0.1669,0.000548,90.9829,-41.6659,-44.8896,86.5556,90.9829,0.0138,-3.1372,-11.1777,-1.0050,-0.0000,0.000459,0.045299,-0.026511,0.0122,-0.0053,0.0064,180.0000,0.0000,0.0000
220,2.2000,-0.0673,-0.2871,0.1275,0.3213,0.0000,0.0000,0.0000,20.0000,6.0434,2.8572,108.4921,60.4007,0.1679,0.000691,90.9829,-41.6659,-44.8896,86.5556,90.9829,0.0138,-3.1372,-11.1777,-1.0050,-0.0000,-0.006342,0.053742,-0.026903,0.0104,-0.0086,0.0061,180.0000,0.0000,0.0000
221,2.2100,-0.1249,-0.3184,0.1385,0.3690,0.0000,0.0000,0.0000,20.0000,6.9411,3.0572,122.9086,63.4426,0.1694,0.000723,90.9829,-41.6659,-44.8896,86.5556,90.9829,0.0138,-3.1372,-11.1777,-1.0050,-0.0000,-0.015849,0.061430,-0.028162,0.0074,-0.0133,0.0053,180.0000,0.0000,0.0000
222,2.2200,-0.1899,-0.3477,0.1524,0.4245,0.0000,0.0000,0.0000,20.0000,7.9762,3.2993,138.3236,67.1377,0.1715,0.000713,90.9829,-41.6659,-44.8896,86.5556,90.9829,0.0138,-3.1372,-11.1777,-1.0050,-0.0000,-0.027572,0.068487,-0.030190,0.0055,-0.0160,0.0044,180.0000,0.0000,0.0000
223,2.2300,-0.2533,-0.3759,0.1607,0.4810,0.0000,0.0000,0.0000,20.0000,9.1062,3.5876,144.8996,71.2343,0.1742,0.000655,90.9829,-41.6659,-44.8896,86.5556,90.9829,0.0138,-3.1372,-11.1777,-1.0050,-0.0000,-0.040339,0.075072,-0.032081,0.0048,-0.0187,0.0039,180.0000,0.0000,0.0000
224,2.2400,-0.3107,-0.4016,0.1633,0.5333,0.0000,0.0000,0.0000,20.0000,10.2500,3.9227,141.3385,75.1886,0.1777,0.000647,90.9829,-41.6659,-44.8896,86.5556,90.9829,0.0138,-3.1372,-11.1777,-1.0050,-0.0000,-0.053050,0.081126,-0.033323,0.0043,-0.0205,0.0024,180.0000,0.0000,0.0000
225,2.2500,-0.3700,-0.4222,0.1592,0.5835,0.0000,0.0000,0.0000,20.0000,11.3701,4.3015,138.8126,78.7579,0.1818,0.000660,90.9829,-41.6659,-44.8896,86.5556,90.9829,0.0138,-3.1372,-11.1777,-1.0050,-0.0000,-0.065898,0.086378,-0.033531,0.0046,-0.0220,0.0005,180.0000,0.0000,0.0000
226,2.2600,-0.4260,-0.4344,0.1410,0.6246,0.0000,0.0000,0.0000,20.0000,12.3798,4.7181,133.0196,81.9020,0.1866,0.000499,90.9829,-41.6659,-44.8896,86.5556,90.9829,0.0138,-3.1372,-11.1777,-1.0050,-0.0000,-0.078478,0.090324,-0.031763,0.0054,-0.0212,-0.0007,180.0000,0.0000,0.0000
227,2.2700,-0.4680,-0.4405,0.1105,0.6521,0.0000,0.0000,0.0000,20.0000,13.1937,5.1620,120.1814,84.3608,0.1919,0.000528,90.9829,-41.6659,-44.8896,86.5556,90.9829,0.0138,-3.1372,-11.1777,-1.0050,-0.0000,-0.089473,0.092932,-0.027671,0.0050,-0.0215,-0.0008,180.0000,0.0000,0.0000
228,2.2800,-0.4928,-0.4377,0.0788,0.6638,0.0000,0.0000,0.0000,20.0000,13.7425,5.6189,100.5948,85.7925,0.1975,0.000471,90.9829,-41.6659,-44.8896,86.5556,90.9829,0.0138,-3.1372,-11.1777,-1.0050,-0.0000,-0.097851,0.093907,-0.022190,0.0040,-0.0203,0.0003,180.0000,0.0000,0.0000
229,2.2900,-0.4948,-0.4195,0.0501,0.6506,0.0000,0.0000,0.0000,20.0000,13.8970,6.0700,76.8273,85.9531,0.2033,0.000549,90.9829,-41.6659,-44.8896,86.5556,90.9829,0.0138,-3.1372,-11.1777,-1.0050,-0.0000,-0.102484,0.092444,-0.016238,0.0030,-0.0176,0.0033,180.0000,0.0000,0.0000
230,2.3000,-0.4690,-0.3863,0.0266,0.6082,0.0000,0.0000,0.0000,20.0000,13.5406,6.4907,71.3101,85.2993,0.2090,0.000537,90.9829,-41.6659,-44.8896,86.5556,90.9829,0.0138,-3.1372,-11.1777,-1.0050,-0.0000,-0.102259,0.088127,-0.010567,0.0013,-0.0129,0.0057,180.0000,0.0000,0.0000
231,2.3100,-0.4100,-0.3432,0.0155,0.5349,0.0000,0.0000,0.0000,20.0000,12.5955,6.8525,102.0525,85.3754,0.2145,0.000636,90.9829,-41.6659,-44.8896,86.5556,90.9829,0.0138,-3.1372,-11.1777,-1.0050,-0.0000,-0.096035,0.081253,-0.006305,0.0010,-0.0070,0.0079,180.0000,0.0000,0.0000
232,2.3200,-0.3192,-0.2976,0.0121,0.4366,0.0000,0.0000,0.0000,20.0000,11.1457,7.1286,146.8804,87.5257,0.2194,0.000672,91.0354,-41.6158,-44.8583,86.4741,91.0354,0.0038,-3.1302,-11.1886,-1.0067,-0.0000,-0.083833,0.073322,-0.004320,0.0033,-0.0021,0.0102,180.0000,0.0000,0.0000
233,2.3300,-0.2172,-0.2639,0.0072,0.3419,0.0000,0.0000,0.0000,20.0000,9.3478,7.3001,189.1994,91.9546,0.2235,0.000497,91.0354,-41.6158,-44.8583,86.4741,91.0354,0.0038,-3.1302,-11.1886,-1.0067,-0.0000,-0.066717,0.065419,-0.002727,0.0070,0.0022,0.0098,180.0000,0.0000,0.0000
234,2.3400,-0.1219,-0.2543,-0.0012,0.2820,0.0000,0.0000,0.0000,20.0000,7.6560,7.3662,199.6019,97.5900,0.2265,0.000467,91.0354,-41.6158,-44.8583,86.4741,91.0354,0.0038,-3.1302,-11.1886,-1.0067,-0.0000,-0.047596,0.059958,-0.000998,0.0113,0.0056,0.0099,180.0000,0.0000,0.0000
235,2.3500,-0.0360,-0.2643,-0.0147,0.2671,0.0000,0.0000,0.0000,20.0000,6.4400,7.3487,195.1844,103.0799,0.2283,0.000501,91.0354,-41.6158,-44.8583,86.4741,91.0354,0.0038,-3.1302,-11.1886,-1.0067,-0.0000,-0.028333,0.057817,0.001312,0.0149,0.0065,0.0091,180.0000,0.0000,0.0000
236,2.3600,0.0252,-0.2968,-0.0357,0.3000,0.0000,0.0000,0.0000,20.0000,6.1050,7.2895,172.6417,107.5264,0.2289,0.000472,91.0354,-41.6158,-44.8583,86.4741,91.0354,0.0038,-3.1302,-11.1886,-1.0067,-0.0000,-0.011514,0.059771,0.004680,0.0180,0.0060,0.0079,180.0000,0.0000,0.0000
237,2.3700,0.0486,-0.3427,-0.0572,0.3509,0.0000,0.0000,0.0000,20.0000,6.5900,7.2377,135.2588,110.0801,0.2287,0.000483,91.0354,-41.6158,-44.8583,86.4741,91.0354,0.0038,-3.1302,-11.1886,-1.0067,-0.0000,0.000151,0.065325,0.008685,0.0189,0.0080,0.0060,180.0000,0.0000,0.0000
238,2.3800,0.0540,-0.3792,-0.0668,0.3888,0.0000,0.0000,0.0000,20.0000,7.3232,7.2222,101.0719,110.5248,0.2279,0.000447,91.0354,-41.6158,-44.8583,86.4741,91.0354,0.0038,-3.1302,-11.1886,-1.0067,-0.0000,0.007132,0.071915,0.011844,0.0202,0.0085,0.0043,180.0000,0.0000,0.0000
239,2.3900,0.0523,-0.4007,-0.0601,0.4085,0.0000,0.0000,0.0000,20.0000,7.9364,7.2446,68.1935,109.1006,0.2270,0.000367,91.0354,-41.6158,-44.8583,86.4741,91.0354,0.0038,-3.1302,-11.1886,-1.0067,-0.0000,0.010811,0.077559,0.012901,0.0211,0.0099,0.0013,180.0000,0.0000,0.0000
240,2.4000,0.0399,-0.4194,-0.0434,0.4235,0.0000,0.0000,0.0000,20.0000,8.4035,7.2955,50.2272,106.3562,0.2264,0.000452,91.0354,-41.6158,-44.8583,86.4741,91.0354,0.0038,-3.1302,-11.1886,-1.0067,-0.0000,0.011582,0.082395,0.011784,0.0222,0.0124,0.0007,180.0000,0.0000,0.0000
241,2.4100,0.0218,-0.4396,-0.0169,0.4405,0.0000,0.0000,0.0000,20.0000,8.7931,7.3672,57.7202,103.4747,0.2262,0.000446,91.0354,-41.6158,-44.8583,86.4741,91.0354,0.0038,-3.1302,-11.1886,-1.0067,-0.0000,0.010180,0.086926,0.008495,0.0233,0.0137,0.0004,180.0000,0.0000,0.0000
242,2.4200,0.0150,-0.4594,0.0218,0.4602,0.0000,0.0000,0.0000,20.0000,9.1693,7.4560,73.0301,101.3790,0.2268,0.000453,91.0354,-41.6158,-44.8583,86.4741,91.0354,0.0038,-3.1302,-11.1886,-1.0067,-0.0000,0.008703,0.091237,0.002788,0.0257,0.0149,0.0004,180.0000,0.0000,0.0000
243,2.4300,0.0356,-0.4865,0.0635,0.4920,0.0000,0.0000,0.0000,20.0000,9.6766,7.5642,89.1027,100.2616,0.2282,0.000450,91.0354,-41.6158,-44.8583,86.4741,91.0354,0.0038,-3.1302,-11.1886,-1.0067,-0.0000,0.009926,0.096148,-0.004545,0.0275,0.0197,0.0008,180.0000,0.0000,0.0000
244,2.4400,0.0939,-0.5272,0.1039,0.5454,0.0000,0.0000,0.0000,20.0000,10.4800,7.7025,122.7723,100.5738,0.2300,0.000478,91.0354,-41.6158,-44.8583,86.4741,91.0354,0.0038,-3.1302,-11.1886,-1.0067,-0.0000,0.016409,0.102734,-0.012628,0.0294,0.0278,0.0006,180.0000,0.0000,0.0000
245,2.4500,0.2007,-0.5669,0.1542,0.6208,0.0000,0.0000,0.0000,20.0000,11.6442,7.8873,186.3404,103.5433,0.2322,0.000505,91.0354,-41.6158,-44.8583,86.4741,91.0354,0.0038,-3.1302,-11.1886,-1.0067,-0.0000,0.030646,0.110142,-0.022096,0.0311,0.0401,0.0003,180.0000,0.0000,0.0000
246,2.4600,0.3548,-0.5823,0.2160,0.7152,0.0000,0.0000,0.0000,20.0000,13.1810,8.1362,264.1173,110.2370,0.2343,0.000424,91.0354,-41.6158,-44.8583,86.4741,91.0354,0.0038,-3.1302,-11.1886,-1.0067,-0.0000,0.053863,0.115554,-0.033465,0.0308,0.0572,-0.0021,180.0000,0.0000,0.0000
247,2.4700,0.5493,-0.5694,0.2844,0.8407,0.0000,0.0000,0.0000,20.0000,15.2519,8.4707,347.5371,120.9960,0.2360,0.000480,91.0354,-41.6158,-44.8583,86.4741,91.0354,0.0038,-3.1302,-11.1886,-1.0067,-0.0000,0.086036,0.117027,-0.046524,0.0274,0.0768,-0.0036,180.0000,0.0000,0.0000
248,2.4800,0.7733,-0.5368,0.3672,1.0104,0.0000,0.0000,0.0000,20.0000,18.1106,8.9223,429.6497,135.7160,0.2373,0.000328,91.0354,-41.6158,-44.8583,86.4741,91.0354,0.0038,-3.1302,-11.1886,-1.0067,-0.0000,0.126055,0.114344,-0.061927,0.0229,0.0980,-0.0031,180.0000,0.0000,0.0000
249,2.4900,1.0210,-0.4949,0.4678,1.2273,0.0000,0.0000,0.0000,20.0000,21.9190,9.5325,505.0385,153.9582,0.2382,0.000485,91.0354,-41.6158,-44.8583,86.4741,91.0354,0.0038,-3.1302,-11.1886,-1.0067,-0.0000,0.172695,0.108442,-0.080381,0.0186,0.1185,-0.0024,180.0000,0.0000,0.0000
250,2.5000,1.3192,-0.4494,0.5883,1.5127,0.0000,0.0000,0.0000,20.0000,26.9339,10.3518,600.4334,175.8942,0.2393,0.000476,91.0354,-41.6158,-44.8583,86.4741,91.0354,0.0038,-3.1302,-11.1886,-1.0067,-0.0000,0.227945,0.100415,-0.102477,0.0121,0.1453,-0.0029,180.0000,0.0000,0.0000
251,2.5100,1.6604,-0.4029,0.7238,1.8556,0.0000,0.0000,0.0000,20.0000,33.1741,11.4356,697.3141,201.9118,0.2411,0.000470,91.0354,-41.6158,-44.8583,86.4741,91.0354,0.0038,-3.1302,-11.1886,-1.0067,-0.0000,0.292157,0.091129,-0.128031,0.0073,0.1611,-0.0003,180.0000,0.0000,0.0000
252,2.5200,2.0101,-0.3543,0.8667,2.2175,0.0000,0.0000,0.0000,20.0000,40.2242,12.8253,748.5862,230.5731,0.2452,0.000487,91.1422,-41.3374,-44.9878,86.3252,91.1422,-0.0246,-6.2444,-15.5754,-1.6336,-0.1502,0.360962,0.083640,-0.156555,0.0009,0.1735,0.0009,180.0000,0.0000,0.0000
253,2.5300,2.3524,-0.2849,1.0135,2.5772,0.0000,0.0000,0.0000,20.0000,47.6600,14.5369,784.3563,260.0518,0.2533,0.000481,91.1422,-41.3374,-44.9878,86.3252,91.1422,-0.0246,-6.2444,-15.5754,-1.6336,-0.1502,0.432500,0.072388,-0.186685,-0.0099,0.1814,0.0023,180.0000,0.0000,0.0000
254,2.5400,2.6775,-0.1846,1.1513,2.9203,0.0000,0.0000,0.0000,20.0000,55.1199,16.5642,789.9664,289.0471,0.2673,0.000477,91.1422,-41.3374,-44.9878,86.3252,91.1422,-0.0246,-6.2444,-15.5754,-1.6336,-0.1502,0.503690,0.056002,-0.216751,-0.0212,0.1890,0.0044,180.0000,0.0000,0.0000
255,2.5500,2.9773,-0.0681,1.2753,3.2397,0.0000,0.0000,0.0000,20.0000,62.3406,18.8836,769.4058,316.0361,0.2893,0.000502,91.1422,-41.3374,-44.9878,86.3252,91.1422,-0.0246,-6.2444,-15.5754,-1.6336,-0.1502,0.572020,0.035177,-0.245338,-0.0320,0.1968,0.0066,180.0000,0.0000,0.0000
256,2.5600,3.2390,0.0402,1.3915,3.5255,0.0000,0.0000,0.0000,20.0000,69.0859,21.4596,719.1183,339.5920,0.3218,0.000483,91.1422,-41.3374,-44.9878,86.3252,91.1422,-0.0246,-6.2444,-15.5754,-1.6336,-0.1502,0.634818,0.012761,-0.272269,-0.0404,0.2042,0.0061,180.0000,0.0000,0.0000
257,2.5700,3.4603,0.1294,1.5059,3.7760,0.0000,0.0000,0.0000,20.0000,75.2030,24.2477,648.7282,358.5330,0.3674,0.000410,91.1422,-41.3374,-44.9878,86.3252,91.1422,-0.0246,-6.2444,-15.5754,-1.6336,-0.1502,0.690393,-0.008575,-0.298050,-0.0439,0.2145,0.0047,180.0000,0.0000,0.0000
258,2.5800,3.6615,0.1909,1.6261,4.0109,0.0000,0.0000,0.0000,20.0000,80.8015,27.2046,585.4197,372.7548,0.4286,0.000409,91.1422,-41.3374,-44.9878,86.3252,91.1422,-0.0246,-6.2444,-15.5754,-1.6336,-0.1502,0.739854,-0.026498,-0.323731,-0.0399,0.2280,0.0027,180.0000,0.0000,0.0000
259,2.5900,3.8474,0.2068,1.7713,4.2406,0.0000,0.0000,0.0000,20.0000,86.0423,30.2970,537.9618,383.1478,0.5084,0.000418,91.1422,-41.3374,-44.9878,86.3252,91.1422,-0.0246,-6.2444,-15.5754,-1.6336,-0.1502,0.784303,-0.037943,-0.351790,-0.0333,0.2419,0.0004,180.0000,0.0000,0.0000
260,2.6000,4.0055,0.1739,1.9580,4.4618,0.0000,0.0000,0.0000,20.0000,90.9740,33.4991,513.4436,390.9895,0.6102,0.000494,91.1422,-41.3374,-44.9878,86.3252,91.1422,-0.0246,-6.2444,-15.5754,-1.6336,-0.1502,0.823114,-0.040908,-0.385274,-0.0247,0.2561,-0.0020,180.0000,0.0000,0.0000
261,2.6100,4.1455,0.1072,2.1839,4.6868,0.0000,0.0000,0.0000,20.0000,95.7463,36.7920,528.7309,398.1459,0.7375,0.000474,91.1422,-41.3374,-44.9878,86.3252,91.1422,-0.0246,-6.2444,-15.5754,-1.6336,-0.1502,0.856923,-0.035790,-0.425601,-0.0117,0.2698,-0.0034,180.0000,0.0000,0.0000
262,2.6200,4.2733,0.0198,2.4377,4.9198,0.0000,0.0000,0.0000,20.0000,100.4972,40.1656,566.8447,406.3774,0.8938,0.000456,91.1422,-41.3374,-44.9878,86.3252,91.1422,-0.0246,-6.2444,-15.5754,-1.6336,-0.1502,0.886682,-0.024149,-0.472421,-0.0013,0.2812,-0.0053,180.0000,0.0000,0.0000
263,2.6300,4.3862,-0.0798,2.7067,5.1548,0.0000,0.0000,0.0000,20.0000,105.2536,43.6151,602.6533,416.1892,1.0825,0.000468,91.1422,-41.3374,-44.9878,86.3252,91.1422,-0.0246,-6.2444,-15.5754,-1.6336,-0.1502,0.912646,-0.007709,-0.524262,0.0065,0.2911,-0.0060,180.0000,0.0000,0.0000
264,2.6400,4.4948,-0.1684,2.9797,5.3954,0.0000,0.0000,0.0000,20.0000,110.0773,47.1384,623.2717,427.0134,1.3068,0.000468,91.1422,-41.3374,-44.9878,86.3252,91.1422,-0.0246,-6.2444,-15.5754,-1.6336,-0.1502,0.936033,0.010258,-0.579170,0.0126,0.2996,-0.0063,180.0000,0.0000,0.0000
265,2.6500,4.6111,-0.2250,3.2518,5.6469,0.0000,0.0000,0.0000,20.0000,115.0547,50.7374,627.5344,437.9264,1.5702,0.000479,91.1422,-41.3374,-44.9878,86.3252,91.1422,-0.0246,-6.2444,-15.5754,-1.6336,-0.1502,0.958719,0.025827,-0.635570,0.0159,0.3066,-0.0076,180.0000,0.0000,0.0000
266,2.6600,4.7298,-0.2422,3.5250,5.9038,0.0000,0.0000,0.0000,20.0000,120.1686,54.4161,623.3995,448.2426,1.8759,0.000482,91.1422,-41.3374,-44.9878,86.3252,91.1422,-0.0246,-6.2444,-15.5754,-1.6336,-0.1502,0.981215,0.036103,-0.692794,0.0148,0.3129,-0.0087,180.0000,0.0000,0.0000
267,2.6700,4.8475,-0.2308,3.8044,6.1664,0.0000,0.0000,0.0000,20.0000,125.4010,58.1769,624.5480,457.9092,2.2277,0.000468,91.1422,-41.3374,-44.9878,86.3252,91.1422,-0.0246,-6.2444,-15.5754,-1.6336,-0.1502,1.003452,0.040571,-0.750985,0.0133,0.3195,-0.0101,180.0000,0.0000,0.0000
268,2.6800,4.9645,-0.2107,4.0916,6.4367,0.0000,0.0000,0.0000,20.0000,130.7630,62.0222,633.2409,467.3148,2.6295,0.000417,91.1422,-41.3374,-44.9878,86.3252,91.1422,-0.0246,-6.2444,-15.5754,-1.6336,-0.1502,1.025438,0.040944,-0.810368,0.0106,0.3274,-0.0137,180.0000,0.0000,0.0000
269,2.6900,5.0791,-0.1971,4.3880,6.7150,0.0000,0.0000,0.0000,20.0000,136.2650,65.9549,645.6738,476.7840,3.0858,0.000445,91.1422,-41.3374,-44.9878,86.3252,91.1422,-0.0246,-6.2444,-15.5754,-1.6336,-0.1502,1.047006,0.039717,-0.871214,0.0085,0.3358,-0.0183,180.0000,0.0000,0.0000
270,2.7000,5.2032,-0.1973,4.6919,7.0090,0.0000,0.0000,0.0000,20.0000,141.9932,69.9800,661.3444,486.5053,3.6018,0.000464,91.1422,-41.3374,-44.9878,86.3252,91.1422,-0.0246,-6.2444,-15.5754,-1.6336,-0.1502,1.069240,0.038979,-0.933495,0.0098,0.3435,-0.0234,180.0000,0.0000,0.0000
271,2.7100,5.3457,-0.2197,4.9911,7.3168,0.0000,0.0000,0.0000,20.0000,149.3221,74.1429,781.4701,499.4268,4.1886,0.000406,89.8616,-41.2507,-44.5085,85.7592,89.8616,0.9640,-3.2716,-14.0246,-1.9079,0.8022,1.105939,0.042648,-1.002391,0.0130,0.3528,-0.0298,-180.0000,0.0000,-0.0000
272,2.7200,5.5000,-0.2655,5.2757,7.6258,0.0000,0.0000,0.0000,20.0000,156.1759,78.4669,730.0988,513.5285,4.8505,0.000490,89.8616,-41.2507,-44.5085,85.7592,89.8616,0.9640,-3.2716,-14.0246,-1.9079,0.8022,1.139444,0.049177,-1.066930,0.0206,0.3631,-0.0361,-180.0000,0.0000,-0.0000
273,2.7300,5.6540,-0.3211,5.5473,7.9273,0.0000,0.0000,0.0000,20.0000,162.6767,82.9203,690.4523,524.3512,5.5923,0.000477,89.8616,-41.2507,-44.5085,85.7592,89.8616,0.9640,-3.2716,-14.0246,-1.9079,0.8022,1.171085,0.058242,-1.127625,0.0312,0.3730,-0.0442,-180.0000,0.0000,-0.0000
274,2.7400,5.8002,-0.3785,5.8116,8.2195,0.0000,0.0000,0.0000,20.0000,168.8750,87.4780,658.2087,532.6012,6.4186,0.000469,89.8616,-41.2507,-44.5085,85.7592,89.8616,0.9640,-3.2716,-14.0246,-1.9079,0.8022,1.200862,0.068881,-1.185353,0.0419,0.3811,-0.0520,-180.0000,0.0000,-0.0000
275,2.7500,5.9341,-0.4435,6.0624,8.4949,0.0000,0.0000,0.0000,20.0000,174.7244,92.1164,623.4489,538.5546,7.3338,0.000405,89.8616,-41.2507,-44.5085,85.7592,89.8616,0.9640,-3.2716,-14.0246,-1.9079,0.8022,1.228308,0.081124,-1.239977,0.0515,0.3899,-0.0568,-180.0000,0.0000,-0.0000
276,2.7600,6.0511,-0.5221,6.3000,8.7509,0.0000,0.0000,0.0000,20.0000,180.1750,96.8104,587.7981,542.2439,8.3415,0.000420,89.8616,-41.2507,-44.5085,85.7592,89.8616,0.9640,-3.2716,-14.0246,-1.9079,0.8022,1.252723,0.095585,-1.291454,0.0614,0.3963,-0.0614,-180.0000,0.0000,-0.0000
277,2.7700,6.1601,-0.6087,6.5317,8.9989,0.0000,0.0000,0.0000,20.0000,185.3141,101.5375,561.7436,544.0332,9.4457,0.000515,89.8616,-41.2507,-44.5085,85.7592,89.8616,0.9640,-3.2716,-14.0246,-1.9079,0.8022,1.274617,0.112050,-1.340495,0.0692,0.4014,-0.0650,-180.0000,0.0000,-0.0000
278,2.7800,6.2684,-0.6952,6.7613,9.2462,0.0000,0.0000,0.0000,20.0000,190.2640,106.2820,544.8329,544.5423,10.6506,0.000430,89.8616,-41.2507,-44.5085,85.7592,89.8616,0.9640,-3.2716,-14.0246,-1.9079,0.8022,1.295000,0.129577,-1.387885,0.0768,0.4069,-0.0678,-180.0000,0.0000,-0.0000
279,2.7900,6.3775,-0.7752,6.9881,9.4925,0.0000,0.0000,0.0000,20.0000,195.0911,111.0344,530.3308,544.1594,11.9609,0.000396,89.8616,-41.2507,-44.5085,85.7592,89.8616,0.9640,-3.2716,-14.0246,-1.9079,0.8022,1.314587,0.147011,-1.433981,0.0852,0.4139,-0.0697,-180.0000,0.0000,-0.0000
280,2.8000,6.4854,-0.8417,7.2169,9.7392,0.0000,0.0000,0.0000,20.0000,199.8461,115.7890,518.2907,543.0676,13.3816,0.000466,89.8616,-41.2507,-44.5085,85.7592,89.8616,0.9640,-3.2716,-14.0246,-1.9079,0.8022,1.333571,0.163000,-1.479481,0.0916,0.4220,-0.0724,-180.0000,0.0000,-0.0000
281,2.8100,6.6013,-0.8921,7.4670,10.0065,0.0000,0.0000,0.0000,20.0000,204.7560,120.5479,528.0593,541.9733,14.9195,0.000512,89.8616,-41.2507,-44.5085,85.7592,89.8616,0.9640,-3.2716,-14.0246,-1.9079,0.8022,1.352989,0.176553,-1.526680,0.0975,0.4336,-0.0764,-180.0000,0.0000,-0.0000
282,2.8200,6.7378,-0.9208,7.7232,10.2904,0.0000,0.0000,0.0000,20.0000,209.9090,125.3217,541.9505,541.5900,16.5823,0.000451,89.8616,-41.2507,-44.5085,85.7592,89.8616,0.9640,-3.2716,-14.0246,-1.9079,0.8022,1.374663,0.186561,-1.575333,0.0989,0.4399,-0.0765,-180.0000,0.0000,-0.0000
283,2.8300,6.8761,-0.9296,7.9641,10.5627,0.0000,0.0000,0.0000,20.0000,215.0680,130.1166,534.5207,541.4055,18.3767,0.000454,89.8616,-41.2507,-44.5085,85.7592,89.8616,0.9640,-3.2716,-14.0246,-1.9079,0.8022,1.397724,0.192601,-1.623176,0.0973,0.4473,-0.0776,-180.0000,0.0000,-0.0000
284,2.8400,7.0107,-0.9221,8.1934,10.8227,0.0000,0.0000,0.0000,20.0000,220.0940,134.9278,517.7239,540.5648,20.3082,0.000402,89.8616,-41.2507,-44.5085,85.7592,89.8616,0.9640,-3.2716,-14.0246,-1.9079,0.8022,1.421138,0.194806,-1.669298,0.0954,0.4541,-0.0782,-180.0000,0.0000,-0.0000
285,2.8500,7.1665,-0.9014,8.4062,11.0832,0.0000,0.0000,0.0000,20.0000,225.0389,139.7487,504.8495,538.9543,22.3828,0.000333,89.8616,-41.2507,-44.5085,85.7592,89.8616,0.9640,-3.2716,-14.0246,-1.9079,0.8022,1.446823,0.193561,-1.712743,0.0897,0.4626,-0.0786,-180.0000,0.0000,-0.0000
286,2.8600,7.3452,-0.8574,8.6050,11.3461,0.0000,0.0000,0.0000,20.0000,229.9498,144.5754,501.8701,536.9963,24.6070,0.000482,89.8616,-41.2507,-44.5085,85.7592,89.8616,0.9640,-3.2716,-14.0246,-1.9079,0.8022,1.475994,0.188085,-1.753213,0.0805,0.4745,-0.0750,-180.0000,0.0000,-0.0000
287,2.8700,7.5364,-0.7890,8.8050,11.6167,0.0000,0.0000,0.0000,20.0000,234.9065,149.4080,515.5820,535.4412,26.9883,0.000354,89.8616,-41.2507,-44.5085,85.7592,89.8616,0.9640,-3.2716,-14.0246,-1.9079,0.8022,1.508287,0.177846,-1.792078,0.0732,0.4881,-0.0730,-180.0000,0.0000,-0.0000
288,2.8800,7.7548,-0.7182,9.0157,11.9136,0.0000,0.0000,0.0000,20.0000,240.1408,154.2550,550.8707,535.3194,29.5368,0.000408,89.8616,-41.2507,-44.5085,85.7592,89.8616,0.9640,-3.2716,-14.0246,-1.9079,0.8022,1.544959,0.164751,-1.831044,0.0719,0.4992,-0.0708,-180.0000,0.0000,-0.0000
289,2.8900,7.9904,-0.6557,9.2394,12.2329,0.0000,0.0000,0.0000,20.0000,245.7433,159.1335,589.1736,537.2283,32.2641,0.000420,89.8616,-41.2507,-44.5085,85.7592,89.8616,0.9640,-3.2716,-14.0246,-1.9079,0.8022,1.585707,0.150931,-1.871292,0.0730,0.5079,-0.0698,-180.0000,0.0000,-0.0000
290,2.9000,8.1952,-0.6105,9.4845,12.5495,0.0000,0.0000,0.0000,20.0000,251.5184,164.0566,599.4144,540.3674,35.1804,0.000357,89.8616,-41.2507,-44.5085,85.7592,89.8616,0.9640,-3.2716,-14.0246,-1.9079,0.8022,1.625543,0.138467,-1.914312,0.0776,0.5136,-0.0714,-180.0000,0.0000,-0.0000
291,2.9100,8.3538,-0.5908,9.7437,12.8482,0.0000,0.0000,0.0000,20.0000,261.7427,169.1489,1030.0029,555.4583,38.3493,0.000408,86.3307,-41.2828,-41.9856,83.2684,86.3307,2.0753,-9.9909,-15.5954,-2.3158,1.2820,1.694384,0.131774,-1.990634,0.0880,0.5134,-0.0751,180.0000,0.0000,0.0000
292,2.9200,8.4596,-0.5959,9.9861,13.1012,0.0000,0.0000,0.0000,20.0000,269.4050,174.4531,771.8947,574.4631,41.7535,0.000316,86.3307,-41.2828,-41.9856,83.2684,86.3307,2.0753,-9.9909,-15.5954,-2.3158,1.2820,1.739622,0.128329,-2.053083,0.0957,0.5060,-0.0780,180.0000,0.0000,0.0000
293,2.9300,8.4849,-0.6198,10.1809,13.2676,0.0000,0.0000,0.0000,20.0000,274.7658,179.8236,553.9301,579.3285,45.3740,0.000340,86.3307,-41.2828,-41.9856,83.2684,86.3307,2.0753,-9.9909,-15.5954,-2.3158,1.2820,1.763689,0.128556,-2.102974,0.0961,0.4933,-0.0801,180.0000,0.0000,0.0000
294,2.9400,8.4071,-0.6573,10.3010,13.3125,0.0000,0.0000,0.0000,20.0000,277.6271,185.1249,356.2434,572.4942,49.1842,0.000333,86.3307,-41.2828,-41.9856,83.2684,86.3307,2.0753,-9.9909,-15.5954,-2.3158,1.2820,1.765683,0.132171,-2.138358,0.0944,0.4781,-0.0816,180.0000,0.0000,0.0000
295,2.9500,8.2314,-0.7016,10.3254,13.2235,0.0000,0.0000,0.0000,20.0000,277.7629,190.2170,274.2395,558.3432,53.1485,0.000456,86.3307,-41.2828,-41.9856,83.2684,86.3307,2.0753,-9.9909,-15.5954,-2.3158,1.2820,1.745683,0.138341,-2.156078,0.0916,0.4600,-0.0816,180.0000,0.0000,0.0000
296,2.9600,7.9711,-0.7488,10.2574,13.0121,0.0000,0.0000,0.0000,20.0000,275.1683,194.9614,413.4991,546.5454,57.2253,0.000851,86.3307,-41.2828,-41.9856,83.2684,86.3307,2.0753,-9.9909,-15.5954,-2.3158,1.2820,1.705106,0.146189,-2.154763,0.0872,0.4425,-0.0834,180.0000,0.0000,0.0000
297,2.9700,7.6309,-0.7944,10.1214,12.7005,0.0000,0.0000,0.0000,20.0000,270.0705,199.2332,632.8827,545.2608,61.3700,0.000554,86.3307,-41.2828,-41.9856,83.2684,86.3307,2.0753,-9.9909,-15.5954,-2.3158,1.2820,1.645240,0.154798,-2.136126,0.0818,0.4273,-0.0836,180.0000,0.0000,0.0000
298,2.9800,7.2367,-0.8273,9.9483,12.3298,0.0000,0.0000,0.0000,20.0000,263.0096,202.9356,825.9172,555.3899,65.5411,0.000354,86.3307,-41.2828,-41.9856,83.2684,86.3307,2.0753,-9.9909,-15.5954,-2.3158,1.2820,1.569444,0.162534,-2.104242,0.0775,0.4145,-0.0828,180.0000,0.0000,0.0000
299,2.9900,6.8409,-0.8376,9.7797,11.9642,0.0000,0.0000,0.0000,20.0000,254.9365,206.0181,931.8131,573.1836,69.7091,0.000354,86.3307,-41.2828,-41.9856,83.2684,86.3307,2.0753,-9.9909,-15.5954,-2.3158,1.2820,1.484821,0.167514,-2.065553,0.0724,0.4050,-0.0790,180.0000,0.0000,0.0000
300,3.0000,6.4938,-0.8216,9.6627,11.6710,0.0000,0.0000,0.0000,20.0000,247.0520,208.4922,922.9917,592.6685,73.8631,0.000296,86.3307,-41.2828,-41.9856,83.2684,86.3307,2.0753,-9.9909,-15.5954,-2.3158,1.2820,1.400366,0.168336,-2.028326,0.0651,0.3981,-0.0723,180.0000,0.0000,0.0000
301,3.0100,6.2276,-0.7763,9.6306,11.4950,0.0000,0.0000,0.0000,20.0000,240.4682,210.4322,811.5472,607.7737,78.0130,0.000348,86.3307,-41.2828,-41.9856,83.2684,86.3307,2.0753,-9.9909,-15.5954,-2.3158,1.2820,1.324263,0.163925,-2.000488,0.0573,0.3941,-0.0640,180.0000,0.0000,0.0000
302,3.0200,6.0654,-0.7079,9.6947,11.4577,0.0000,0.0000,0.0000,20.0000,236.0081,211.9617,630.4648,614.0024,82.1869,0.000336,86.3307,-41.2828,-41.9856,83.2684,86.3307,2.0753,-9.9909,-15.5954,-2.3158,1.2820,1.263321,0.154312,-1.987508,0.0521,0.3924,-0.0549,180.0000,0.0000,0.0000
303,3.0300,6.0039,-0.6302,9.8466,11.5499,0.0000,0.0000,0.0000,20.0000,234.0268,213.2300,446.1791,609.8394,86.4247,0.000369,86.3307,-41.2828,-41.9856,83.2684,86.3307,2.0753,-9.9909,-15.5954,-2.3158,1.2820,1.220951,0.140923,-1.991551,0.0477,0.3913,-0.0493,180.0000,0.0000,0.0000
304,3.0400,6.0105,-0.5567,10.0548,11.7275,0.0000,0.0000,0.0000,20.0000,234.2704,214.3807,349.9294,598.1895,90.7661,0.000355,86.3307,-41.2828,-41.9856,83.2684,86.3307,2.0753,-9.9909,-15.5954,-2.3158,1.2820,1.195754,0.125888,-2.010618,0.0462,0.3892,-0.0458,180.0000,0.0000,0.0000
305,3.0500,6.0435,-0.4981,10.2674,11.9244,0.0000,0.0000,0.0000,20.0000,235.9311,215.5204,339.0475,584.2339,95.2401,0.000308,86.3307,-41.2828,-41.9856,83.2684,86.3307,2.0753,-9.9909,-15.5954,-2.3158,1.2820,1.182729,0.111464,-2.038400,0.0484,0.3840,-0.0454,180.0000,0.0000,0.0000
306,3.0600,6.0675,-0.4630,10.4424,12.0861,0.0000,0.0000,0.0000,20.0000,238.0157,216.7005,318.8476,570.1911,99.8585,0.000386,86.3307,-41.2828,-41.9856,83.2684,86.3307,2.0753,-9.9909,-15.5954,-2.3158,1.2820,1.175567,0.099759,-2.067181,0.0548,0.3760,-0.0485,180.0000,0.0000,0.0000
307,3.0700,6.0518,-0.4510,10.5718,12.1898,0.0000,0.0000,0.0000,20.0000,239.7490,217.9207,271.0773,555.0513,104.6173,0.000460,86.3307,-41.2828,-41.9856,83.2684,86.3307,2.0753,-9.9909,-15.5954,-2.3158,1.2820,1.167684,0.091895,-2.091896,0.0596,0.3669,-0.0544,180.0000,0.0000,0.0000
308,3.0800,5.9882,-0.4572,10.6771,12.2503,0.0000,0.0000,0.0000,20.0000,240.8541,219.1518,242.0437,538.6319,109.5054,0.000309,86.3307,-41.2828,-41.9856,83.2684,86.3307,2.0753,-9.9909,-15.5954,-2.3158,1.2820,1.154638,0.087982,-2.111904,0.0653,0.3577,-0.0571,180.0000,0.0000,0.0000
309,3.0900,5.9095,-0.4693,10.7938,12.3146,0.0000,0.0000,0.0000,20.0000,241.6509,220.3675,254.2082,522.6518,114.5163,0.000324,86.3307,-41.2828,-41.9856,83.2684,86.3307,2.0753,-9.9909,-15.5954,-2.3158,1.2820,1.137245,0.086852,-2.130410,0.0711,0.3471,-0.0584,180.0000,0.0000,0.0000
310,3.1000,5.8511,-0.4664,10.9562,12.4295,0.0000,0.0000,0.0000,20.0000,242.7849,221.5695,284.3951,508.7155,119.6571,0.000339,86.3307,-41.2828,-41.9856,83.2684,86.3307,2.0753,-9.9909,-15.5954,-2.3158,1.2820,1.119517,0.085761,-2.152621,0.0743,0.3407,-0.0574,180.0000,0.0000,0.0000
311,3.1100,5.8214,-0.4484,11.1776,12.6107,0.0000,0.0000,0.0000,20.0000,252.4064,223.0011,967.3079,515.1589,125.1220,0.000388,81.2573,-40.5514,-37.5170,78.0684,81.2573,1.9857,-8.9805,-16.7555,-1.9790,1.6420,1.154934,0.087937,-2.242608,0.0761,0.3368,-0.0535,180.0000,0.0000,0.0000
312,3.1200,5.8146,-0.4312,11.4347,12.8354,0.0000,0.0000,0.0000,20.0000,259.4741,224.8130,728.7873,533.4705,130.8645,0.000407,81.2573,-40.5514,-37.5170,78.0684,81.2573,1.9857,-8.9805,-16.7555,-1.9790,1.6420,1.171519,0.087244,-2.313571,0.0774,0.3312,-0.0494,180.0000,0.0000,0.0000
313,3.1300,5.8179,-0.4254,11.6743,13.0506,0.0000,0.0000,0.0000,20.0000,265.0230,226.8723,590.1060,540.4002,136.8591,0.000333,81.2573,-40.5514,-37.5170,78.0684,81.2573,1.9857,-8.9805,-16.7555,-1.9790,1.6420,1.178678,0.086111,-2.372135,0.0809,0.3242,-0.0474,180.0000,0.0000,0.0000
314,3.1400,5.8015,-0.4442,11.8444,13.1964,0.0000,0.0000,0.0000,20.0000,269.0275,229.0810,446.5034,539.1847,143.0783,0.000341,81.2573,-40.5514,-37.5170,78.0684,81.2573,1.9857,-8.9805,-16.7555,-1.9790,1.6420,1.178639,0.087185,-2.416772,0.0851,0.3171,-0.0487,180.0000,0.0000,0.0000
315,3.1500,5.7331,-0.4959,11.9327,13.2478,0.0000,0.0000,0.0000,20.0000,271.2261,231.3389,306.3883,530.2328,149.4846,0.000329,81.2573,-40.5514,-37.5170,78.0684,81.2573,1.9857,-8.9805,-16.7555,-1.9790,1.6420,1.169415,0.092783,-2.445449,0.0906,0.3081,-0.0538,180.0000,0.0000,0.0000
316,3.1600,5.6273,-0.5625,11.9706,13.2393,0.0000,0.0000,0.0000,20.0000,271.8227,233.5494,251.7494,516.4168,156.0414,0.000396,81.2573,-40.5514,-37.5170,78.0684,81.2573,1.9857,-8.9805,-16.7555,-1.9790,1.6420,1.151395,0.102350,-2.460198,0.0951,0.2982,-0.0580,180.0000,0.0000,0.0000
317,3.1700,5.5321,-0.6208,12.0121,13.2394,0.0000,0.0000,0.0000,20.0000,271.6215,235.6492,254.5688,501.9355,162.7292,0.000399,81.2573,-40.5514,-37.5170,78.0684,81.2573,1.9857,-8.9805,-16.7555,-1.9790,1.6420,1.129613,0.113259,-2.467584,0.0968,0.2922,-0.0623,180.0000,0.0000,0.0000
318,3.1800,5.4781,-0.6656,12.0984,13.2975,0.0000,0.0000,0.0000,20.0000,271.5611,237.6263,235.4290,487.8019,169.5515,0.000350,81.2573,-40.5514,-37.5170,78.0684,81.2573,1.9857,-8.9805,-16.7555,-1.9790,1.6420,1.109912,0.123545,-2.475353,0.0945,0.2887,-0.0643,180.0000,0.0000,0.0000
319,3.1900,5.4588,-0.6976,12.2356,13.4163,0.0000,0.0000,0.0000,20.0000,272.1856,239.5102,217.1468,473.4165,176.5267,0.000336,81.2573,-40.5514,-37.5170,78.0684,81.2573,1.9857,-8.9805,-16.7555,-1.9790,1.6420,1.094880,0.132186,-2.488426,0.0902,0.2849,-0.0659,180.0000,0.0000,0.0000
320,3.2000,5.4459,-0.7203,12.3797,13.5438,0.0000,0.0000,0.0000,20.0000,273.2735,241.3375,215.0738,459.2626,183.6686,0.000450,81.2573,-40.5514,-37.5170,78.0684,81.2573,1.9857,-8.9805,-16.7555,-1.9790,1.6420,1.083088,0.138969,-2.505085,0.0860,0.2775,-0.0638,180.0000,0.0000,0.0000
321,3.2100,5.3862,-0.7527,12.4531,13.5889,0.0000,0.0000,0.0000,20.0000,273.7911,243.1085,198.1963,445.3661,190.9628,0.000682,81.2573,-40.5514,-37.5170,78.0684,81.2573,1.9857,-8.9805,-16.7555,-1.9790,1.6420,1.068433,0.145673,-2.516622,0.0812,0.2668,-0.0634,180.0000,0.0000,0.0000
322,3.2200,5.2352,-0.8045,12.4060,13.4894,0.0000,0.0000,0.0000,20.0000,272.5489,244.7621,269.6973,433.7363,198.3589,0.000510,81.2573,-40.5514,-37.5170,78.0684,81.2573,1.9857,-8.9805,-16.7555,-1.9790,1.6420,1.043094,0.154273,-2.513253,0.0746,0.2530,-0.0627,180.0000,0.0000,0.0000
323,3.2300,4.9950,-0.8487,12.2529,13.2591,0.0000,0.0000,0.0000,20.0000,269.0344,246.1939,466.9781,430.1389,205.7866,0.000411,81.2573,-40.5514,-37.5170,78.0684,81.2573,1.9857,-8.9805,-16.7555,-1.9790,1.6420,1.002976,0.163139,-2.491059,0.0685,0.2378,-0.0603,180.0000,0.0000,0.0000
324,3.2400,4.7189,-0.8613,12.0605,12.9794,0.0000,0.0000,0.0000,20.0000,263.7841,247.3059,636.2269,436.8204,213.1858,0.000431,81.2573,-40.5514,-37.5170,78.0684,81.2573,1.9857,-8.9805,-16.7555,-1.9790,1.6420,0.951187,0.168972,-2.454566,0.0609,0.2250,-0.0544,180.0000,0.0000,0.0000
325,3.2500,4.4788,-0.8430,11.9161,12.7578,0.0000,0.0000,0.0000,20.0000,258.1722,248.0580,673.6775,448.8194,220.5355,0.000546,81.2573,-40.5514,-37.5170,78.0684,81.2573,1.9857,-8.9805,-16.7555,-1.9790,1.6420,0.896645,0.170026,-2.415038,0.0543,0.2169,-0.0497,180.0000,0.0000,0.0000
326,3.2600,4.3289,-0.7989,11.8837,12.6728,0.0000,0.0000,0.0000,20.0000,253.7388,248.4924,558.0948,458.0094,227.8628,0.000511,81.2573,-40.5514,-37.5170,78.0684,81.2573,1.9857,-8.9805,-16.7555,-1.9790,1.6420,0.849715,0.165863,-2.385123,0.0509,0.2129,-0.0448,180.0000,0.0000,0.0000
327,3.2700,4.2986,-0.7426,11.9844,12.7536,0.0000,0.0000,0.0000,20.0000,251.6145,248.7226,336.9498,457.4325,235.2356,0.000547,81.2573,-40.5514,-37.5170,78.0684,81.2573,1.9857,-8.9805,-16.7555,-1.9790,1.6420,0.819043,0.157603,-2.373883,0.0571,0.2099,-0.0448,180.0000,0.0000,0.0000
328,3.2800,4.3316,-0.7132,12.1394,12.9088,0.0000,0.0000,0.0000,20.0000,251.5024,248.8786,177.7329,446.4259,242.7183,0.000434,81.2573,-40.5514,-37.5170,78.0684,81.2573,1.9857,-8.9805,-16.7555,-1.9790,1.6420,0.803744,0.149779,-2.378425,0.0647,0.2090,-0.0514,180.0000,0.0000,0.0000
329,3.2900,4.3537,-0.7268,12.2458,13.0170,0.0000,0.0000,0.0000,20.0000,252.0277,249.0374,119.4250,430.0419,250.3349,0.000411,81.2573,-40.5514,-37.5170,78.0684,81.2573,1.9857,-8.9805,-16.7555,-1.9790,1.6420,0.795898,0.146510,-2.386814,0.0717,0.2067,-0.0590,180.0000,0.0000,0.0000
330,3.3000,4.3407,-0.7644,12.2862,13.0529,0.0000,0.0000,0.0000,20.0000,252.1807,249.2061,83.9358,411.9794,258.0764,0.000415,81.2573,-40.5514,-37.5170,78.0684,81.2573,1.9857,-8.9805,-16.7555,-1.9790,1.6420,0.788661,0.148176,-2.390725,0.0757,0.2056,-0.0650,180.0000,0.0000,0.0000
331,3.3100,4.2948,-0.8031,12.2853,13.0391,0.0000,0.0000,0.0000,20.0000,259.6496,249.5751,753.5643,412.3518,266.1881,0.000426,77.1770,-38.8257,-32.8022,71.6280,77.1770,1.8597,-7.9706,-17.4170,-1.8972,1.7918,0.820706,0.156777,-2.458384,0.0758,0.2010,-0.0659,180.0000,0.0000,-0.0000
332,3.3200,4.2462,-0.8058,12.2914,13.0291,0.0000,0.0000,0.0000,20.0000,263.1658,250.2260,352.5639,420.0921,274.5475,0.000517,77.1770,-38.8257,-32.8022,71.6280,77.1770,1.8597,-7.9706,-17.4170,-1.8972,1.7918,0.831919,0.161481,-2.491478,0.0698,0.1950,-0.0625,180.0000,0.0000,-0.0000
333,3.3300,4.2220,-0.7588,12.3453,13.0693,0.0000,0.0000,0.0000,20.0000,264.9890,250.9880,189.7591,411.8998,283.1013,0.000470,77.1770,-38.8257,-32.8022,71.6280,77.1770,1.8597,-7.9706,-17.4170,-1.8972,1.7918,0.834033,0.159065,-2.510180,0.0609,0.1870,-0.0561,180.0000,0.0000,-0.0000
334,3.3400,4.2244,-0.6922,12.4452,13.1608,0.0000,0.0000,0.0000,20.0000,266.3831,251.7965,174.2493,399.2537,291.8372,0.000478,77.1770,-38.8257,-32.8022,71.6280,77.1770,1.8597,-7.9706,-17.4170,-1.8972,1.7918,0.833778,0.150744,-2.525487,0.0550,0.1779,-0.0513,180.0000,0.0000,-0.0000
335,3.3500,4.2283,-0.6375,12.5464,13.2551,0.0000,0.0000,0.0000,20.0000,267.5655,252.6314,171.0228,386.7879,300.7496,0.000476,77.1770,-38.8257,-32.8022,71.6280,77.1770,1.8597,-7.9706,-17.4170,-1.8972,1.7918,0.832352,0.140381,-2.539018,0.0558,0.1666,-0.0504,180.0000,0.0000,-0.0000
336,3.3600,4.1915,-0.6289,12.5927,13.2869,0.0000,0.0000,0.0000,20.0000,268.0087,253.4651,115.8556,373.4018,309.8129,0.000450,77.1770,-38.8257,-32.8022,71.6280,77.1770,1.8597,-7.9706,-17.4170,-1.8972,1.7918,0.826227,0.133511,-2.546054,0.0602,0.1581,-0.0559,180.0000,0.0000,-0.0000
337,3.3700,4.0937,-0.6849,12.5487,13.2173,0.0000,0.0000,0.0000,20.0000,267.0296,254.2381,159.1964,360.4267,318.9752,0.000384,77.1770,-38.8257,-32.8022,71.6280,77.1770,1.8597,-7.9706,-17.4170,-1.8972,1.7918,0.811407,0.135045,-2.540446,0.0680,0.1516,-0.0623,180.0000,0.0000,-0.0000
338,3.3800,3.9585,-0.7711,12.4272,13.0652,0.0000,0.0000,0.0000,20.0000,264.4393,254.8705,322.9075,353.8601,328.1749,0.000443,77.1770,-38.8257,-32.8022,71.6280,77.1770,1.8597,-7.9706,-17.4170,-1.8972,1.7918,0.788067,0.144236,-2.520112,0.0758,0.1470,-0.0695,180.0000,0.0000,-0.0000
339,3.3900,3.8092,-0.8460,12.2875,12.8922,0.0000,0.0000,0.0000,20.0000,260.7585,255.2957,439.3811,355.3610,337.3662,0.000565,77.1770,-38.8257,-32.8022,71.6280,77.1770,1.8597,-7.9706,-17.4170,-1.8972,1.7918,0.758660,0.156526,-2.489867,0.0769,0.1425,-0.0729,180.0000,0.0000,-0.0000
340,3.4000,3.6750,-0.8838,12.1929,12.7653,0.0000,0.0000,0.0000,20.0000,256.9487,255.4914,452.6596,360.3480,346.5364,0.000440,77.1770,-38.8257,-32.8022,71.6280,77.1770,1.8597,-7.9706,-17.4170,-1.8972,1.7918,0.727472,0.166785,-2.458705,0.0707,0.1371,-0.0718,180.0000,0.0000,-0.0000
341,3.4100,3.5934,-0.8636,12.1828,12.7310,0.0000,0.0000,0.0000,20.0000,254.0025,255.4905,356.1446,362.7713,355.7123,0.000411,77.1770,-38.8257,-32.8022,71.6280,77.1770,1.8597,-7.9706,-17.4170,-1.8972,1.7918,0.700611,0.170105,-2.435556,0.0613,0.1310,-0.0669,180.0000,0.0000,-0.0000
342,3.4200,3.5575,-0.8016,12.2461,12.7776,0.0000,0.0000,0.0000,20.0000,252.3419,255.3630,233.2869,359.0277,364.9399,0.000447,77.1770,-38.8257,-32.8022,71.6280,77.1770,1.8597,-7.9706,-17.4170,-1.8972,1.7918,0.680775,0.165391,-2.424218,0.0544,0.1243,-0.0647,180.0000,0.0000,-0.0000
343,3.4300,3.5319,-0.7467,12.3217,12.8396,0.0000,0.0000,0.0000,20.0000,251.5481,255.1750,174.7531,350.5010,374.2514,0.000334,77.1770,-38.8257,-32.8022,71.6280,77.1770,1.8597,-7.9706,-17.4170,-1.8972,1.7918,0.665884,0.156966,-2.420662,0.0526,0.1163,-0.0645,180.0000,0.0000,-0.0000
344,3.4400,3.4906,-0.7219,12.3453,12.8496,0.0000,0.0000,0.0000,20.0000,250.7149,254.9525,162.1172,340.4860,383.6453,0.000398,77.1770,-38.8257,-32.8022,71.6280,77.1770,1.8597,-7.9706,-17.4170,-1.8972,1.7918,0.652190,0.149517,-2.416214,0.0570,0.1107,-0.0686,180.0000,0.0000,-0.0000
345,3.4500,3.4206,-0.7335,12.2896,12.7779,0.0000,0.0000,0.0000,20.0000,249.0465,254.6735,206.8185,331.9037,393.0884,0.000383,77.1770,-38.8257,-32.8022,71.6280,77.1770,1.8597,-7.9706,-17.4170,-1.8972,1.7918,0.636322,0.146258,-2.403356,0.0634,0.1077,-0.0749,180.0000,0.0000,-0.0000
346,3.4600,3.3297,-0.7777,12.1709,12.6421,0.0000,0.0000,0.0000,20.0000,246.2789,254.2879,306.1683,327.7555,402.5351,0.000370,77.1770,-38.8257,-32.8022,71.6280,77.1770,1.8597,-7.9706,-17.4170,-1.8972,1.7918,0.617191,0.148584,-2.379565,0.0685,0.1058,-0.0812,180.0000,0.0000,-0.0000
347,3.4700,3.2448,-0.8180,12.0406,12.4970,0.0000,0.0000,0.0000,20.0000,242.8150,253.7521,373.4765,328.4193,411.9546,0.000465,77.1770,-38.8257,-32.8022,71.6280,77.1770,1.8597,-7.9706,-17.4170,-1.8972,1.7918,0.596881,0.153609,-2.348627,0.0720,0.1020,-0.0829,180.0000,0.0000,-0.0000
348,3.4800,3.1833,-0.8249,11.9675,12.4111,0.0000,0.0000,0.0000,20.0000,239.5658,253.0611,346.7288,330.1622,421.3514,0.000391,77.1770,-38.8257,-32.8022,71.6280,77.1770,1.8597,-7.9706,-17.4170,-1.8972,1.7918,0.578314,0.156767,-2.319516,0.0678,0.0980,-0.0802,180.0000,0.0000,-0.0000
349,3.4900,3.1613,-0.7917,11.9834,12.4186,0.0000,0.0000,0.0000,20.0000,237.3729,252.2584,235.6678,328.0188,430.7657,0.000333,77.1770,-38.8257,-32.8022,71.6280,77.1770,1.8597,-7.9706,-17.4170,-1.8972,1.7918,0.564699,0.154882,-2.300373,0.0610,0.0912,-0.0704,180.0000,0.0000,-0.0000
350,3.5000,3.1693,-0.7266,12.0622,12.4928,0.0000,0.0000,0.0000,20.0000,244.3000,251.6301,700.7171,335.7295,440.5805,0.000361,74.2978,-35.9496,-28.5425,64.4921,74.2978,1.7572,-8.8076,-16.5380,-1.6656,1.6033,0.588207,0.151412,-2.366292,0.0550,0.0804,-0.0599,180.0000,0.0000,0.0000
351,3.5100,3.1647,-0.6543,12.1453,12.5679,0.0000,0.0000,0.0000,20.0000,248.3936,251.3395,426.5469,348.2660,450.6835,0.000353,74.2978,-35.9496,-28.5425,64.4921,74.2978,1.7572,-8.8076,-16.5380,-1.6656,1.6033,0.599567,0.141962,-2.406305,0.0540,0.0671,-0.0519,180.0000,0.0000,0.0000
352,3.5200,3.1100,-0.6135,12.1725,12.5785,0.0000,0.0000,0.0000,20.0000,250.2721,251.2291,222.0465,346.9475,460.9814,0.000357,74.2978,-35.9496,-28.5425,64.4921,74.2978,1.7572,-8.8076,-16.5380,-1.6656,1.6033,0.599183,0.132371,-2.426328,0.0534,0.0533,-0.0487,180.0000,0.0000,0.0000
353,3.5300,2.9867,-0.6133,12.1005,12.4788,0.0000,0.0000,0.0000,20.0000,249.8227,251.1641,148.7030,338.0597,471.3705,0.000387,74.2978,-35.9496,-28.5425,64.4921,74.2978,1.7572,-8.8076,-16.5380,-1.6656,1.6033,0.585438,0.126782,-2.425351,0.0578,0.0391,-0.0486,180.0000,0.0000,0.0000
354,3.5400,2.7961,-0.6463,11.9274,12.2678,0.0000,0.0000,0.0000,20.0000,246.9758,251.0120,359.1465,333.4316,481.7382,0.000304,74.2978,-35.9496,-28.5425,64.4921,74.2978,1.7572,-8.8076,-16.5380,-1.6656,1.6033,0.557611,0.126741,-2.402647,0.0618,0.0245,-0.0535,180.0000,0.0000,0.0000
355,3.5500,2.5572,-0.7066,11.7027,11.9997,0.0000,0.0000,0.0000,20.0000,242.2398,250.6597,570.1296,340.6490,491.9889,0.000442,74.2978,-35.9496,-28.5425,64.4921,74.2978,1.7572,-8.8076,-16.5380,-1.6656,1.6033,0.517217,0.132493,-2.362825,0.0653,0.0113,-0.0582,180.0000,0.0000,0.0000
356,3.5600,2.3029,-0.7660,11.4958,11.7492,0.0000,0.0000,0.0000,20.0000,236.6530,250.0429,686.1588,356.4635,502.0686,0.000491,74.2978,-35.9496,-28.5425,64.4921,74.2978,1.7572,-8.8076,-16.5380,-1.6656,1.6033,0.468430,0.141349,-2.315396,0.0656,-0.0007,-0.0607,180.0000,0.0000,0.0000
357,3.5700,2.0752,-0.8000,11.3521,11.5679,0.0000,0.0000,0.0000,20.0000,231.3114,249.1594,683.9500,374.5387,511.9739,0.000519,74.2978,-35.9496,-28.5425,64.4921,74.2978,1.7572,-8.8076,-16.5380,-1.6656,1.6033,0.417754,0.149367,-2.270169,0.0642,-0.0094,-0.0588,180.0000,0.0000,0.0000
358,3.5800,1.9003,-0.8139,11.2834,11.4713,0.0000,0.0000,0.0000,20.0000,226.9725,248.0583,591.8350,389.0252,521.7415,0.000383,74.2978,-35.9496,-28.5425,64.4921,74.2978,1.7572,-8.8076,-16.5380,-1.6656,1.6033,0.371418,0.154887,-2.233766,0.0614,-0.0169,-0.0563,180.0000,0.0000,0.0000
359,3.5900,1.7759,-0.8173,11.2797,11.4478,0.0000,0.0000,0.0000,20.0000,223.9279,246.8147,462.4549,396.6229,531.4277,0.000389,74.2978,-35.9496,-28.5425,64.4921,74.2978,1.7572,-8.8076,-16.5380,-1.6656,1.6033,0.332614,0.157972,-2.208797,0.0609,-0.0221,-0.0527,180.0000,0.0000,0.0000
360,3.6000,1.6857,-0.8104,11.2919,11.4458,0.0000,0.0000,0.0000,20.0000,221.8124,245.4975,354.7744,397.2826,541.0771,0.000427,74.2978,-35.9496,-28.5425,64.4921,74.2978,1.7572,-8.8076,-16.5380,-1.6656,1.6033,0.301478,0.158666,-2.191806,0.0619,-0.0253,-0.0511,180.0000,0.0000,0.0000
361,3.6100,1.5890,-0.8207,11.2298,11.3713,0.0000,0.0000,0.0000,20.0000,219.4854,244.1307,339.9701,394.5371,550.6826,0.000504,74.2978,-35.9496,-28.5425,64.4921,74.2978,1.7572,-8.8076,-16.5380,-1.6656,1.6033,0.274001,0.159760,-2.171816,0.0643,-0.0281,-0.0525,180.0000,0.0000,0.0000
