GerardoEmirSanchez/Integraci-n-de-xArm5-5-DOF-en-NVIDIA-Isaac-Sim-con-ROS-2-Humble-para-pHRI/mediciones/2026.04.28_VIC_pHRI_tanh_2026-04-28_14-00-59.csv
Index,Time_s,Fx,Fy,Fz,F_Amp,Psi_Imp,Psi_Int,Beta,K_Stiffness,Vel_Raw,Vel_Filt,Acc_Raw,Acc_Filt,Lyapunov_V_Nmm,Loop_Duration_s,q1,q2,q3,q4,q5,tau1,tau2,tau3,tau4,tau5,deltaXcmd,deltaYcmd,deltaZcmd,Tx_EE,Ty_EE,Tz_EE,Roll,Pitch,Yaw
0,0.0000,0.0177,-0.0045,-0.0034,0.0186,0.0000,0.0000,0.0000,20.0000,0.3811,0.0685,9.0412,3.3865,0.0000,0.000880,10.0208,-48.3671,-16.4562,64.8233,10.0208,-0.0000,-1.6643,-11.1842,-0.9948,0.0000,0.003618,0.001165,-0.000272,0.0012,0.0058,0.0014,-180.0000,0.0000,0.0000
1,0.0100,0.0061,-0.0108,-0.0213,0.0247,0.0000,0.0000,0.0000,20.0000,0.3686,0.0854,25.4345,4.1484,0.0000,0.000716,10.0208,-48.3671,-16.4562,64.8233,10.0208,-0.0000,-1.6643,-11.1842,-0.9948,0.0000,0.002590,0.001708,0.001990,0.0018,0.0049,0.0013,-180.0000,0.0000,0.0000
2,0.0200,-0.0140,-0.0196,-0.0387,0.0456,0.0000,0.0000,0.0000,20.0000,0.5748,0.1066,41.1554,5.7517,0.0000,0.000733,10.0208,-48.3671,-16.4562,64.8233,10.0208,-0.0000,-1.6643,-11.1842,-0.9948,0.0000,0.000010,0.002880,0.004974,0.0015,0.0053,0.0005,-180.0000,0.0000,0.0000
3,0.0300,-0.0389,-0.0293,-0.0555,0.0738,0.0000,0.0000,0.0000,20.0000,1.0212,0.1447,53.8394,8.0481,0.0000,0.000751,10.0208,-48.3671,-16.4562,64.8233,10.0208,-0.0000,-1.6643,-11.1842,-0.9948,0.0000,-0.003909,0.004496,0.008294,0.0003,0.0049,0.0000,-180.0000,0.0000,0.0000
4,0.0400,-0.0604,-0.0277,-0.0662,0.0938,0.0000,0.0000,0.0000,20.0000,1.4827,0.2056,52.3947,10.5272,0.0000,0.000816,10.0208,-48.3671,-16.4562,64.8233,10.0208,-0.0000,-1.6643,-11.1842,-0.9948,0.0000,-0.008220,0.005215,0.011184,-0.0003,0.0050,-0.0003,-180.0000,0.0000,0.0000
5,0.0500,-0.0762,-0.0232,-0.0662,0.1036,0.0000,0.0000,0.0000,20.0000,1.8368,0.2856,42.4953,12.5580,0.0000,0.000803,10.0208,-48.3671,-16.4562,64.8233,10.0208,-0.0000,-1.6643,-11.1842,-0.9948,0.0000,-0.012166,0.005153,0.012760,-0.0013,0.0048,0.0009,-180.0000,0.0000,0.0000
6,0.0600,-0.0810,-0.0277,-0.0565,0.1026,0.0000,0.0000,0.0000,20.0000,2.0239,0.3760,26.6924,13.7702,0.0000,0.001262,10.0208,-48.3671,-16.4562,64.8233,10.0208,-0.0000,-1.6643,-11.1842,-0.9948,0.0000,-0.014800,0.005565,0.012634,-0.0013,0.0043,-0.0006,-180.0000,0.0000,0.0000
7,0.0700,-0.0734,-0.0361,-0.0359,0.0893,0.0000,0.0000,0.0000,20.0000,1.9817,0.4655,24.9511,14.4331,0.0001,0.000705,10.0208,-48.3671,-16.4562,64.8233,10.0208,-0.0000,-1.6643,-11.1842,-0.9948,0.0000,-0.015465,0.006621,0.010474,-0.0001,0.0031,-0.0005,-180.0000,0.0000,0.0000
8,0.0800,-0.0584,-0.0408,-0.0073,0.0716,0.0000,0.0000,0.0000,20.0000,1.7441,0.5424,43.6138,15.5250,0.0001,0.000756,10.0208,-48.3671,-16.4562,64.8233,10.0208,-0.0000,-1.6643,-11.1842,-0.9948,0.0000,-0.014304,0.007658,0.006400,0.0001,0.0026,0.0003,-180.0000,0.0000,0.0000
9,0.0900,-0.0438,-0.0476,0.0201,0.0678,0.0000,0.0000,0.0000,20.0000,1.5145,0.6022,55.7689,17.4044,0.0001,0.000715,10.0208,-48.3671,-16.4562,64.8233,10.0208,-0.0000,-1.6643,-11.1842,-0.9948,0.0000,-0.012174,0.008901,0.001398,-0.0009,0.0022,0.0003,-180.0000,0.0000,0.0000
10,0.1000,-0.0344,-0.0595,0.0459,0.0826,0.0000,0.0000,0.0000,20.0000,1.5229,0.6526,60.5348,19.6458,0.0001,0.000705,10.0208,-48.3671,-16.4562,64.8233,10.0208,-0.0000,-1.6643,-11.1842,-0.9948,0.0000,-0.010032,0.010754,-0.003952,-0.0009,0.0018,-0.0022,-180.0000,0.0000,0.0000
11,0.1100,-0.0299,-0.0666,0.0727,0.1030,0.0000,0.0000,0.0000,20.0000,1.7816,0.7076,61.0636,21.9096,0.0002,0.000964,10.0208,-48.3671,-16.4562,64.8233,10.0208,-0.0000,-1.6643,-11.1842,-0.9948,0.0000,-0.008382,0.012468,-0.009576,-0.0014,0.0020,-0.0012,-180.0000,0.0000,0.0000
12,0.1200,-0.0297,-0.0655,0.0940,0.1183,0.0000,0.0000,0.0000,20.0000,2.1225,0.7760,53.7038,23.8610,0.0002,0.000743,10.0208,-48.3671,-16.4562,64.8233,10.0208,-0.0000,-1.6643,-11.1842,-0.9948,0.0000,-0.007425,0.013282,-0.014797,-0.0024,0.0024,-0.0011,-180.0000,0.0000,0.0000
13,0.1300,-0.0339,-0.0629,0.1085,0.1300,0.0000,0.0000,0.0000,20.0000,2.4485,0.8591,43.1859,25.2133,0.0002,0.000746,10.0208,-48.3671,-16.4562,64.8233,10.0208,-0.0000,-1.6643,-11.1842,-0.9948,0.0000,-0.007310,0.013448,-0.019111,-0.0029,0.0034,-0.0027,-180.0000,0.0000,0.0000
14,0.1400,-0.0367,-0.0610,0.1200,0.1395,0.0000,0.0000,0.0000,20.0000,2.7291,0.9542,34.5412,25.9641,0.0003,0.000852,10.0287,-48.3745,-16.4566,64.8311,10.0287,-0.0000,-1.6643,-11.1842,-0.9948,0.0000,-0.007559,0.013375,-0.022556,-0.0023,0.0045,-0.0036,-180.0000,0.0000,-0.0000
15,0.1500,-0.0367,-0.0568,0.1265,0.1434,0.0000,0.0000,0.0000,20.0000,2.9207,1.0571,25.5445,26.1885,0.0003,0.000766,10.0287,-48.3745,-16.4566,64.8311,10.0287,-0.0000,-1.6643,-11.1842,-0.9948,0.0000,-0.007681,0.012885,-0.025060,-0.0030,0.0046,-0.0031,-180.0000,0.0000,-0.0000
16,0.1600,-0.0393,-0.0575,0.1271,0.1449,0.0000,0.0000,0.0000,20.0000,3.0402,1.1629,14.4726,25.8486,0.0004,0.000727,10.0287,-48.3745,-16.4566,64.8311,10.0287,-0.0000,-1.6643,-11.1842,-0.9948,0.0000,-0.007992,0.012667,-0.026456,-0.0035,0.0038,-0.0026,-180.0000,0.0000,-0.0000
17,0.1700,-0.0296,-0.0654,0.1250,0.1441,0.0000,0.0000,0.0000,20.0000,3.0910,1.2676,11.5375,25.1421,0.0005,0.000817,10.0287,-48.3745,-16.4566,64.8311,10.0287,-0.0000,-1.6643,-11.1842,-0.9948,0.0000,-0.007174,0.013303,-0.026963,-0.0029,0.0013,-0.0007,-180.0000,0.0000,-0.0000
18,0.1800,-0.0113,-0.0729,0.1206,0.1413,0.0000,0.0000,0.0000,20.0000,3.0759,1.3675,25.4574,24.7766,0.0006,0.000777,10.0287,-48.3745,-16.4566,64.8311,10.0287,-0.0000,-1.6643,-11.1842,-0.9948,0.0000,-0.004878,0.014382,-0.026749,-0.0001,0.0000,0.0005,-180.0000,0.0000,-0.0000
19,0.1900,0.0049,-0.0783,0.1146,0.1388,0.0000,0.0000,0.0000,20.0000,3.0308,1.4602,31.9636,24.9930,0.0007,0.000774,10.0287,-48.3745,-16.4566,64.8311,10.0287,-0.0000,-1.6643,-11.1842,-0.9948,0.0000,-0.001979,0.015486,-0.025978,0.0007,-0.0010,0.0014,-180.0000,0.0000,-0.0000
20,0.2000,0.0251,-0.0837,0.1062,0.1376,0.0000,0.0000,0.0000,20.0000,2.9783,1.5452,40.1501,25.6016,0.0009,0.002599,10.0287,-48.3745,-16.4566,64.8311,10.0287,-0.0000,-1.6643,-11.1842,-0.9948,0.0000,0.001645,0.016611,-0.024666,0.0011,-0.0009,0.0018,-180.0000,0.0000,-0.0000
21,0.2100,0.0352,-0.0869,0.0934,0.1324,0.0000,0.0000,0.0000,20.0000,2.8981,1.6218,37.5754,26.3310,0.0010,0.000752,10.0287,-48.3745,-16.4566,64.8311,10.0287,-0.0000,-1.6643,-11.1842,-0.9948,0.0000,0.004658,0.017519,-0.022612,-0.0001,0.0015,0.0002,-180.0000,0.0000,-0.0000
22,0.2200,0.0287,-0.0811,0.0782,0.1162,0.0000,0.0000,0.0000,20.0000,2.7041,1.6867,28.8651,26.7100,0.0012,0.000762,10.0287,-48.3745,-16.4566,64.8311,10.0287,-0.0000,-1.6643,-11.1842,-0.9948,0.0000,0.005662,0.017401,-0.019908,0.0002,0.0026,-0.0015,-180.0000,0.0000,-0.0000
23,0.2300,0.0230,-0.0648,0.0614,0.0922,0.0000,0.0000,0.0000,20.0000,2.3585,1.7331,36.4751,27.0378,0.0013,0.000791,10.0287,-48.3745,-16.4566,64.8311,10.0287,-0.0000,-1.6643,-11.1842,-0.9948,0.0000,0.005637,0.015677,-0.016694,-0.0013,0.0027,-0.0012,-180.0000,0.0000,-0.0000
24,0.2400,0.0205,-0.0463,0.0414,0.0654,0.0000,0.0000,0.0000,20.0000,1.8963,1.7548,47.5774,27.8623,0.0014,0.000791,10.0287,-48.3745,-16.4566,64.8311,10.0287,-0.0000,-1.6643,-11.1842,-0.9948,0.0000,0.005359,0.012841,-0.012885,-0.0016,0.0029,-0.0016,-180.0000,0.0000,-0.0000
25,0.2500,0.0140,-0.0340,0.0233,0.0435,0.0000,0.0000,0.0000,20.0000,1.4175,1.7494,49.1915,28.9912,0.0015,0.000749,10.0287,-48.3745,-16.4566,64.8311,10.0287,-0.0000,-1.6643,-11.1842,-0.9948,0.0000,0.004549,0.010014,-0.008941,-0.0026,0.0035,-0.0024,-180.0000,0.0000,-0.0000
26,0.2600,0.0082,-0.0253,0.0095,0.0282,0.0000,0.0000,0.0000,20.0000,0.9915,1.7194,44.5838,29.9757,0.0015,0.000792,10.0287,-48.3745,-16.4566,64.8311,10.0287,-0.0000,-1.6643,-11.1842,-0.9948,0.0000,0.003508,0.007564,-0.005364,-0.0022,0.0030,-0.0029,-180.0000,0.0000,-0.0000
27,0.2700,-0.0009,-0.0178,-0.0023,0.0180,0.0000,0.0000,0.0000,20.0000,0.6208,1.6692,40.9363,30.6789,0.0016,0.000724,10.0287,-48.3745,-16.4566,64.8311,10.0287,-0.0000,-1.6643,-11.1842,-0.9948,0.0000,0.002013,0.005447,-0.002196,-0.0018,0.0024,-0.0025,-180.0000,0.0000,-0.0000
28,0.2800,-0.0142,-0.0188,-0.0067,0.0245,0.0000,0.0000,0.0000,20.0000,0.4366,1.6065,32.6559,31.0154,0.0016,0.000762,10.0287,-48.3745,-16.4566,64.8311,10.0287,-0.0000,-1.6643,-11.1842,-0.9948,0.0000,-0.000146,0.004364,0.000001,-0.0018,0.0019,-0.0026,-180.0000,0.0000,-0.0000
29,0.2900,-0.0230,-0.0281,-0.0015,0.0364,0.0000,0.0000,0.0000,20.0000,0.5234,1.5445,22.0518,30.8140,0.0016,0.000754,10.0287,-48.3745,-16.4566,64.8311,10.0287,-0.0000,-1.6643,-11.1842,-0.9948,0.0000,-0.002215,0.004691,0.000693,-0.0021,0.0019,-0.0019,-180.0000,0.0000,-0.0000
30,0.3000,-0.0318,-0.0381,0.0099,0.0506,0.0000,0.0000,0.0000,20.0000,0.7229,1.4938,24.5368,30.4003,0.0017,0.000716,10.0287,-48.3745,-16.4566,64.8311,10.0287,-0.0000,-1.6643,-11.1842,-0.9948,0.0000,-0.004237,0.005857,-0.000062,-0.0015,0.0017,-0.0006,-180.0000,0.0000,-0.0000
31,0.3100,-0.0388,-0.0432,0.0272,0.0641,0.0000,0.0000,0.0000,20.0000,0.9515,1.4577,30.3459,30.2376,0.0018,0.000772,10.0287,-48.3745,-16.4566,64.8311,10.0287,-0.0000,-1.6643,-11.1842,-0.9948,0.0000,-0.006051,0.007004,-0.002207,-0.0008,0.0008,0.0002,-180.0000,0.0000,-0.0000
32,0.3200,-0.0382,-0.0480,0.0491,0.0786,0.0000,0.0000,0.0000,20.0000,1.2067,1.4369,36.7289,30.4191,0.0018,0.000813,10.0287,-48.3745,-16.4566,64.8311,10.0287,-0.0000,-1.6643,-11.1842,-0.9948,0.0000,-0.006980,0.008105,-0.005586,-0.0019,0.0015,-0.0003,-180.0000,0.0000,-0.0000
33,0.3300,-0.0376,-0.0506,0.0673,0.0922,0.0000,0.0000,0.0000,20.0000,1.4865,1.4319,37.9638,30.8001,0.0020,0.000759,10.0287,-48.3745,-16.4566,64.8311,10.0287,-0.0000,-1.6643,-11.1842,-0.9948,0.0000,-0.007418,0.008956,-0.009260,-0.0012,0.0020,-0.0005,-180.0000,0.0000,-0.0000
34,0.3400,-0.0412,-0.0398,0.0777,0.0965,0.0000,0.0000,0.0000,20.0000,1.7416,1.4419,35.1337,31.1163,0.0021,0.000746,10.0766,-48.3745,-16.4253,64.7998,10.0766,0.0190,-1.6661,-11.1823,-0.9945,-0.0000,-0.008160,0.008709,-0.012685,-0.0003,0.0020,-0.0010,-180.0000,-0.0000,0.0000
35,0.3500,-0.0381,-0.0142,0.0832,0.0926,0.0000,0.0000,0.0000,20.0000,1.8222,1.4606,36.3969,31.3721,0.0023,0.000734,10.0766,-48.3745,-16.4253,64.7998,10.0766,0.0190,-1.6661,-11.1823,-0.9945,-0.0000,-0.008243,0.005992,-0.015106,0.0001,0.0004,-0.0011,-180.0000,-0.0000,0.0000
36,0.3600,-0.0262,0.0136,0.0872,0.0921,0.0000,0.0000,0.0000,20.0000,1.8326,1.4808,47.6511,31.9580,0.0024,0.000766,10.0766,-48.3745,-16.4253,64.7998,10.0766,0.0190,-1.6661,-11.1823,-0.9945,-0.0000,-0.007081,0.001699,-0.016817,-0.0002,0.0008,-0.0006,-180.0000,-0.0000,0.0000
37,0.3700,-0.0141,0.0351,0.0905,0.0981,0.0000,0.0000,0.0000,20.0000,1.9005,1.5020,50.4992,32.8996,0.0025,0.000752,10.0766,-48.3745,-16.4253,64.7998,10.0766,0.0190,-1.6661,-11.1823,-0.9945,-0.0000,-0.005209,-0.002824,-0.018058,0.0002,0.0016,0.0001,-180.0000,-0.0000,0.0000
38,0.3800,-0.0048,0.0438,0.0959,0.1056,0.0000,0.0000,0.0000,20.0000,2.0476,1.5280,40.7881,33.6006,0.0026,0.000741,10.0766,-48.3745,-16.4253,64.7998,10.0766,0.0190,-1.6661,-11.1823,-0.9945,-0.0000,-0.003239,-0.006192,-0.019246,-0.0022,0.0019,0.0007,-180.0000,-0.0000,0.0000
39,0.3900,0.0030,0.0475,0.1076,0.1177,0.0000,0.0000,0.0000,20.0000,2.2692,1.5627,34.1373,33.8131,0.0027,0.000736,10.0766,-48.3745,-16.4253,64.7998,10.0766,0.0190,-1.6661,-11.1823,-0.9945,-0.0000,-0.001359,-0.008413,-0.021030,-0.0037,0.0010,0.0005,-180.0000,-0.0000,0.0000
40,0.4000,0.0120,0.0481,0.1200,0.1298,0.0000,0.0000,0.0000,20.0000,2.5161,1.6083,31.8409,33.7677,0.0028,0.000748,10.0766,-48.3745,-16.4253,64.7998,10.0766,0.0190,-1.6661,-11.1823,-0.9945,-0.0000,0.000578,-0.009681,-0.023217,-0.0057,0.0025,0.0001,-180.0000,-0.0000,0.0000
41,0.4100,0.0203,0.0360,0.1206,0.1275,0.0000,0.0000,0.0000,20.0000,2.6211,1.6611,23.1907,33.4238,0.0030,0.000860,10.0766,-48.3745,-16.4253,64.7998,10.0766,0.0190,-1.6661,-11.1823,-0.9945,-0.0000,0.002480,-0.009155,-0.024435,-0.0053,0.0023,0.0007,-180.0000,-0.0000,0.0000
42,0.4200,0.0310,0.0169,0.1112,0.1167,0.0000,0.0000,0.0000,20.0000,2.5520,1.7121,30.8479,33.0715,0.0031,0.003551,10.0766,-48.3745,-16.4253,64.7998,10.0766,0.0190,-1.6661,-11.1823,-0.9945,-0.0000,0.004594,-0.006930,-0.024128,-0.0042,0.0018,0.0012,-180.0000,-0.0000,0.0000
43,0.4300,0.0465,-0.0024,0.0986,0.1090,0.0000,0.0000,0.0000,20.0000,2.4088,1.7543,44.2582,33.3181,0.0033,0.000790,10.0766,-48.3745,-16.4253,64.7998,10.0766,0.0190,-1.6661,-11.1823,-0.9945,-0.0000,0.007306,-0.003763,-0.022643,-0.0018,0.0015,0.0016,-180.0000,-0.0000,0.0000
44,0.4400,0.0614,-0.0300,0.0828,0.1074,0.0000,0.0000,0.0000,20.0000,2.2676,1.7864,59.3857,34.3359,0.0034,0.000805,10.0766,-48.3745,-16.4253,64.7998,10.0766,0.0190,-1.6661,-11.1823,-0.9945,-0.0000,0.010274,0.000764,-0.020201,-0.0012,0.0023,0.0019,-180.0000,-0.0000,0.0000
45,0.4500,0.0648,-0.0631,0.0674,0.1128,0.0000,0.0000,0.0000,20.0000,2.2163,1.8115,68.0216,35.9514,0.0036,0.000746,10.0766,-48.3745,-16.4253,64.7998,10.0766,0.0190,-1.6661,-11.1823,-0.9945,-0.0000,0.012243,0.006575,-0.017264,0.0001,0.0035,0.0023,-180.0000,-0.0000,0.0000
46,0.4600,0.0536,-0.0815,0.0580,0.1135,0.0000,0.0000,0.0000,20.0000,2.2324,1.8342,56.6359,37.4023,0.0038,0.000746,10.0766,-48.3745,-16.4253,64.7998,10.0766,0.0190,-1.6661,-11.1823,-0.9945,-0.0000,0.012180,0.011610,-0.014671,-0.0015,0.0036,0.0010,-180.0000,-0.0000,0.0000
47,0.4700,0.0330,-0.0828,0.0560,0.1053,0.0000,0.0000,0.0000,20.0000,2.1924,1.8550,39.5447,37.9903,0.0040,0.000729,10.0766,-48.3745,-16.4253,64.7998,10.0766,0.0190,-1.6661,-11.1823,-0.9945,-0.0000,0.010060,0.014502,-0.013005,-0.0023,0.0035,0.0012,-180.0000,-0.0000,0.0000
48,0.4800,0.0131,-0.0718,0.0572,0.0927,0.0000,0.0000,0.0000,20.0000,2.0490,1.8696,33.1460,37.8998,0.0042,0.000670,10.0766,-48.3745,-16.4253,64.7998,10.0766,0.0190,-1.6661,-11.1823,-0.9945,-0.0000,0.006884,0.014970,-0.012180,-0.0023,0.0033,0.0011,-180.0000,-0.0000,0.0000
49,0.4900,-0.0074,-0.0506,0.0571,0.0767,0.0000,0.0000,0.0000,20.0000,1.7814,1.8721,42.9173,37.9070,0.0044,0.000771,10.0766,-48.3745,-16.4253,64.7998,10.0766,0.0190,-1.6661,-11.1823,-0.9945,-0.0000,0.003060,0.013083,-0.011696,-0.0008,0.0040,-0.0002,-180.0000,-0.0000,0.0000
50,0.5000,-0.0252,-0.0272,0.0516,0.0635,0.0000,0.0000,0.0000,20.0000,1.4557,1.8582,52.4999,38.4462,0.0046,0.000921,10.0766,-48.3745,-16.4253,64.7998,10.0766,0.0190,-1.6661,-11.1823,-0.9945,-0.0000,-0.000838,0.009669,-0.010850,0.0000,0.0029,-0.0024,-180.0000,-0.0000,0.0000
51,0.5100,-0.0253,-0.0136,0.0451,0.0535,0.0000,0.0000,0.0000,20.0000,1.2016,1.8291,40.7581,38.8963,0.0048,0.000664,10.0766,-48.3745,-16.4253,64.7998,10.0766,0.0190,-1.6661,-11.1823,-0.9945,-0.0000,-0.002999,0.006406,-0.009713,-0.0004,0.0023,-0.0028,-180.0000,-0.0000,0.0000
52,0.5200,-0.0139,-0.0131,0.0373,0.0419,0.0000,0.0000,0.0000,20.0000,0.9921,1.7888,23.5793,38.5262,0.0049,0.000956,10.0766,-48.3745,-16.4253,64.7998,10.0766,0.0190,-1.6661,-11.1823,-0.9945,-0.0000,-0.003054,0.004535,-0.008279,-0.0021,0.0023,-0.0030,-180.0000,-0.0000,0.0000
53,0.5300,-0.0060,-0.0216,0.0228,0.0320,0.0000,0.0000,0.0000,20.0000,0.7769,1.7390,23.8925,37.7127,0.0050,0.000751,10.0766,-48.3745,-16.4253,64.7998,10.0766,0.0190,-1.6661,-11.1823,-0.9945,-0.0000,-0.002284,0.004340,-0.006025,-0.0017,0.0019,-0.0035,-180.0000,-0.0000,0.0000
54,0.5400,-0.0019,-0.0341,0.0058,0.0346,0.0000,0.0000,0.0000,20.0000,0.6933,1.6838,28.3822,37.0759,0.0051,0.000688,10.1033,-48.3539,-16.3854,64.7392,10.1033,-0.0048,-1.6644,-11.1981,-0.9968,0.0000,-0.001479,0.005696,-0.003665,-0.0032,0.0008,-0.0025,-180.0000,-0.0000,-0.0000
55,0.5500,-0.0046,-0.0400,-0.0081,0.0411,0.0000,0.0000,0.0000,20.0000,0.7215,1.6301,30.1941,36.6475,0.0052,0.000743,10.1033,-48.3539,-16.3854,64.7392,10.1033,-0.0048,-1.6644,-11.1981,-0.9968,0.0000,-0.001304,0.007031,-0.000962,-0.0032,0.0008,-0.0009,-180.0000,-0.0000,-0.0000
56,0.5600,-0.0199,-0.0339,-0.0231,0.0455,0.0000,0.0000,0.0000,20.0000,0.7906,1.5820,33.1671,36.3743,0.0052,0.000745,10.1033,-48.3539,-16.3854,64.7392,10.1033,-0.0048,-1.6644,-11.1981,-0.9968,0.0000,-0.002728,0.007137,0.002031,-0.0012,0.0014,-0.0005,-180.0000,-0.0000,-0.0000
57,0.5700,-0.0403,-0.0239,-0.0393,0.0611,0.0000,0.0000,0.0000,20.0000,0.9859,1.5439,44.2894,36.5038,0.0052,0.000700,10.1033,-48.3539,-16.3854,64.7392,10.1033,-0.0048,-1.6644,-11.1981,-0.9968,0.0000,-0.005557,0.006181,0.005302,0.0005,0.0019,-0.0012,-180.0000,-0.0000,-0.0000
58,0.5800,-0.0570,-0.0154,-0.0437,0.0735,0.0000,0.0000,0.0000,20.0000,1.2526,1.5205,41.6148,36.8585,0.0052,0.000751,10.1033,-48.3539,-16.3854,64.7392,10.1033,-0.0048,-1.6644,-11.1981,-0.9968,0.0000,-0.008774,0.004792,0.007547,-0.0013,0.0032,-0.0010,-180.0000,-0.0000,-0.0000
59,0.5900,-0.0593,-0.0075,-0.0389,0.0714,0.0000,0.0000,0.0000,20.0000,1.3969,1.5097,26.4167,36.7021,0.0052,0.000803,10.1033,-48.3539,-16.3854,64.7392,10.1033,-0.0048,-1.6644,-11.1981,-0.9968,0.0000,-0.010768,0.003228,0.008292,-0.0010,0.0040,-0.0000,-180.0000,-0.0000,-0.0000
60,0.6000,-0.0517,0.0037,-0.0308,0.0603,0.0000,0.0000,0.0000,20.0000,1.3652,1.5027,20.5660,35.9754,0.0051,0.000757,10.1033,-48.3539,-16.3854,64.7392,10.1033,-0.0048,-1.6644,-11.1981,-0.9968,0.0000,-0.011085,0.001239,0.007872,-0.0003,0.0046,-0.0009,-180.0000,-0.0000,-0.0000
61,0.6100,-0.0509,0.0137,-0.0216,0.0569,0.0000,0.0000,0.0000,20.0000,1.3043,1.4934,24.0737,35.2243,0.0051,0.000741,10.1033,-48.3539,-16.3854,64.7392,10.1033,-0.0048,-1.6644,-11.1981,-0.9968,0.0000,-0.011156,-0.000863,0.006701,0.0002,0.0047,-0.0011,-180.0000,-0.0000,-0.0000
62,0.6200,-0.0501,0.0134,-0.0164,0.0544,0.0000,0.0000,0.0000,20.0000,1.2556,1.4817,16.2930,34.3969,0.0050,0.000775,10.1033,-48.3539,-16.3854,64.7392,10.1033,-0.0048,-1.6644,-11.1981,-0.9968,0.0000,-0.011095,-0.001993,0.005529,-0.0006,0.0038,-0.0000,-180.0000,-0.0000,-0.0000
63,0.6300,-0.0429,0.0129,-0.0160,0.0476,0.0000,0.0000,0.0000,20.0000,1.1681,1.4668,11.9052,33.2804,0.0050,0.000729,10.1033,-48.3539,-16.3854,64.7392,10.1033,-0.0048,-1.6644,-11.1981,-0.9968,0.0000,-0.010323,-0.002566,0.004827,0.0008,0.0036,0.0002,-180.0000,-0.0000,-0.0000
64,0.6400,-0.0447,0.0167,-0.0158,0.0502,0.0000,0.0000,0.0000,20.0000,1.1448,1.4498,8.5361,32.0119,0.0050,0.000742,10.1033,-48.3539,-16.3854,64.7392,10.1033,-0.0048,-1.6644,-11.1981,-0.9968,0.0000,-0.010050,-0.003258,0.004409,0.0028,0.0032,-0.0011,-180.0000,-0.0000,-0.0000
65,0.6500,-0.0496,-0.0001,-0.0150,0.0519,0.0000,0.0000,0.0000,20.0000,1.1325,1.4326,13.7571,30.8641,0.0049,0.000736,10.1033,-48.3539,-16.3854,64.7392,10.1033,-0.0048,-1.6644,-11.1981,-0.9968,0.0000,-0.010376,-0.001960,0.004093,0.0013,0.0023,0.0001,-180.0000,-0.0000,-0.0000
66,0.6600,-0.0462,-0.0354,-0.0066,0.0586,0.0000,0.0000,0.0000,20.0000,1.0889,1.4149,43.8529,30.7509,0.0050,0.000746,10.1033,-48.3539,-16.3854,64.7392,10.1033,-0.0048,-1.6644,-11.1981,-0.9968,0.0000,-0.010192,0.002299,0.003065,0.0003,0.0018,0.0005,-180.0000,-0.0000,-0.0000
67,0.6700,-0.0366,-0.0529,0.0136,0.0657,0.0000,0.0000,0.0000,20.0000,1.1139,1.3977,49.6620,31.6314,0.0051,0.000740,10.1033,-48.3539,-16.3854,64.7392,10.1033,-0.0048,-1.6644,-11.1981,-0.9968,0.0000,-0.009110,0.006393,0.000469,0.0015,0.0021,-0.0002,-180.0000,-0.0000,-0.0000
68,0.6800,-0.0250,-0.0509,0.0303,0.0643,0.0000,0.0000,0.0000,20.0000,1.1495,1.3831,41.1996,32.3904,0.0052,0.000713,10.1033,-48.3539,-16.3854,64.7392,10.1033,-0.0048,-1.6644,-11.1981,-0.9968,0.0000,-0.007338,0.008448,-0.002631,0.0024,0.0032,-0.0004,-180.0000,-0.0000,-0.0000
69,0.6900,-0.0162,-0.0468,0.0399,0.0636,0.0000,0.0000,0.0000,20.0000,1.1904,1.3713,33.3981,32.6604,0.0054,0.000674,10.1033,-48.3539,-16.3854,64.7392,10.1033,-0.0048,-1.6644,-11.1981,-0.9968,0.0000,-0.005460,0.009153,-0.005301,0.0006,0.0043,0.0005,-180.0000,-0.0000,-0.0000
70,0.7000,-0.0091,-0.0298,0.0457,0.0553,0.0000,0.0000,0.0000,20.0000,1.1358,1.3599,30.1273,32.6111,0.0055,0.000766,10.1033,-48.3539,-16.3854,64.7392,10.1033,-0.0048,-1.6644,-11.1981,-0.9968,0.0000,-0.003697,0.007827,-0.007353,0.0033,0.0040,-0.0001,-180.0000,-0.0000,-0.0000
71,0.7100,-0.0010,-0.0097,0.0407,0.0418,0.0000,0.0000,0.0000,20.0000,0.9632,1.3428,33.4609,32.5661,0.0057,0.000712,10.1033,-48.3539,-16.3854,64.7392,10.1033,-0.0048,-1.6644,-11.1981,-0.9968,0.0000,-0.001907,0.005068,-0.007966,0.0022,0.0049,-0.0002,-180.0000,-0.0000,-0.0000
72,0.7200,0.0025,-0.0079,0.0307,0.0318,0.0000,0.0000,0.0000,20.0000,0.8049,1.3176,22.7530,32.3208,0.0058,0.000700,10.1033,-48.3539,-16.3854,64.7392,10.1033,-0.0048,-1.6644,-11.1981,-0.9968,0.0000,-0.000566,0.003357,-0.007294,0.0012,0.0048,-0.0002,-180.0000,-0.0000,-0.0000
73,0.7300,0.0020,-0.0257,0.0290,0.0388,0.0000,0.0000,0.0000,20.0000,0.8166,1.2897,11.9916,31.4985,0.0059,0.000723,10.1326,-48.3798,-16.3607,64.7404,10.1326,-0.0040,-1.6674,-11.1904,-0.9957,0.0000,-0.000120,0.004392,-0.006883,0.0003,0.0029,-0.0006,-180.0000,-0.0000,0.0000
74,0.7400,0.0012,-0.0491,0.0335,0.0594,0.0000,0.0000,0.0000,20.0000,1.0171,1.2692,29.0872,30.8957,0.0060,0.000706,10.1326,-48.3798,-16.3607,64.7404,10.1326,-0.0040,-1.6674,-11.1904,-0.9957,0.0000,0.000048,0.007288,-0.007094,-0.0003,0.0031,-0.0009,-180.0000,-0.0000,0.0000
75,0.7500,-0.0005,-0.0656,0.0436,0.0788,0.0000,0.0000,0.0000,20.0000,1.3346,1.2640,34.2361,30.9378,0.0062,0.000699,10.1326,-48.3798,-16.3607,64.7404,10.1326,-0.0040,-1.6674,-11.1904,-0.9957,0.0000,-0.000029,0.010526,-0.008204,-0.0005,0.0021,-0.0003,-180.0000,-0.0000,0.0000
76,0.7600,-0.0042,-0.0754,0.0552,0.0936,0.0000,0.0000,0.0000,20.0000,1.6606,1.2769,32.9252,31.0832,0.0065,0.000656,10.1326,-48.3798,-16.3607,64.7404,10.1326,-0.0040,-1.6674,-11.1904,-0.9957,0.0000,-0.000441,0.013280,-0.009960,0.0017,0.0018,-0.0013,-180.0000,-0.0000,0.0000
77,0.7700,-0.0146,-0.0773,0.0645,0.1017,0.0000,0.0000,0.0000,20.0000,1.9158,1.3050,28.2349,31.0555,0.0068,0.000793,10.1326,-48.3798,-16.3607,64.7404,10.1326,-0.0040,-1.6674,-11.1904,-0.9957,0.0000,-0.001710,0.014967,-0.011836,0.0025,0.0013,-0.0016,-180.0000,-0.0000,0.0000
78,0.7800,-0.0256,-0.0736,0.0723,0.1063,0.0000,0.0000,0.0000,20.0000,2.0936,1.3435,25.9611,30.8378,0.0071,0.000686,10.1326,-48.3798,-16.3607,64.7404,10.1326,-0.0040,-1.6674,-11.1904,-0.9957,0.0000,-0.003506,0.015496,-0.013635,0.0027,0.0005,-0.0026,-180.0000,-0.0000,0.0000
79,0.7900,-0.0352,-0.0690,0.0756,0.1083,0.0000,0.0000,0.0000,20.0000,2.2063,1.3879,23.4473,30.5004,0.0075,0.000714,10.1326,-48.3798,-16.3607,64.7404,10.1326,-0.0040,-1.6674,-11.1904,-0.9957,0.0000,-0.005449,0.015300,-0.014933,0.0027,0.0004,-0.0038,-180.0000,-0.0000,0.0000
80,0.8000,-0.0494,-0.0689,0.0694,0.1096,0.0000,0.0000,0.0000,20.0000,2.2749,1.4348,24.8830,30.1519,0.0079,0.000719,10.1326,-48.3798,-16.3607,64.7404,10.1326,-0.0040,-1.6674,-11.1904,-0.9957,0.0000,-0.007931,0.015150,-0.015003,0.0012,0.0012,-0.0054,-180.0000,-0.0000,0.0000
81,0.8100,-0.0686,-0.0775,0.0604,0.1198,0.0000,0.0000,0.0000,20.0000,2.4026,1.4845,34.8143,30.1353,0.0083,0.000736,10.1326,-48.3798,-16.3607,64.7404,10.1326,-0.0040,-1.6674,-11.1904,-0.9957,0.0000,-0.011213,0.015890,-0.014107,-0.0013,0.0019,-0.0048,-180.0000,-0.0000,0.0000
82,0.8200,-0.0872,-0.0929,0.0543,0.1385,0.0000,0.0000,0.0000,20.0000,2.6583,1.5420,42.8232,30.6129,0.0088,0.000730,10.1326,-48.3798,-16.3607,64.7404,10.1326,-0.0040,-1.6674,-11.1904,-0.9957,0.0000,-0.014865,0.017817,-0.012971,-0.0024,0.0025,-0.0046,-180.0000,-0.0000,0.0000
83,0.8300,-0.1040,-0.1035,0.0463,0.1538,0.0000,0.0000,0.0000,20.0000,2.9531,1.6115,44.6086,31.3337,0.0093,0.000743,10.1326,-48.3798,-16.3607,64.7404,10.1326,-0.0040,-1.6674,-11.1904,-0.9957,0.0000,-0.018532,0.019900,-0.011517,-0.0026,0.0041,-0.0040,-180.0000,-0.0000,0.0000
84,0.8400,-0.1188,-0.1147,0.0369,0.1692,0.0000,0.0000,0.0000,20.0000,3.2691,1.6940,44.8254,32.0699,0.0098,0.000727,10.1326,-48.3798,-16.3607,64.7404,10.1326,-0.0040,-1.6674,-11.1904,-0.9957,0.0000,-0.021996,0.022131,-0.009752,-0.0034,0.0043,-0.0036,-180.0000,-0.0000,0.0000
85,0.8500,-0.1275,-0.1286,0.0300,0.1836,0.0000,0.0000,0.0000,20.0000,3.5889,1.7895,41.3196,32.6751,0.0104,0.000667,10.1326,-48.3798,-16.3607,64.7404,10.1326,-0.0040,-1.6674,-11.1904,-0.9957,0.0000,-0.024743,0.024714,-0.008063,-0.0036,0.0045,-0.0028,-180.0000,-0.0000,0.0000
86,0.8600,-0.1279,-0.1288,0.0217,0.1828,0.0000,0.0000,0.0000,20.0000,3.7559,1.8930,27.1691,32.7614,0.0111,0.000724,10.1326,-48.3798,-16.3607,64.7404,10.1326,-0.0040,-1.6674,-11.1904,-0.9957,0.0000,-0.026253,0.026113,-0.006289,-0.0014,0.0040,-0.0030,-180.0000,-0.0000,0.0000
87,0.8700,-0.1234,-0.1162,0.0054,0.1696,0.0000,0.0000,0.0000,20.0000,3.7069,1.9942,26.9728,32.4484,0.0117,0.000714,10.1326,-48.3798,-16.3607,64.7404,10.1326,-0.0040,-1.6674,-11.1904,-0.9957,0.0000,-0.026586,0.025570,-0.003668,-0.0005,0.0036,-0.0032,-180.0000,-0.0000,0.0000
88,0.8800,-0.1211,-0.1034,-0.0184,0.1603,0.0000,0.0000,0.0000,20.0000,3.5702,2.0846,41.6771,32.5516,0.0122,0.000711,10.1326,-48.3798,-16.3607,64.7404,10.1326,-0.0040,-1.6674,-11.1904,-0.9957,0.0000,-0.026481,0.023946,0.000168,-0.0006,0.0025,-0.0023,-180.0000,-0.0000,0.0000
89,0.8900,-0.1182,-0.0897,-0.0393,0.1535,0.0000,0.0000,0.0000,20.0000,3.4164,2.1621,48.2686,33.2349,0.0127,0.000710,10.1326,-48.3798,-16.3607,64.7404,10.1326,-0.0040,-1.6674,-11.1904,-0.9957,0.0000,-0.026085,0.021624,0.004382,0.0003,0.0020,-0.0024,-180.0000,-0.0000,0.0000
90,0.9000,-0.1154,-0.0703,-0.0526,0.1450,0.0000,0.0000,0.0000,20.0000,3.2459,2.2264,49.3137,34.0906,0.0131,0.000714,10.1326,-48.3798,-16.3607,64.7404,10.1326,-0.0040,-1.6674,-11.1904,-0.9957,0.0000,-0.025536,0.018356,0.008034,0.0015,0.0015,-0.0021,-180.0000,-0.0000,0.0000
91,0.9100,-0.1145,-0.0502,-0.0567,0.1373,0.0000,0.0000,0.0000,20.0000,3.0806,2.2780,45.6571,34.8274,0.0134,0.000732,10.1326,-48.3798,-16.3607,64.7404,10.1326,-0.0040,-1.6674,-11.1904,-0.9957,0.0000,-0.025090,0.014506,0.010446,0.0014,0.0015,-0.0020,-180.0000,-0.0000,0.0000
92,0.9200,-0.1103,-0.0279,-0.0500,0.1243,0.0000,0.0000,0.0000,20.0000,2.8621,2.3161,44.9538,35.4038,0.0137,0.000772,10.1326,-48.3798,-16.3607,64.7404,10.1326,-0.0040,-1.6674,-11.1904,-0.9957,0.0000,-0.024370,0.010115,0.011088,0.0016,0.0010,-0.0014,-180.0000,-0.0000,0.0000
93,0.9300,-0.1012,-0.0036,-0.0360,0.1075,0.0000,0.0000,0.0000,20.0000,2.5860,2.3385,47.5668,36.0010,0.0139,0.000686,10.1903,-48.3968,-16.3279,64.7246,10.1903,0.0063,-1.6570,-11.1726,-0.9938,-0.0000,-0.023274,0.005690,0.009730,0.0024,-0.0000,-0.0019,-180.0000,-0.0000,-0.0000
94,0.9400,-0.0897,0.0171,-0.0184,0.0931,0.0000,0.0000,0.0000,20.0000,2.2671,2.3434,54.9693,36.8408,0.0141,0.000680,10.1903,-48.3968,-16.3279,64.7246,10.1903,0.0063,-1.6570,-11.1726,-0.9938,-0.0000,-0.021468,0.001161,0.007192,0.0020,0.0001,0.0002,-180.0000,-0.0000,-0.0000
95,0.9500,-0.0754,0.0337,0.0004,0.0826,0.0000,0.0000,0.0000,20.0000,1.9631,2.3308,58.5602,37.9368,0.0142,0.000785,10.1903,-48.3968,-16.3279,64.7246,10.1903,0.0063,-1.6570,-11.1726,-0.9938,-0.0000,-0.019004,-0.003005,0.003894,0.0026,-0.0003,0.0014,-180.0000,-0.0000,-0.0000
96,0.9600,-0.0601,0.0439,0.0164,0.0762,0.0000,0.0000,0.0000,20.0000,1.7273,2.3041,56.0244,39.0015,0.0143,0.000797,10.1903,-48.3968,-16.3279,64.7246,10.1903,0.0063,-1.6570,-11.1726,-0.9938,-0.0000,-0.016067,-0.006325,0.000469,0.0026,-0.0006,0.0020,-180.0000,-0.0000,-0.0000
97,0.9700,-0.0532,0.0325,0.0277,0.0682,0.0000,0.0000,0.0000,20.0000,1.5617,2.2678,38.8992,39.4669,0.0144,0.000737,10.1903,-48.3968,-16.3279,64.7246,10.1903,0.0063,-1.6570,-11.1726,-0.9938,-0.0000,-0.013722,-0.007001,-0.002561,0.0002,0.0003,0.0024,-180.0000,-0.0000,-0.0000
98,0.9800,-0.0526,0.0040,0.0374,0.0646,0.0000,0.0000,0.0000,20.0000,1.4129,2.2249,38.7945,39.4328,0.0145,0.000774,10.1903,-48.3968,-16.3279,64.7246,10.1903,0.0063,-1.6570,-11.1726,-0.9938,-0.0000,-0.012341,-0.004510,-0.005194,-0.0008,0.0024,0.0030,-180.0000,-0.0000,-0.0000
99,0.9900,-0.0533,-0.0204,0.0417,0.0706,0.0000,0.0000,0.0000,20.0000,1.3618,2.1788,43.1770,39.5182,0.0148,0.000756,10.1903,-48.3968,-16.3279,64.7246,10.1903,0.0063,-1.6570,-11.1726,-0.9938,-0.0000,-0.011621,-0.000687,-0.007067,-0.0008,0.0024,0.0007,-180.0000,-0.0000,-0.0000
100,1.0000,-0.0532,-0.0361,0.0448,0.0784,0.0000,0.0000,0.0000,20.0000,1.4310,2.1358,39.4632,39.6173,0.0151,0.000724,10.1903,-48.3968,-16.3279,64.7246,10.1903,0.0063,-1.6570,-11.1726,-0.9938,-0.0000,-0.011188,0.003001,-0.008402,-0.0017,0.0024,-0.0005,-180.0000,-0.0000,-0.0000
101,1.0100,-0.0518,-0.0459,0.0508,0.0858,0.0000,0.0000,0.0000,20.0000,1.5719,2.1009,33.0462,39.4324,0.0154,0.000780,10.1903,-48.3968,-16.3279,64.7246,10.1903,0.0063,-1.6570,-11.1726,-0.9938,-0.0000,-0.010793,0.006004,-0.009724,-0.0021,0.0023,-0.0011,-180.0000,-0.0000,-0.0000
102,1.0200,-0.0420,-0.0430,0.0556,0.0819,0.0000,0.0000,0.0000,20.0000,1.6281,2.0733,21.8523,38.7732,0.0158,0.000756,10.1903,-48.3968,-16.3279,64.7246,10.1903,0.0063,-1.6570,-11.1726,-0.9938,-0.0000,-0.009570,0.007365,-0.010919,0.0003,0.0014,-0.0007,-180.0000,-0.0000,-0.0000
103,1.0300,-0.0265,-0.0283,0.0530,0.0657,0.0000,0.0000,0.0000,20.0000,1.5006,2.0453,23.9020,37.8988,0.0162,0.000830,10.1903,-48.3968,-16.3279,64.7246,10.1903,0.0063,-1.6570,-11.1726,-0.9938,-0.0000,-0.007324,0.006639,-0.011291,0.0007,0.0009,-0.0014,-180.0000,-0.0000,-0.0000
104,1.0400,-0.0159,-0.0170,0.0430,0.0489,0.0000,0.0000,0.0000,20.0000,1.2679,2.0090,28.9965,37.2690,0.0165,0.000756,10.1903,-48.3968,-16.3279,64.7246,10.1903,0.0063,-1.6570,-11.1726,-0.9938,-0.0000,-0.005009,0.005094,-0.010474,0.0010,0.0013,0.0003,-180.0000,-0.0000,-0.0000
105,1.0500,-0.0107,-0.0125,0.0297,0.0340,0.0000,0.0000,0.0000,20.0000,0.9990,1.9608,28.7081,36.8060,0.0167,0.000820,10.1903,-48.3968,-16.3279,64.7246,10.1903,0.0063,-1.6570,-11.1726,-0.9938,-0.0000,-0.003198,0.003777,-0.008678,0.0013,0.0021,0.0015,-180.0000,-0.0000,-0.0000
106,1.0600,-0.0069,-0.0087,0.0148,0.0186,0.0000,0.0000,0.0000,20.0000,0.6968,1.8996,30.6752,36.4146,0.0169,0.000792,10.1903,-48.3968,-16.3279,64.7246,10.1903,0.0063,-1.6570,-11.1726,-0.9938,-0.0000,-0.001813,0.002664,-0.006178,0.0025,0.0018,0.0022,-180.0000,-0.0000,-0.0000
107,1.0700,-0.0045,-0.0058,0.0040,0.0084,0.0000,0.0000,0.0000,20.0000,0.4174,1.8257,28.2574,36.0324,0.0170,0.000745,10.1903,-48.3968,-16.3279,64.7246,10.1903,0.0063,-1.6570,-11.1726,-0.9938,-0.0000,-0.000798,0.001754,-0.003703,0.0020,0.0025,0.0011,-180.0000,-0.0000,-0.0000
108,1.0800,-0.0072,-0.0026,0.0026,0.0080,0.0000,0.0000,0.0000,20.0000,0.2422,1.7435,17.5791,35.3110,0.0170,0.000691,10.1903,-48.3968,-16.3279,64.7246,10.1903,0.0063,-1.6570,-11.1726,-0.9938,-0.0000,-0.000504,0.000918,-0.002184,0.0028,0.0028,0.0007,-180.0000,-0.0000,-0.0000
109,1.0900,-0.0113,0.0017,0.0050,0.0125,0.0000,0.0000,0.0000,20.0000,0.1749,1.6590,11.0285,34.1555,0.0171,0.000711,10.1903,-48.3968,-16.3279,64.7246,10.1903,0.0063,-1.6570,-11.1726,-0.9938,-0.0000,-0.000756,0.000033,-0.001577,0.0035,0.0030,0.0006,-180.0000,-0.0000,-0.0000
110,1.1000,-0.0118,-0.0010,0.0044,0.0126,0.0000,0.0000,0.0000,20.0000,0.1524,1.5768,4.9047,32.7149,0.0171,0.000737,10.1903,-48.3968,-16.3279,64.7246,10.1903,0.0063,-1.6570,-11.1726,-0.9938,-0.0000,-0.000942,-0.000192,-0.001182,0.0037,0.0031,0.0007,-180.0000,-0.0000,-0.0000
111,1.1100,-0.0079,-0.0142,0.0011,0.0163,0.0000,0.0000,0.0000,20.0000,0.1358,1.4980,13.4748,31.4208,0.0171,0.000688,10.1903,-48.3968,-16.3279,64.7246,10.1903,0.0063,-1.6570,-11.1726,-0.9938,-0.0000,-0.000659,0.001005,-0.000632,0.0023,0.0039,0.0018,-180.0000,-0.0000,-0.0000
112,1.1200,-0.0095,-0.0397,-0.0068,0.0413,0.0000,0.0000,0.0000,20.0000,0.4288,1.4311,33.9038,30.9955,0.0172,0.000829,10.1903,-48.3968,-16.3279,64.7246,10.1903,0.0063,-1.6570,-11.1726,-0.9938,-0.0000,-0.000652,0.004213,0.000466,0.0012,0.0044,0.0013,-180.0000,-0.0000,-0.0000
113,1.1300,-0.0136,-0.0736,-0.0182,0.0770,0.0000,0.0000,0.0000,20.0000,1.0045,1.3918,57.9479,31.8168,0.0174,0.000940,10.2401,-48.4813,-16.2762,64.7576,10.2401,-0.0027,-2.6765,-11.1635,-0.9928,-0.0000,-0.001712,0.009677,0.002078,0.0009,0.0045,0.0008,-180.0000,-0.0000,0.0000
114,1.1400,-0.0139,-0.1063,-0.0263,0.1104,0.0000,0.0000,0.0000,20.0000,1.6556,1.3884,65.2809,33.4559,0.0176,0.000674,10.2401,-48.4813,-16.2762,64.7576,10.2401,-0.0027,-2.6765,-11.1635,-0.9928,-0.0000,-0.002332,0.015950,0.003776,-0.0003,0.0047,0.0002,-180.0000,-0.0000,0.0000
115,1.1500,-0.0148,-0.1328,-0.0319,0.1374,0.0000,0.0000,0.0000,20.0000,2.2821,1.4203,62.7822,35.1378,0.0180,0.000756,10.2401,-48.4813,-16.2762,64.7576,10.2401,-0.0027,-2.6765,-11.1635,-0.9928,-0.0000,-0.002755,0.022033,0.005270,-0.0010,0.0048,-0.0014,-180.0000,-0.0000,0.0000
116,1.1600,-0.0236,-0.1505,-0.0387,0.1572,0.0000,0.0000,0.0000,20.0000,2.8225,1.4826,54.2461,36.4237,0.0184,0.000865,10.2401,-48.4813,-16.2762,64.7576,10.2401,-0.0027,-2.6765,-11.1635,-0.9928,-0.0000,-0.003861,0.027128,0.006768,-0.0007,0.0048,-0.0025,-180.0000,-0.0000,0.0000
117,1.1700,-0.0368,-0.1486,-0.0433,0.1591,0.0000,0.0000,0.0000,20.0000,3.1305,1.5648,34.5277,36.8617,0.0189,0.000676,10.2401,-48.4813,-16.2762,64.7576,10.2401,-0.0027,-2.6765,-11.1635,-0.9928,-0.0000,-0.005787,0.029697,0.008037,0.0004,0.0045,-0.0029,-180.0000,-0.0000,0.0000
118,1.1800,-0.0434,-0.1245,-0.0451,0.1393,0.0000,0.0000,0.0000,20.0000,3.0918,1.6498,21.9311,36.3869,0.0194,0.000739,10.2401,-48.4813,-16.2762,64.7576,10.2401,-0.0027,-2.6765,-11.1635,-0.9928,-0.0000,-0.007505,0.028642,0.008902,0.0001,0.0051,-0.0015,-180.0000,-0.0000,0.0000
119,1.1900,-0.0506,-0.0856,-0.0392,0.1069,0.0000,0.0000,0.0000,20.0000,2.7244,1.7190,48.2311,36.3151,0.0199,0.000968,10.2401,-48.4813,-16.2762,64.7576,10.2401,-0.0027,-2.6765,-11.1635,-0.9928,-0.0000,-0.009158,0.024113,0.008771,0.0002,0.0045,-0.0018,-180.0000,-0.0000,0.0000
120,1.2000,-0.0714,-0.0389,-0.0238,0.0847,0.0000,0.0000,0.0000,20.0000,2.1993,1.7599,79.7164,37.8365,0.0203,0.000810,10.2401,-48.4813,-16.2762,64.7576,10.2401,-0.0027,-2.6765,-11.1635,-0.9928,-0.0000,-0.012130,0.016899,0.007140,0.0002,0.0057,-0.0036,-180.0000,-0.0000,0.0000
121,1.2100,-0.0899,-0.0017,-0.0108,0.0906,0.0000,0.0000,0.0000,20.0000,1.8747,1.7751,87.7241,40.3605,0.0206,0.000744,10.2401,-48.4813,-16.2762,64.7576,10.2401,-0.0027,-2.6765,-11.1635,-0.9928,-0.0000,-0.015602,0.009153,0.004925,-0.0002,0.0045,-0.0022,-180.0000,-0.0000,0.0000
122,1.2200,-0.0957,0.0179,-0.0022,0.0974,0.0000,0.0000,0.0000,20.0000,1.8520,1.7800,70.4601,42.4910,0.0209,0.000781,10.2401,-48.4813,-16.2762,64.7576,10.2401,-0.0027,-2.6765,-11.1635,-0.9928,-0.0000,-0.018072,0.002894,0.002833,0.0004,0.0040,-0.0012,-180.0000,-0.0000,0.0000
123,1.2300,-0.1011,0.0261,0.0079,0.1047,0.0000,0.0000,0.0000,20.0000,1.9997,1.7880,51.5614,43.5098,0.0212,0.000696,10.2401,-48.4813,-16.2762,64.7576,10.2401,-0.0027,-2.6765,-11.1635,-0.9928,-0.0000,-0.019937,-0.001395,0.000664,0.0008,0.0039,-0.0019,-180.0000,-0.0000,0.0000
124,1.2400,-0.0996,0.0332,0.0151,0.1061,0.0000,0.0000,0.0000,20.0000,2.1295,1.8032,37.2390,43.5588,0.0215,0.000747,10.2401,-48.4813,-16.2762,64.7576,10.2401,-0.0027,-2.6765,-11.1635,-0.9928,-0.0000,-0.020782,-0.004471,-0.001259,0.0014,0.0024,-0.0012,-180.0000,-0.0000,0.0000
125,1.2500,-0.0873,0.0424,0.0197,0.0990,0.0000,0.0000,0.0000,20.0000,2.1373,1.8214,31.3328,43.0487,0.0217,0.000789,10.2401,-48.4813,-16.2762,64.7576,10.2401,-0.0027,-2.6765,-11.1635,-0.9928,-0.0000,-0.019971,-0.007086,-0.002782,-0.0002,0.0018,-0.0000,-180.0000,-0.0000,0.0000
126,1.2600,-0.0792,0.0562,0.0298,0.1016,0.0000,0.0000,0.0000,20.0000,2.1638,1.8395,36.0317,42.5334,0.0219,0.000740,10.2401,-48.4813,-16.2762,64.7576,10.2401,-0.0027,-2.6765,-11.1635,-0.9928,-0.0000,-0.018677,-0.009898,-0.004626,-0.0009,0.0022,-0.0015,-180.0000,-0.0000,0.0000
127,1.2700,-0.0789,0.0741,0.0467,0.1179,0.0000,0.0000,0.0000,20.0000,2.3420,1.8622,43.5037,42.3813,0.0221,0.000686,10.2401,-48.4813,-16.2762,64.7576,10.2401,-0.0027,-2.6765,-11.1635,-0.9928,-0.0000,-0.017891,-0.013222,-0.007321,-0.0018,0.0032,-0.0019,-180.0000,-0.0000,0.0000
128,1.2800,-0.0791,0.0872,0.0560,0.1303,0.0000,0.0000,0.0000,20.0000,2.5801,1.8952,39.6270,42.3364,0.0222,0.000695,10.2401,-48.4813,-16.2762,64.7576,10.2401,-0.0027,-2.6765,-11.1635,-0.9928,-0.0000,-0.017440,-0.016337,-0.009728,-0.0019,0.0042,-0.0015,-180.0000,-0.0000,0.0000
129,1.2900,-0.0813,0.0905,0.0481,0.1308,0.0000,0.0000,0.0000,20.0000,2.7276,1.9369,20.8501,41.6709,0.0223,0.000673,10.2401,-48.4813,-16.2762,64.7576,10.2401,-0.0027,-2.6765,-11.1635,-0.9928,-0.0000,-0.017379,-0.018354,-0.010251,-0.0013,0.0054,-0.0007,-180.0000,-0.0000,0.0000
130,1.3000,-0.0836,0.0854,0.0278,0.1227,0.0000,0.0000,0.0000,20.0000,2.7165,1.9801,18.5465,40.4623,0.0224,0.000716,10.2401,-48.4813,-16.2762,64.7576,10.2401,-0.0027,-2.6765,-11.1635,-0.9928,-0.0000,-0.017540,-0.018926,-0.008494,-0.0002,0.0052,0.0001,-180.0000,-0.0000,0.0000
131,1.3100,-0.0819,0.0786,0.0004,0.1135,0.0000,0.0000,0.0000,20.0000,2.5875,2.0171,37.5639,39.7798,0.0225,0.000784,10.2401,-48.4813,-16.2762,64.7576,10.2401,-0.0027,-2.6765,-11.1635,-0.9928,-0.0000,-0.017423,-0.018529,-0.004760,0.0009,0.0067,-0.0003,-180.0000,-0.0000,0.0000
132,1.3200,-0.0814,0.0727,-0.0332,0.1141,0.0000,0.0000,0.0000,20.0000,2.4724,2.0453,55.0298,40.1383,0.0225,0.000659,10.2401,-48.4813,-16.2762,64.7576,10.2401,-0.0027,-2.6765,-11.1635,-0.9928,-0.0000,-0.017276,-0.017674,0.000674,0.0023,0.0061,-0.0004,-180.0000,-0.0000,0.0000
133,1.3300,-0.0819,0.0627,-0.0645,0.1216,0.0000,0.0000,0.0000,20.0000,2.4673,2.0686,64.4536,41.2166,0.0224,0.000816,10.2792,-48.5310,-16.2574,64.7884,10.2792,-0.0052,-1.6583,-11.1935,-0.9959,-0.0000,-0.017576,-0.015898,0.006863,0.0027,0.0053,-0.0002,-180.0000,-0.0000,0.0000
134,1.3400,-0.0739,0.0523,-0.0840,0.1235,0.0000,0.0000,0.0000,20.0000,2.5044,2.0916,57.8004,42.3118,0.0223,0.000724,10.2792,-48.5310,-16.2574,64.7884,10.2792,-0.0052,-1.6583,-11.1935,-0.9959,-0.0000,-0.016904,-0.013854,0.012227,0.0025,0.0052,-0.0005,-180.0000,-0.0000,0.0000
135,1.3500,-0.0577,0.0456,-0.0952,0.1203,0.0000,0.0000,0.0000,20.0000,2.5126,2.1145,48.8914,42.9188,0.0222,0.000697,10.2792,-48.5310,-16.2574,64.7884,10.2792,-0.0052,-1.6583,-11.1935,-0.9959,-0.0000,-0.014886,-0.012021,0.016286,0.0031,0.0047,-0.0013,-180.0000,-0.0000,0.0000
136,1.3600,-0.0453,0.0393,-0.1025,0.1188,0.0000,0.0000,0.0000,20.0000,2.5161,2.1365,41.3924,43.0411,0.0220,0.000712,10.2792,-48.5310,-16.2574,64.7884,10.2792,-0.0052,-1.6583,-11.1935,-0.9959,-0.0000,-0.012496,-0.010356,0.019227,0.0043,0.0048,-0.0000,-180.0000,-0.0000,0.0000
137,1.3700,-0.0400,0.0295,-0.1025,0.1139,0.0000,0.0000,0.0000,20.0000,2.4841,2.1565,31.1911,42.6698,0.0218,0.000813,10.2792,-48.5310,-16.2574,64.7884,10.2792,-0.0052,-1.6583,-11.1935,-0.9959,-0.0000,-0.010618,-0.008436,0.020813,0.0036,0.0043,0.0003,-180.0000,-0.0000,0.0000
138,1.3800,-0.0384,0.0183,-0.0942,0.1034,0.0000,0.0000,0.0000,20.0000,2.3678,2.1713,25.1520,41.8723,0.0217,0.000692,10.2792,-48.5310,-16.2574,64.7884,10.2792,-0.0052,-1.6583,-11.1935,-0.9959,-0.0000,-0.009402,-0.006235,0.020818,0.0030,0.0040,-0.0014,-180.0000,-0.0000,0.0000
139,1.3900,-0.0400,0.0065,-0.0850,0.0942,0.0000,0.0000,0.0000,20.0000,2.2085,2.1778,26.4218,40.9875,0.0215,0.000753,10.2792,-48.5310,-16.2574,64.7884,10.2792,-0.0052,-1.6583,-11.1935,-0.9959,-0.0000,-0.008871,-0.003831,0.019859,0.0027,0.0023,-0.0019,-180.0000,-0.0000,0.0000
140,1.4000,-0.0468,-0.0109,-0.0795,0.0929,0.0000,0.0000,0.0000,20.0000,2.0906,2.1762,32.9785,40.3666,0.0215,0.000790,10.2792,-48.5310,-16.2574,64.7884,10.2792,-0.0052,-1.6583,-11.1935,-0.9959,-0.0000,-0.009237,-0.000750,0.018739,0.0024,0.0023,-0.0015,-180.0000,-0.0000,0.0000
141,1.4100,-0.0519,-0.0378,-0.0773,0.1005,0.0000,0.0000,0.0000,20.0000,2.0764,2.1711,45.2969,40.2990,0.0215,0.000693,10.2792,-48.5310,-16.2574,64.7884,10.2792,-0.0052,-1.6583,-11.1935,-0.9959,-0.0000,-0.009932,0.003640,0.017867,-0.0002,0.0013,-0.0014,-180.0000,-0.0000,0.0000
142,1.4200,-0.0482,-0.0655,-0.0796,0.1138,0.0000,0.0000,0.0000,20.0000,2.2038,2.1694,52.0350,40.7592,0.0217,0.000751,10.2792,-48.5310,-16.2574,64.7884,10.2792,-0.0052,-1.6583,-11.1935,-0.9959,-0.0000,-0.009931,0.008836,0.017578,-0.0008,0.0016,-0.0010,-180.0000,-0.0000,0.0000
143,1.4300,-0.0364,-0.0806,-0.0895,0.1258,0.0000,0.0000,0.0000,20.0000,2.4242,2.1774,45.9127,41.2111,0.0219,0.000788,10.2792,-48.5310,-16.2574,64.7884,10.2792,-0.0052,-1.6583,-11.1935,-0.9959,-0.0000,-0.008728,0.013195,0.018368,-0.0012,0.0009,0.0006,-180.0000,-0.0000,0.0000
144,1.4400,-0.0272,-0.0826,-0.0981,0.1311,0.0000,0.0000,0.0000,20.0000,2.6175,2.1962,32.9772,41.1139,0.0221,0.000808,10.2792,-48.5310,-16.2574,64.7884,10.2792,-0.0052,-1.6583,-11.1935,-0.9959,-0.0000,-0.007120,0.015784,0.019629,-0.0011,0.0023,0.0015,-180.0000,-0.0000,0.0000
145,1.4500,-0.0249,-0.0677,-0.0966,0.1206,0.0000,0.0000,0.0000,20.0000,2.6223,2.2196,12.4519,40.1018,0.0223,0.000763,10.2792,-48.5310,-16.2574,64.7884,10.2792,-0.0052,-1.6583,-11.1935,-0.9959,-0.0000,-0.005988,0.015690,0.020139,-0.0006,0.0026,0.0015,-180.0000,-0.0000,0.0000
146,1.4600,-0.0193,-0.0349,-0.0860,0.0948,0.0000,0.0000,0.0000,20.0000,2.3413,2.2340,36.6104,39.2453,0.0224,0.000755,10.2792,-48.5310,-16.2574,64.7884,10.2792,-0.0052,-1.6583,-11.1935,-0.9959,-0.0000,-0.004798,0.012326,0.019319,-0.0003,0.0024,0.0014,-180.0000,-0.0000,0.0000
147,1.4700,-0.0111,0.0025,-0.0707,0.0716,0.0000,0.0000,0.0000,20.0000,1.8842,2.2273,61.5679,39.7868,0.0225,0.000732,10.2792,-48.5310,-16.2574,64.7884,10.2792,-0.0052,-1.6583,-11.1935,-0.9959,-0.0000,-0.003304,0.006707,0.017295,-0.0002,0.0019,0.0010,-180.0000,-0.0000,0.0000
148,1.4800,-0.0073,0.0326,-0.0483,0.0588,0.0000,0.0000,0.0000,20.0000,1.4076,2.1953,71.0885,41.2468,0.0224,0.000751,10.2792,-48.5310,-16.2574,64.7884,10.2792,-0.0052,-1.6583,-11.1935,-0.9959,-0.0000,-0.002098,0.000574,0.013907,0.0001,0.0010,0.0005,-180.0000,-0.0000,0.0000
149,1.4900,-0.0091,0.0490,-0.0187,0.0533,0.0000,0.0000,0.0000,20.0000,1.0209,2.1414,70.1737,42.8632,0.0223,0.000740,10.2792,-48.5310,-16.2574,64.7884,10.2792,-0.0052,-1.6583,-11.1935,-0.9959,-0.0000,-0.001602,-0.004459,0.009042,-0.0016,0.0008,-0.0007,-180.0000,-0.0000,0.0000
150,1.5000,-0.0094,0.0462,0.0068,0.0476,0.0000,0.0000,0.0000,20.0000,0.8027,2.0737,58.2539,44.0376,0.0221,0.000687,10.2792,-48.5310,-16.2574,64.7884,10.2792,-0.0052,-1.6583,-11.1935,-0.9959,-0.0000,-0.001353,-0.006950,0.003783,-0.0037,0.0001,-0.0012,-180.0000,-0.0000,0.0000
151,1.5100,-0.0120,0.0352,0.0203,0.0423,0.0000,0.0000,0.0000,20.0000,0.7374,2.0020,42.6704,44.3910,0.0220,0.000788,10.2792,-48.5310,-16.2574,64.7884,10.2792,-0.0052,-1.6583,-11.1935,-0.9959,-0.0000,-0.001476,-0.007209,-0.000475,-0.0028,0.0008,-0.0017,-180.0000,-0.0000,0.0000
152,1.5200,-0.0248,0.0247,0.0229,0.0418,0.0000,0.0000,0.0000,20.0000,0.7553,1.9329,30.8289,43.9707,0.0220,0.000856,10.2792,-48.5310,-16.2574,64.7884,10.2792,-0.0052,-1.6583,-11.1935,-0.9959,-0.0000,-0.002822,-0.006287,-0.003091,-0.0033,0.0012,-0.0019,-180.0000,-0.0000,0.0000
153,1.5300,-0.0406,0.0178,0.0176,0.0476,0.0000,0.0000,0.0000,20.0000,0.8419,1.8705,29.9814,43.2245,0.0221,0.000687,10.2713,-48.6206,-16.2561,64.8767,10.2713,-0.0003,-1.6169,-11.1962,-0.9960,0.0000,-0.005596,-0.005226,-0.003500,-0.0030,0.0028,-0.0023,-180.0000,-0.0000,-0.0000
154,1.5400,-0.0483,0.0243,0.0061,0.0544,0.0000,0.0000,0.0000,20.0000,0.9841,1.8179,24.7810,42.3530,0.0222,0.000790,10.2713,-48.6206,-16.2561,64.8767,10.2713,-0.0003,-1.6169,-11.1962,-0.9960,0.0000,-0.007893,-0.005287,-0.002570,-0.0014,0.0035,-0.0022,-180.0000,-0.0000,-0.0000
155,1.5500,-0.0446,0.0431,-0.0100,0.0629,0.0000,0.0000,0.0000,20.0000,1.1354,1.7762,29.8972,41.5271,0.0223,0.001240,10.2713,-48.6206,-16.2561,64.8767,10.2713,-0.0003,-1.6169,-11.1962,-0.9960,0.0000,-0.008780,-0.007186,-0.000438,-0.0000,0.0040,-0.0009,-180.0000,-0.0000,-0.0000
156,1.5600,-0.0307,0.0639,-0.0278,0.0762,0.0000,0.0000,0.0000,20.0000,1.3200,1.7460,43.9245,41.2732,0.0223,0.000681,10.2713,-48.6206,-16.2561,64.8767,10.2713,-0.0003,-1.6169,-11.1962,-0.9960,0.0000,-0.007857,-0.010304,0.002514,0.0015,0.0030,0.0005,-180.0000,-0.0000,-0.0000
157,1.5700,-0.0111,0.0796,-0.0412,0.0903,0.0000,0.0000,0.0000,20.0000,1.5591,1.7291,50.6617,41.6043,0.0221,0.000709,10.2713,-48.6206,-16.2561,64.8767,10.2713,-0.0003,-1.6169,-11.1962,-0.9960,0.0000,-0.005371,-0.013570,0.005484,0.0024,0.0029,0.0008,-180.0000,-0.0000,-0.0000
158,1.5800,0.0059,0.0858,-0.0471,0.0980,0.0000,0.0000,0.0000,20.0000,1.7879,1.7261,44.9536,41.9455,0.0218,0.000776,10.2713,-48.6206,-16.2561,64.8767,10.2713,-0.0003,-1.6169,-11.1962,-0.9960,0.0000,-0.002287,-0.015970,0.007706,0.0028,0.0025,0.0016,-180.0000,-0.0000,-0.0000
159,1.5900,0.0172,0.0791,-0.0479,0.0940,0.0000,0.0000,0.0000,20.0000,1.8883,1.7322,31.7555,41.7480,0.0215,0.000659,10.2713,-48.6206,-16.2561,64.8767,10.2713,-0.0003,-1.6169,-11.1962,-0.9960,0.0000,0.000548,-0.016594,0.008994,0.0032,0.0016,0.0031,-180.0000,-0.0000,-0.0000
160,1.6000,0.0246,0.0657,-0.0401,0.0808,0.0000,0.0000,0.0000,20.0000,1.8163,1.7388,25.2935,41.0206,0.0211,0.000803,10.2713,-48.6206,-16.2561,64.8767,10.2713,-0.0003,-1.6169,-11.1962,-0.9960,0.0000,0.002857,-0.015566,0.008913,0.0041,0.0020,0.0039,-180.0000,-0.0000,-0.0000
161,1.6100,0.0249,0.0499,-0.0248,0.0610,0.0000,0.0000,0.0000,20.0000,1.5813,1.7366,29.9476,40.2835,0.0207,0.000760,10.2713,-48.6206,-16.2561,64.8767,10.2713,-0.0003,-1.6169,-11.1962,-0.9960,0.0000,0.004155,-0.013384,0.007324,0.0020,0.0030,0.0036,-180.0000,-0.0000,-0.0000
162,1.6200,0.0133,0.0337,-0.0114,0.0380,0.0000,0.0000,0.0000,20.0000,1.2271,1.7183,36.5303,39.8960,0.0205,0.000719,10.2713,-48.6206,-16.2561,64.8767,10.2713,-0.0003,-1.6169,-11.1962,-0.9960,0.0000,0.003712,-0.010534,0.005083,0.0013,0.0032,0.0033,-180.0000,-0.0000,-0.0000
163,1.6300,-0.0003,0.0226,-0.0037,0.0229,0.0000,0.0000,0.0000,20.0000,0.8664,1.6814,37.4183,39.7353,0.0203,0.000661,10.2713,-48.6206,-16.2561,64.8767,10.2713,-0.0003,-1.6169,-11.1962,-0.9960,0.0000,0.002093,-0.007828,0.003068,-0.0001,0.0020,0.0024,-180.0000,-0.0000,-0.0000
164,1.6400,-0.0049,0.0216,-0.0012,0.0222,0.0000,0.0000,0.0000,20.0000,0.6486,1.6306,25.1307,39.2699,0.0201,0.000767,10.2713,-48.6206,-16.2561,64.8767,10.2713,-0.0003,-1.6169,-11.1962,-0.9960,0.0000,0.000737,-0.006217,0.001696,0.0003,0.0014,0.0009,-180.0000,-0.0000,-0.0000
165,1.6500,-0.0035,0.0307,-0.0016,0.0309,0.0000,0.0000,0.0000,20.0000,0.6298,1.5760,9.4560,38.0610,0.0200,0.000757,10.2713,-48.6206,-16.2561,64.8767,10.2713,-0.0003,-1.6169,-11.1962,-0.9960,0.0000,0.000121,-0.006220,0.000979,-0.0008,0.0008,-0.0003,-180.0000,-0.0000,-0.0000
166,1.6600,0.0032,0.0401,-0.0003,0.0402,0.0000,0.0000,0.0000,20.0000,0.7179,1.5264,11.1960,36.5353,0.0199,0.000731,10.2713,-48.6206,-16.2561,64.8767,10.2713,-0.0003,-1.6169,-11.1962,-0.9960,0.0000,0.000454,-0.007150,0.000452,0.0002,-0.0001,-0.0003,-180.0000,-0.0000,-0.0000
167,1.6700,0.0259,0.0484,0.0110,0.0560,0.0000,0.0000,0.0000,20.0000,0.9019,1.4870,31.3629,35.6961,0.0198,0.000776,10.2713,-48.6206,-16.2561,64.8767,10.2713,-0.0003,-1.6169,-11.1962,-0.9960,0.0000,0.002910,-0.008480,-0.000976,0.0004,-0.0008,0.0004,-180.0000,-0.0000,-0.0000
168,1.6800,0.0587,0.0538,0.0285,0.0845,0.0000,0.0000,0.0000,20.0000,1.2807,1.4652,54.2315,36.0868,0.0195,0.000691,10.2713,-48.6206,-16.2561,64.8767,10.2713,-0.0003,-1.6169,-11.1962,-0.9960,0.0000,0.007536,-0.009743,-0.003508,0.0003,-0.0000,0.0012,-180.0000,-0.0000,-0.0000
169,1.6900,0.0794,0.0569,0.0427,0.1066,0.0000,0.0000,0.0000,20.0000,1.7403,1.4677,54.9608,37.1049,0.0191,0.000744,10.2713,-48.6206,-16.2561,64.8767,10.2713,-0.0003,-1.6169,-11.1962,-0.9960,0.0000,0.012150,-0.010735,-0.006325,-0.0014,0.0007,0.0018,-180.0000,-0.0000,-0.0000
170,1.7000,0.0840,0.0575,0.0518,0.1142,0.0000,0.0000,0.0000,20.0000,2.0839,1.4922,39.1183,37.6514,0.0187,0.000728,10.2713,-48.6206,-16.2561,64.8767,10.2713,-0.0003,-1.6169,-11.1962,-0.9960,0.0000,0.015138,-0.011313,-0.008783,-0.0025,0.0007,0.0014,-180.0000,-0.0000,-0.0000
171,1.7100,0.0758,0.0531,0.0550,0.1077,0.0000,0.0000,0.0000,20.0000,2.2093,1.5282,18.4552,37.1638,0.0183,0.000692,10.2713,-48.6206,-16.2561,64.8767,10.2713,-0.0003,-1.6169,-11.1962,-0.9960,0.0000,0.015943,-0.011179,-0.010438,-0.0037,0.0004,0.0016,-180.0000,-0.0000,-0.0000
172,1.7200,0.0595,0.0456,0.0470,0.0885,0.0000,0.0000,0.0000,20.0000,2.0843,1.5622,14.9180,36.0374,0.0179,0.000843,10.2713,-48.6206,-16.2561,64.8767,10.2713,-0.0003,-1.6169,-11.1962,-0.9960,0.0000,0.014722,-0.010327,-0.010537,-0.0042,-0.0001,0.0016,-180.0000,-0.0000,-0.0000
173,1.7300,0.0393,0.0334,0.0313,0.0603,0.0000,0.0000,0.0000,20.0000,1.7431,1.5815,34.5394,35.4153,0.0176,0.000733,10.2278,-48.6356,-16.2570,64.8926,10.2278,-0.0129,-1.5918,-11.1796,-0.9941,0.0000,0.011989,-0.008993,-0.008902,-0.0032,0.0002,0.0029,-180.0000,-0.0000,0.0000
174,1.7400,0.0186,0.0153,0.0208,0.0319,0.0000,0.0000,0.0000,20.0000,1.2635,1.5772,48.4304,35.7492,0.0174,0.000696,10.2278,-48.6356,-16.2570,64.8926,10.2278,-0.0129,-1.5918,-11.1796,-0.9941,0.0000,0.008387,-0.006422,-0.006933,-0.0017,0.0012,0.0027,-180.0000,-0.0000,0.0000
175,1.7500,-0.0043,-0.0018,0.0202,0.0208,0.0000,0.0000,0.0000,20.0000,0.7796,1.5467,54.5109,36.6140,0.0173,0.000680,10.2278,-48.6356,-16.2570,64.8926,10.2278,-0.0129,-1.5918,-11.1796,-0.9941,0.0000,0.004083,-0.003285,-0.005772,0.0002,0.0029,0.0019,-180.0000,-0.0000,0.0000
176,1.7600,-0.0252,-0.0069,0.0270,0.0376,0.0000,0.0000,0.0000,20.0000,0.5904,1.4993,50.1142,37.4775,0.0174,0.000904,10.2278,-48.6356,-16.2570,64.8926,10.2278,-0.0129,-1.5918,-11.1796,-0.9941,0.0000,-0.000395,-0.001035,-0.005800,0.0012,0.0033,0.0020,-180.0000,-0.0000,0.0000
177,1.7700,-0.0421,0.0001,0.0388,0.0573,0.0000,0.0000,0.0000,20.0000,0.8349,1.4560,43.6394,37.9946,0.0175,0.000680,10.2278,-48.6356,-16.2570,64.8926,10.2278,-0.0129,-1.5918,-11.1796,-0.9941,0.0000,-0.004561,-0.000485,-0.006976,0.0011,0.0049,0.0010,-180.0000,-0.0000,0.0000
178,1.7800,-0.0592,0.0175,0.0500,0.0795,0.0000,0.0000,0.0000,20.0000,1.2382,1.4329,46.0080,38.3702,0.0178,0.000680,10.2278,-48.6356,-16.2570,64.8926,10.2278,-0.0129,-1.5918,-11.1796,-0.9941,0.0000,-0.008562,-0.001923,-0.008736,0.0016,0.0049,-0.0012,-180.0000,-0.0000,0.0000
179,1.7900,-0.0691,0.0410,0.0534,0.0965,0.0000,0.0000,0.0000,20.0000,1.6258,1.4329,46.5911,38.8064,0.0181,0.000758,10.2278,-48.6356,-16.2570,64.8926,10.2278,-0.0129,-1.5918,-11.1796,-0.9941,0.0000,-0.011750,-0.005063,-0.010032,0.0017,0.0030,-0.0008,-180.0000,-0.0000,0.0000
180,1.8000,-0.0657,0.0622,0.0460,0.1015,0.0000,0.0000,0.0000,20.0000,1.8758,1.4504,40.8526,39.0768,0.0183,0.000668,10.2278,-48.6356,-16.2570,64.8926,10.2278,-0.0129,-1.5918,-11.1796,-0.9941,0.0000,-0.013145,-0.008902,-0.009991,0.0007,0.0017,0.0004,-180.0000,-0.0000,0.0000
181,1.8100,-0.0500,0.0782,0.0334,0.0987,0.0000,0.0000,0.0000,20.0000,1.9654,1.4762,40.2147,39.1569,0.0186,0.000680,10.2278,-48.6356,-16.2570,64.8926,10.2278,-0.0129,-1.5918,-11.1796,-0.9941,0.0000,-0.012321,-0.012614,-0.008681,0.0009,0.0015,-0.0000,-180.0000,-0.0000,0.0000
182,1.8200,-0.0262,0.0942,0.0252,0.1010,0.0000,0.0000,0.0000,20.0000,2.0097,1.5044,48.7097,39.4488,0.0186,0.000703,10.2278,-48.6356,-16.2570,64.8926,10.2278,-0.0129,-1.5918,-11.1796,-0.9941,0.0000,-0.009460,-0.016237,-0.007127,0.0027,0.0005,0.0006,-180.0000,-0.0000,0.0000
183,1.8300,0.0007,0.1087,0.0244,0.1114,0.0000,0.0000,0.0000,20.0000,2.1246,1.5353,55.7009,40.1505,0.0186,0.000711,10.2278,-48.6356,-16.2570,64.8926,10.2278,-0.0129,-1.5918,-11.1796,-0.9941,0.0000,-0.005171,-0.019661,-0.006172,0.0008,0.0022,0.0007,-180.0000,-0.0000,0.0000
184,1.8400,0.0216,0.1109,0.0281,0.1164,0.0000,0.0000,0.0000,20.0000,2.2553,1.5713,49.3149,40.8302,0.0184,0.000687,10.2278,-48.6356,-16.2570,64.8926,10.2278,-0.0129,-1.5918,-11.1796,-0.9941,0.0000,-0.000698,-0.021728,-0.006002,0.0007,0.0023,0.0008,-180.0000,-0.0000,0.0000
185,1.8500,0.0384,0.1009,0.0322,0.1127,0.0000,0.0000,0.0000,20.0000,2.2987,1.6102,41.6331,41.0857,0.0182,0.000787,10.2278,-48.6356,-16.2570,64.8926,10.2278,-0.0129,-1.5918,-11.1796,-0.9941,0.0000,0.003454,-0.021835,-0.006303,0.0003,0.0025,0.0009,-180.0000,-0.0000,0.0000
186,1.8600,0.0451,0.0941,0.0292,0.1083,0.0000,0.0000,0.0000,20.0000,2.2956,1.6479,30.3821,40.8063,0.0179,0.000709,10.2278,-48.6356,-16.2570,64.8926,10.2278,-0.0129,-1.5918,-11.1796,-0.9941,0.0000,0.006413,-0.021165,-0.006155,0.0004,0.0036,0.0003,-180.0000,-0.0000,0.0000
187,1.8700,0.0376,0.0878,0.0195,0.0975,0.0000,0.0000,0.0000,20.0000,2.1998,1.6809,17.2640,39.8721,0.0176,0.000712,10.2278,-48.6356,-16.2570,64.8926,10.2278,-0.0129,-1.5918,-11.1796,-0.9941,0.0000,0.007286,-0.020123,-0.005090,0.0003,0.0026,-0.0009,-180.0000,-0.0000,0.0000
188,1.8800,0.0229,0.0725,0.0095,0.0766,0.0000,0.0000,0.0000,20.0000,1.9360,1.7022,28.5755,38.9396,0.0173,0.000677,10.2278,-48.6356,-16.2570,64.8926,10.2278,-0.0129,-1.5918,-11.1796,-0.9941,0.0000,0.006288,-0.017975,-0.003492,0.0017,0.0020,-0.0006,-180.0000,-0.0000,0.0000
189,1.8900,0.0072,0.0597,0.0043,0.0602,0.0000,0.0000,0.0000,20.0000,1.6151,1.7063,35.8245,38.5689,0.0171,0.000698,10.2278,-48.6356,-16.2570,64.8926,10.2278,-0.0129,-1.5918,-11.1796,-0.9941,0.0000,0.004147,-0.015469,-0.002087,0.0014,0.0015,-0.0008,-180.0000,-0.0000,0.0000
190,1.9000,-0.0059,0.0458,0.0077,0.0468,0.0000,0.0000,0.0000,20.0000,1.2878,1.6922,37.8069,38.4724,0.0170,0.000713,10.2278,-48.6356,-16.2570,64.8926,10.2278,-0.0129,-1.5918,-11.1796,-0.9941,0.0000,0.001649,-0.012665,-0.001647,-0.0004,0.0004,-0.0008,-180.0000,-0.0000,0.0000
191,1.9100,-0.0120,0.0123,0.0206,0.0268,0.0000,0.0000,0.0000,20.0000,0.8200,1.6571,54.1312,38.8848,0.0169,0.000690,10.2278,-48.6356,-16.2570,64.8926,10.2278,-0.0129,-1.5918,-11.1796,-0.9941,0.0000,-0.000345,-0.007741,-0.002684,-0.0015,-0.0007,-0.0001,-180.0000,-0.0000,0.0000
192,1.9200,-0.0083,-0.0295,0.0387,0.0494,0.0000,0.0000,0.0000,20.0000,0.5561,1.6038,70.8129,40.1823,0.0170,0.000662,10.1815,-48.6314,-16.2370,64.8684,10.1815,-0.0024,-1.6085,-11.1860,-0.9947,-0.0000,-0.001043,-0.001209,-0.005327,-0.0022,-0.0001,0.0009,-180.0000,0.0000,0.0000
193,1.9300,-0.0028,-0.0618,0.0527,0.0813,0.0000,0.0000,0.0000,20.0000,0.9967,1.5583,74.1485,41.9590,0.0172,0.000721,10.1815,-48.6314,-16.2370,64.8684,10.1815,-0.0024,-1.6085,-11.1860,-0.9947,-0.0000,-0.000868,0.005635,-0.008175,-0.0032,0.0003,0.0012,-180.0000,0.0000,0.0000
194,1.9400,-0.0055,-0.0841,0.0623,0.1048,0.0000,0.0000,0.0000,20.0000,1.5837,1.5436,65.0868,43.4804,0.0174,0.000709,10.1815,-48.6314,-16.2370,64.8684,10.1815,-0.0024,-1.6085,-11.1860,-0.9947,-0.0000,-0.001048,0.011633,-0.010695,-0.0024,0.0020,0.0007,-180.0000,0.0000,0.0000
195,1.9500,-0.0210,-0.0931,0.0652,0.1156,0.0000,0.0000,0.0000,20.0000,2.0255,1.5579,47.9536,44.1977,0.0178,0.000708,10.1815,-48.6314,-16.2370,64.8684,10.1815,-0.0024,-1.6085,-11.1860,-0.9947,-0.0000,-0.002688,0.015822,-0.012357,-0.0011,0.0036,-0.0007,-180.0000,0.0000,0.0000
196,1.9600,-0.0406,-0.0790,0.0582,0.1061,0.0000,0.0000,0.0000,20.0000,2.1608,1.5874,29.9625,43.9095,0.0182,0.000903,10.1815,-48.6314,-16.2370,64.8684,10.1815,-0.0024,-1.6085,-11.1860,-0.9947,-0.0000,-0.005547,0.016696,-0.012546,-0.0006,0.0050,-0.0008,-180.0000,0.0000,0.0000
197,1.9700,-0.0554,-0.0531,0.0437,0.0883,0.0000,0.0000,0.0000,20.0000,2.0272,1.6152,39.7038,43.4102,0.0187,0.000822,10.1815,-48.6314,-16.2370,64.8684,10.1815,-0.0024,-1.6085,-11.1860,-0.9947,-0.0000,-0.008602,0.014557,-0.011183,0.0003,0.0043,-0.0013,-180.0000,0.0000,0.0000
198,1.9800,-0.0610,-0.0349,0.0292,0.0762,0.0000,0.0000,0.0000,20.0000,1.8182,1.6321,43.7255,43.3169,0.0191,0.000741,10.1815,-48.6314,-16.2370,64.8684,10.1815,-0.0024,-1.6085,-11.1860,-0.9947,-0.0000,-0.010837,0.011530,-0.008955,0.0000,0.0046,-0.0011,-180.0000,0.0000,0.0000
199,1.9900,-0.0518,-0.0244,0.0141,0.0590,0.0000,0.0000,0.0000,20.0000,1.5467,1.6349,39.0974,43.2121,0.0196,0.000706,10.1815,-48.6314,-16.2370,64.8684,10.1815,-0.0024,-1.6085,-11.1860,-0.9947,-0.0000,-0.011128,0.008778,-0.006194,-0.0000,0.0037,0.0005,-180.0000,0.0000,0.0000
200,2.0000,-0.0352,-0.0212,-0.0055,0.0415,0.0000,0.0000,0.0000,20.0000,1.2143,1.6209,42.4204,43.0772,0.0199,0.000828,10.1815,-48.6314,-16.2370,64.8684,10.1815,-0.0024,-1.6085,-11.1860,-0.9947,-0.0000,-0.009605,0.006923,-0.002696,0.0012,0.0032,0.0023,-180.0000,0.0000,0.0000
201,2.0100,-0.0276,-0.0268,-0.0275,0.0473,0.0000,0.0000,0.0000,20.0000,1.0361,1.5937,44.7083,43.1040,0.0201,0.000749,10.1815,-48.6314,-16.2370,64.8684,10.1815,-0.0024,-1.6085,-11.1860,-0.9947,-0.0000,-0.007982,0.006447,0.001443,0.0018,0.0031,0.0030,-180.0000,0.0000,0.0000
202,2.0200,-0.0336,-0.0302,-0.0460,0.0644,0.0000,0.0000,0.0000,20.0000,1.1500,1.5661,41.4298,43.1021,0.0203,0.000734,10.1815,-48.6314,-16.2370,64.8684,10.1815,-0.0024,-1.6085,-11.1860,-0.9947,-0.0000,-0.007675,0.006502,0.005574,0.0017,0.0038,0.0027,-180.0000,0.0000,0.0000
203,2.0300,-0.0508,-0.0286,-0.0563,0.0811,0.0000,0.0000,0.0000,20.0000,1.4289,1.5509,36.4818,42.8740,0.0205,0.000703,10.1815,-48.6314,-16.2370,64.8684,10.1815,-0.0024,-1.6085,-11.1860,-0.9947,-0.0000,-0.009204,0.006367,0.008884,0.0027,0.0027,0.0024,-180.0000,0.0000,0.0000
204,2.0400,-0.0693,-0.0270,-0.0634,0.0977,0.0000,0.0000,0.0000,20.0000,1.7564,1.5532,36.8158,42.5315,0.0207,0.000753,10.1815,-48.6314,-16.2370,64.8684,10.1815,-0.0024,-1.6085,-11.1860,-0.9947,-0.0000,-0.011879,0.006117,0.011401,0.0029,0.0018,0.0021,-180.0000,0.0000,0.0000
205,2.0500,-0.0738,-0.0163,-0.0662,0.1005,0.0000,0.0000,0.0000,20.0000,1.9612,1.5700,28.0633,41.9764,0.0209,0.000811,10.1815,-48.6314,-16.2370,64.8684,10.1815,-0.0024,-1.6085,-11.1860,-0.9947,-0.0000,-0.013792,0.004900,0.013055,0.0022,0.0001,0.0018,-180.0000,0.0000,0.0000
206,2.0600,-0.0634,0.0032,-0.0600,0.0873,0.0000,0.0000,0.0000,20.0000,1.9293,1.5906,26.4821,41.1676,0.0211,0.000843,10.1815,-48.6314,-16.2370,64.8684,10.1815,-0.0024,-1.6085,-11.1860,-0.9947,-0.0000,-0.013776,0.002265,0.013316,0.0017,-0.0007,0.0014,-180.0000,0.0000,0.0000
207,2.0700,-0.0441,0.0230,-0.0495,0.0702,0.0000,0.0000,0.0000,20.0000,1.7161,1.6034,40.6902,40.7506,0.0212,0.000702,10.1815,-48.6314,-16.2370,64.8684,10.1815,-0.0024,-1.6085,-11.1860,-0.9947,-0.0000,-0.011815,-0.001178,0.012390,0.0013,-0.0003,0.0017,-180.0000,0.0000,0.0000
208,2.0800,-0.0113,0.0508,-0.0405,0.0659,0.0000,0.0000,0.0000,20.0000,1.4468,1.6022,65.7604,41.4368,0.0212,0.000759,10.1815,-48.6314,-16.2370,64.8684,10.1815,-0.0024,-1.6085,-11.1860,-0.9947,-0.0000,-0.007422,-0.005856,0.010953,-0.0004,-0.0004,0.0023,-180.0000,0.0000,0.0000
209,2.0900,0.0242,0.0792,-0.0271,0.0871,0.0000,0.0000,0.0000,20.0000,1.4365,1.5934,83.5565,43.2642,0.0210,0.000733,10.1815,-48.6314,-16.2370,64.8684,10.1815,-0.0024,-1.6085,-11.1860,-0.9947,-0.0000,-0.001433,-0.011268,0.008794,-0.0016,0.0001,0.0003,-180.0000,0.0000,0.0000
210,2.1000,0.0482,0.0929,-0.0119,0.1053,0.0000,0.0000,0.0000,20.0000,1.7280,1.5928,76.7767,45.2942,0.0207,0.000743,10.1815,-48.6314,-16.2370,64.8684,10.1815,-0.0024,-1.6085,-11.1860,-0.9947,-0.0000,0.004280,-0.015607,0.006059,-0.0020,0.0008,-0.0002,-180.0000,0.0000,0.0000
211,2.1100,0.0683,0.0980,-0.0044,0.1195,0.0000,0.0000,0.0000,20.0000,2.1102,1.6107,63.3116,46.6556,0.0202,0.000773,10.1815,-48.6314,-16.2370,64.8684,10.1815,-0.0024,-1.6085,-11.1860,-0.9947,-0.0000,0.009441,-0.018488,0.003790,-0.0015,0.0015,-0.0003,-180.0000,0.0000,0.0000
212,2.1200,0.0848,0.0971,-0.0039,0.1290,0.0000,0.0000,0.0000,20.0000,2.4245,1.6468,46.5984,47.1121,0.0197,0.000669,10.1975,-48.6631,-16.2192,64.8823,10.1975,0.0027,-1.6084,-11.1817,-0.9942,-0.0000,0.013687,-0.019862,0.002449,-0.0010,0.0011,-0.0002,-180.0000,-0.0000,-0.0000
213,2.1300,0.0924,0.0857,-0.0108,0.1265,0.0000,0.0000,0.0000,20.0000,2.5786,1.6939,31.1006,46.6576,0.0191,0.000692,10.1975,-48.6631,-16.2192,64.8823,10.1975,0.0027,-1.6084,-11.1817,-0.9942,-0.0000,0.016768,-0.019444,0.002389,0.0006,0.0022,-0.0009,-180.0000,-0.0000,-0.0000
214,2.1400,0.0915,0.0714,-0.0278,0.1193,0.0000,0.0000,0.0000,20.0000,2.5841,1.7427,28.5525,45.7318,0.0184,0.000676,10.1975,-48.6631,-16.2192,64.8823,10.1975,0.0027,-1.6084,-11.1817,-0.9942,-0.0000,0.018347,-0.017741,0.004051,0.0024,0.0023,-0.0010,-180.0000,-0.0000,-0.0000
215,2.1500,0.0842,0.0635,-0.0466,0.1153,0.0000,0.0000,0.0000,20.0000,2.5350,1.7876,33.1049,44.9120,0.0178,0.000849,10.1975,-48.6631,-16.2192,64.8823,10.1975,0.0027,-1.6084,-11.1817,-0.9942,-0.0000,0.018456,-0.015972,0.006847,0.0019,0.0025,-0.0009,-180.0000,-0.0000,-0.0000
216,2.1600,0.0780,0.0527,-0.0608,0.1121,0.0000,0.0000,0.0000,20.0000,2.4650,1.8268,36.6089,44.3589,0.0172,0.000694,10.1975,-48.6631,-16.2192,64.8823,10.1975,0.0027,-1.6084,-11.1817,-0.9942,-0.0000,0.017862,-0.013881,0.009793,0.0016,0.0017,-0.0002,-180.0000,-0.0000,-0.0000
217,2.1700,0.0768,0.0398,-0.0678,0.1099,0.0000,0.0000,0.0000,20.0000,2.4057,1.8603,34.2024,43.8664,0.0166,0.000740,10.1975,-48.6631,-16.2192,64.8823,10.1975,0.0027,-1.6084,-11.1817,-0.9942,-0.0000,0.017380,-0.011408,0.012105,0.0015,0.0017,0.0006,-180.0000,-0.0000,-0.0000
218,2.1800,0.0756,0.0335,-0.0698,0.1082,0.0000,0.0000,0.0000,20.0000,2.3651,1.8892,25.1881,43.0869,0.0160,0.000787,10.1975,-48.6631,-16.2192,64.8823,10.1975,0.0027,-1.6084,-11.1817,-0.9942,-0.0000,0.016956,-0.009390,0.013553,0.0004,0.0016,0.0006,-180.0000,-0.0000,-0.0000
219,2.1900,0.0740,0.0337,-0.0716,0.1083,0.0000,0.0000,0.0000,20.0000,2.3496,1.9149,15.3484,41.8316,0.0154,0.000708,10.1975,-48.6631,-16.2192,64.8823,10.1975,0.0027,-1.6084,-11.1817,-0.9942,-0.0000,0.016522,-0.008274,0.014513,-0.0007,0.0015,0.0016,-180.0000,-0.0000,-0.0000
220,2.2000,0.0713,0.0395,-0.0738,0.1100,0.0000,0.0000,0.0000,20.0000,2.3565,1.9390,8.9862,40.1999,0.0149,0.000743,10.1975,-48.6631,-16.2192,64.8823,10.1975,0.0027,-1.6084,-11.1817,-0.9942,-0.0000,0.015988,-0.008224,0.015233,0.0005,0.0022,0.0014,-180.0000,-0.0000,-0.0000
221,2.2100,0.0619,0.0537,-0.0806,0.1149,0.0000,0.0000,0.0000,20.0000,2.3953,1.9630,21.4916,38.8268,0.0143,0.000702,10.1975,-48.6631,-16.2192,64.8823,10.1975,0.0027,-1.6084,-11.1817,-0.9942,-0.0000,0.014713,-0.009601,0.016281,0.0015,0.0029,0.0001,-180.0000,-0.0000,-0.0000
222,2.2200,0.0526,0.0766,-0.0983,0.1353,0.0000,0.0000,0.0000,20.0000,2.5993,1.9924,41.6208,38.4269,0.0138,0.000744,10.1975,-48.6631,-16.2192,64.8823,10.1975,0.0027,-1.6084,-11.1817,-0.9942,-0.0000,0.013048,-0.012634,0.018594,0.0024,0.0026,0.0001,-180.0000,-0.0000,-0.0000
223,2.2300,0.0469,0.1029,-0.1183,0.1637,0.0000,0.0000,0.0000,20.0000,2.9934,2.0366,55.7973,38.9925,0.0133,0.000752,10.1975,-48.6631,-16.2192,64.8823,10.1975,0.0027,-1.6084,-11.1817,-0.9942,-0.0000,0.011534,-0.016913,0.021839,0.0029,0.0024,0.0006,-180.0000,-0.0000,-0.0000
224,2.2400,0.0437,0.1187,-0.1289,0.1806,0.0000,0.0000,0.0000,20.0000,3.3892,2.1002,49.6110,39.7467,0.0127,0.000686,10.1975,-48.6631,-16.2192,64.8823,10.1975,0.0027,-1.6084,-11.1817,-0.9942,-0.0000,0.010355,-0.020826,0.024653,0.0018,0.0018,0.0013,-180.0000,-0.0000,-0.0000
225,2.2500,0.0505,0.1120,-0.1319,0.1803,0.0000,0.0000,0.0000,20.0000,3.6103,2.1772,23.1256,39.5609,0.0122,0.002254,10.1975,-48.6631,-16.2192,64.8823,10.1975,0.0027,-1.6084,-11.1817,-0.9942,-0.0000,0.010364,-0.022277,0.026453,0.0019,0.0005,0.0022,-180.0000,-0.0000,-0.0000
226,2.2600,0.0600,0.0871,-0.1239,0.1629,0.0000,0.0000,0.0000,20.0000,3.5452,2.2542,19.7951,38.5652,0.0117,0.000753,10.1975,-48.6631,-16.2192,64.8823,10.1975,0.0027,-1.6084,-11.1817,-0.9942,-0.0000,0.011298,-0.020538,0.026597,0.0013,0.0003,0.0033,-180.0000,-0.0000,-0.0000
227,2.2700,0.0620,0.0518,-0.0988,0.1276,0.0000,0.0000,0.0000,20.0000,3.1327,2.3139,52.1337,38.4222,0.0112,0.000727,10.1975,-48.6631,-16.2192,64.8823,10.1975,0.0027,-1.6084,-11.1817,-0.9942,-0.0000,0.011991,-0.016008,0.024110,0.0001,0.0007,0.0030,-180.0000,-0.0000,-0.0000
228,2.2800,0.0582,0.0116,-0.0631,0.0866,0.0000,0.0000,0.0000,20.0000,2.4457,2.3400,82.4005,40.0089,0.0108,0.000713,10.1975,-48.6631,-16.2192,64.8823,10.1975,0.0027,-1.6084,-11.1817,-0.9942,-0.0000,0.011973,-0.009455,0.019116,0.0008,0.0015,0.0031,-180.0000,-0.0000,-0.0000
229,2.2900,0.0518,-0.0228,-0.0274,0.0629,0.0000,0.0000,0.0000,20.0000,1.7204,2.3259,95.4169,42.6987,0.0105,0.000796,10.1975,-48.6631,-16.2192,64.8823,10.1975,0.0027,-1.6084,-11.1817,-0.9942,-0.0000,0.011299,-0.002375,0.012754,0.0012,0.0029,0.0026,-180.0000,-0.0000,-0.0000
230,2.3000,0.0386,-0.0414,0.0043,0.0568,0.0000,0.0000,0.0000,20.0000,1.1828,2.2778,90.2426,45.4563,0.0103,0.000753,10.1975,-48.6631,-16.2192,64.8823,10.1975,0.0027,-1.6084,-11.1817,-0.9942,-0.0000,0.009579,0.003408,0.006043,0.0009,0.0029,0.0011,-180.0000,-0.0000,-0.0000
231,2.3100,0.0227,-0.0460,0.0272,0.0581,0.0000,0.0000,0.0000,20.0000,0.9958,2.2124,74.8968,47.4979,0.0102,0.000685,10.1975,-48.6631,-16.2192,64.8823,10.1975,0.0027,-1.6084,-11.1817,-0.9942,-0.0000,0.007025,0.007058,0.000023,0.0011,0.0032,-0.0001,-180.0000,-0.0000,-0.0000
232,2.3200,0.0093,-0.0443,0.0289,0.0537,0.0000,0.0000,0.0000,20.0000,1.0119,2.1459,41.2632,48.0800,0.0102,0.000837,10.1360,-48.6279,-16.2698,64.8977,10.1360,-0.0133,-1.6091,-11.1929,-0.9956,0.0000,0.004667,0.008437,-0.003070,0.0017,0.0035,0.0004,-180.0000,0.0000,-0.0000
233,2.3300,-0.0000,-0.0384,0.0063,0.0390,0.0000,0.0000,0.0000,20.0000,0.9276,2.0812,23.2048,47.2083,0.0102,0.000724,10.1360,-48.6279,-16.2698,64.8977,10.1360,-0.0133,-1.6091,-11.1929,-0.9956,0.0000,0.002419,0.008595,-0.002515,0.0020,0.0018,0.0020,-180.0000,0.0000,-0.0000
234,2.3400,-0.0027,-0.0245,-0.0279,0.0372,0.0000,0.0000,0.0000,20.0000,0.7425,2.0127,42.4504,46.4173,0.0102,0.000718,10.1360,-48.6279,-16.2698,64.8977,10.1360,-0.0133,-1.6091,-11.1929,-0.9956,0.0000,0.000900,0.007268,0.001221,0.0028,0.0016,0.0033,-180.0000,0.0000,-0.0000
235,2.3500,-0.0043,-0.0056,-0.0580,0.0584,0.0000,0.0000,0.0000,20.0000,0.7812,1.9439,58.0326,46.6276,0.0102,0.000712,10.1360,-48.6279,-16.2698,64.8977,10.1360,-0.0133,-1.6091,-11.1929,-0.9956,0.0000,-0.000097,0.004629,0.006292,0.0022,0.0015,0.0036,-180.0000,0.0000,-0.0000
236,2.3600,-0.0115,0.0040,-0.0696,0.0707,0.0000,0.0000,0.0000,20.0000,1.0572,1.8875,48.1213,46.9824,0.0102,0.000991,10.1360,-48.6279,-16.2698,64.8977,10.1360,-0.0133,-1.6091,-11.1929,-0.9956,0.0000,-0.001368,0.002203,0.010249,0.0009,0.0008,0.0033,-180.0000,0.0000,-0.0000
237,2.3700,-0.0181,-0.0045,-0.0579,0.0609,0.0000,0.0000,0.0000,20.0000,1.1697,1.8449,17.6125,46.2059,0.0102,0.000694,10.1360,-48.6279,-16.2698,64.8977,10.1360,-0.0133,-1.6091,-11.1929,-0.9956,0.0000,-0.002734,0.001708,0.011243,0.0009,0.0010,0.0021,-180.0000,0.0000,-0.0000
238,2.3800,-0.0211,-0.0213,-0.0306,0.0428,0.0000,0.0000,0.0000,20.0000,1.0278,1.8039,28.1649,44.9233,0.0102,0.000806,10.1360,-48.6279,-16.2698,64.8977,10.1360,-0.0133,-1.6091,-11.1929,-0.9956,0.0000,-0.003778,0.003114,0.009037,-0.0001,0.0020,0.0008,-180.0000,0.0000,-0.0000
239,2.3900,-0.0228,-0.0359,-0.0010,0.0425,0.0000,0.0000,0.0000,20.0000,0.8509,1.7563,48.1137,44.5501,0.0103,0.000755,10.1360,-48.6279,-16.2698,64.8977,10.1360,-0.0133,-1.6091,-11.1929,-0.9956,0.0000,-0.004521,0.005343,0.004839,0.0001,0.0017,0.0006,-180.0000,0.0000,-0.0000
240,2.4000,-0.0224,-0.0481,0.0196,0.0565,0.0000,0.0000,0.0000,20.0000,0.9197,1.7084,50.3320,44.8072,0.0105,0.000698,10.1360,-48.6279,-16.2698,64.8977,10.1360,-0.0133,-1.6091,-11.1929,-0.9956,0.0000,-0.004885,0.007780,0.000450,-0.0003,0.0031,0.0016,-180.0000,0.0000,-0.0000
241,2.4100,-0.0208,-0.0507,0.0302,0.0626,0.0000,0.0000,0.0000,20.0000,1.1018,1.6700,38.3796,44.7823,0.0106,0.000738,10.1360,-48.6279,-16.2698,64.8977,10.1360,-0.0133,-1.6091,-11.1929,-0.9956,0.0000,-0.004917,0.009379,-0.003039,0.0010,0.0049,0.0016,-180.0000,0.0000,-0.0000
242,2.4200,-0.0209,-0.0467,0.0344,0.0616,0.0000,0.0000,0.0000,20.0000,1.2249,1.6422,23.8164,44.0296,0.0108,0.000692,10.1360,-48.6279,-16.2698,64.8977,10.1360,-0.0133,-1.6091,-11.1929,-0.9956,0.0000,-0.004927,0.009843,-0.005375,-0.0001,0.0047,0.0022,-180.0000,0.0000,-0.0000
243,2.4300,-0.0239,-0.0478,0.0349,0.0638,0.0000,0.0000,0.0000,20.0000,1.3272,1.6220,14.0921,42.6502,0.0110,0.000722,10.1360,-48.6279,-16.2698,64.8977,10.1360,-0.0133,-1.6091,-11.1929,-0.9956,0.0000,-0.005227,0.010190,-0.006707,-0.0013,0.0040,0.0031,-180.0000,0.0000,-0.0000
244,2.4400,-0.0342,-0.0578,0.0329,0.0748,0.0000,0.0000,0.0000,20.0000,1.4918,1.6103,17.4958,41.1729,0.0112,0.000688,10.1360,-48.6279,-16.2698,64.8977,10.1360,-0.0133,-1.6091,-11.1929,-0.9956,0.0000,-0.006415,0.011363,-0.007232,-0.0014,0.0041,0.0037,-180.0000,0.0000,-0.0000
245,2.4500,-0.0461,-0.0748,0.0309,0.0931,0.0000,0.0000,0.0000,20.0000,1.7569,1.6111,29.5751,40.2027,0.0115,0.000697,10.1360,-48.6279,-16.2698,64.8977,10.1360,-0.0133,-1.6091,-11.1929,-0.9956,0.0000,-0.008246,0.013684,-0.007308,-0.0014,0.0032,0.0032,-180.0000,0.0000,-0.0000
246,2.4600,-0.0466,-0.0915,0.0307,0.1072,0.0000,0.0000,0.0000,20.0000,2.0392,1.6269,31.0800,39.6595,0.0119,0.000782,10.1360,-48.6279,-16.2698,64.8977,10.1360,-0.0133,-1.6091,-11.1929,-0.9956,0.0000,-0.009288,0.016612,-0.007321,-0.0028,0.0014,0.0042,-180.0000,0.0000,-0.0000
247,2.4700,-0.0492,-0.0965,0.0306,0.1126,0.0000,0.0000,0.0000,20.0000,2.2473,1.6553,22.3955,38.9487,0.0123,0.000803,10.1360,-48.6279,-16.2698,64.8977,10.1360,-0.0133,-1.6091,-11.1929,-0.9956,0.0000,-0.010111,0.018695,-0.007300,-0.0018,0.0031,0.0034,-180.0000,0.0000,-0.0000
248,2.4800,-0.0561,-0.0867,0.0263,0.1066,0.0000,0.0000,0.0000,20.0000,2.2974,1.6892,12.2454,37.7590,0.0127,0.000766,10.1360,-48.6279,-16.2698,64.8977,10.1360,-0.0133,-1.6091,-11.1929,-0.9956,0.0000,-0.011237,0.018835,-0.006840,0.0001,0.0036,0.0019,-180.0000,0.0000,-0.0000
249,2.4900,-0.0528,-0.0647,0.0151,0.0848,0.0000,0.0000,0.0000,20.0000,2.0974,1.7172,25.8684,36.7302,0.0131,0.000699,10.1360,-48.6279,-16.2698,64.8977,10.1360,-0.0133,-1.6091,-11.1929,-0.9956,0.0000,-0.011504,0.016667,-0.005454,0.0003,0.0038,-0.0003,-180.0000,0.0000,-0.0000
250,2.5000,-0.0508,-0.0321,-0.0036,0.0601,0.0000,0.0000,0.0000,20.0000,1.6929,1.7270,52.1628,36.8559,0.0135,0.000757,10.1360,-48.6279,-16.2698,64.8977,10.1360,-0.0133,-1.6091,-11.1929,-0.9956,0.0000,-0.011423,0.012174,-0.002805,0.0014,0.0056,-0.0020,-180.0000,0.0000,-0.0000
251,2.5100,-0.0652,-0.0008,-0.0254,0.0700,0.0000,0.0000,0.0000,20.0000,1.4402,1.7181,68.5242,38.1479,0.0138,0.000845,10.1360,-48.6279,-16.2698,64.8977,10.1360,-0.0133,-1.6091,-11.1929,-0.9956,0.0000,-0.012805,0.006539,0.000841,0.0014,0.0074,-0.0032,-180.0000,0.0000,-0.0000
252,2.5200,-0.0787,0.0220,-0.0464,0.0939,0.0000,0.0000,0.0000,20.0000,1.5782,1.7067,70.4867,39.8729,0.0141,0.000685,10.1587,-48.6258,-16.2851,64.9108,10.1587,0.0051,-1.6126,-16.7076,-0.9964,0.0000,-0.014867,0.001334,0.005123,0.0001,0.0056,-0.0040,-180.0000,0.0000,0.0000
253,2.5300,-0.0944,0.0307,-0.0644,0.1183,0.0000,0.0000,0.0000,20.0000,1.9999,1.7112,62.1130,41.3266,0.0144,0.004304,10.1587,-48.6258,-16.2851,64.9108,10.1587,0.0051,-1.6126,-16.7076,-0.9964,0.0000,-0.017549,-0.002421,0.009280,-0.0016,0.0055,-0.0045,-180.0000,0.0000,0.0000
254,2.5400,-0.1228,0.0245,-0.0717,0.1443,0.0000,0.0000,0.0000,20.0000,2.5357,1.7418,54.3720,42.2571,0.0147,0.000816,10.1587,-48.6258,-16.2851,64.9108,10.1587,0.0051,-1.6126,-16.7076,-0.9964,0.0000,-0.021836,-0.003866,0.012297,-0.0020,0.0051,-0.0032,-180.0000,0.0000,0.0000
255,2.5500,-0.1470,0.0023,-0.0692,0.1625,0.0000,0.0000,0.0000,20.0000,3.0005,1.7983,51.5347,42.8454,0.0152,0.000717,10.1587,-48.6258,-16.2851,64.9108,10.1587,0.0051,-1.6126,-16.7076,-0.9964,0.0000,-0.026591,-0.002444,0.013685,-0.0030,0.0033,-0.0025,-180.0000,0.0000,0.0000
256,2.5600,-0.1547,-0.0272,-0.0684,0.1713,0.0000,0.0000,0.0000,20.0000,3.3220,1.8732,50.6182,43.2982,0.0159,0.000884,10.1587,-48.6258,-16.2851,64.9108,10.1587,0.0051,-1.6126,-16.7076,-0.9964,0.0000,-0.029933,0.001300,0.014349,-0.0020,0.0018,-0.0003,-180.0000,0.0000,0.0000
257,2.5700,-0.1485,-0.0494,-0.0731,0.1727,0.0000,0.0000,0.0000,20.0000,3.5043,1.9579,45.1102,43.5494,0.0166,0.000906,10.1587,-48.6258,-16.2851,64.9108,10.1587,0.0051,-1.6126,-16.7076,-0.9964,0.0000,-0.031101,0.005582,0.015153,0.0004,0.0025,0.0015,-180.0000,0.0000,0.0000
258,2.5800,-0.1302,-0.0625,-0.0795,0.1649,0.0000,0.0000,0.0000,20.0000,3.5207,2.0435,40.1796,43.4996,0.0173,0.000659,10.1587,-48.6258,-16.2851,64.9108,10.1587,0.0051,-1.6126,-16.7076,-0.9964,0.0000,-0.029851,0.009251,0.016213,0.0002,0.0021,0.0029,-180.0000,0.0000,0.0000
259,2.5900,-0.1037,-0.0729,-0.0920,0.1566,0.0000,0.0000,0.0000,20.0000,3.4283,2.1222,49.1022,43.5624,0.0180,0.000761,10.1587,-48.6258,-16.2851,64.9108,10.1587,0.0051,-1.6126,-16.7076,-0.9964,0.0000,-0.026448,0.012297,0.018016,0.0005,0.0019,0.0038,-180.0000,0.0000,0.0000
260,2.6000,-0.0812,-0.0784,-0.1093,0.1571,0.0000,0.0000,0.0000,20.0000,3.3689,2.1924,54.4348,44.0138,0.0186,0.000663,10.1587,-48.6258,-16.2851,64.9108,10.1587,0.0051,-1.6126,-16.7076,-0.9964,0.0000,-0.022264,0.014511,0.020704,0.0010,0.0033,0.0050,-180.0000,0.0000,0.0000
261,2.6100,-0.0708,-0.0751,-0.1208,0.1589,0.0000,0.0000,0.0000,20.0000,3.3699,2.2571,43.5761,44.2884,0.0192,0.000774,10.1587,-48.6258,-16.2851,64.9108,10.1587,0.0051,-1.6126,-16.7076,-0.9964,0.0000,-0.018874,0.015380,0.023300,-0.0006,0.0042,0.0041,-180.0000,0.0000,0.0000
262,2.6200,-0.0731,-0.0713,-0.1230,0.1599,0.0000,0.0000,0.0000,20.0000,3.3978,2.3191,23.2993,43.6915,0.0197,0.000745,10.1587,-48.6258,-16.2851,64.9108,10.1587,0.0051,-1.6126,-16.7076,-0.9964,0.0000,-0.017190,0.015444,0.024909,-0.0029,0.0029,0.0035,-180.0000,0.0000,0.0000
263,2.6300,-0.0834,-0.0674,-0.1205,0.1613,0.0000,0.0000,0.0000,20.0000,3.4272,2.3793,7.0943,42.1241,0.0203,0.000716,10.1587,-48.6258,-16.2851,64.9108,10.1587,0.0051,-1.6126,-16.7076,-0.9964,0.0000,-0.017253,0.015056,0.025499,-0.0020,0.0039,0.0018,-180.0000,0.0000,0.0000
264,2.6400,-0.1000,-0.0556,-0.1159,0.1629,0.0000,0.0000,0.0000,20.0000,3.4417,2.4373,21.9287,40.6052,0.0209,0.000751,10.1587,-48.6258,-16.2851,64.9108,10.1587,0.0051,-1.6126,-16.7076,-0.9964,0.0000,-0.018916,0.013639,0.025313,-0.0012,0.0051,-0.0005,-180.0000,0.0000,0.0000
265,2.6500,-0.1071,-0.0313,-0.1060,0.1539,0.0000,0.0000,0.0000,20.0000,3.3355,2.4896,37.8846,40.0167,0.0215,0.000775,10.1587,-48.6258,-16.2851,64.9108,10.1587,0.0051,-1.6126,-16.7076,-0.9964,0.0000,-0.020502,0.010393,0.024171,-0.0001,0.0049,-0.0022,-180.0000,0.0000,0.0000
266,2.6600,-0.0992,-0.0055,-0.0951,0.1376,0.0000,0.0000,0.0000,20.0000,3.0988,2.5297,47.3821,40.1606,0.0222,0.000636,10.1587,-48.6258,-16.2851,64.9108,10.1587,0.0051,-1.6126,-16.7076,-0.9964,0.0000,-0.020555,0.005998,0.022401,0.0017,0.0049,-0.0025,-180.0000,0.0000,0.0000
267,2.6700,-0.0856,0.0144,-0.0851,0.1216,0.0000,0.0000,0.0000,20.0000,2.8028,2.5528,50.5736,40.6456,0.0227,0.000772,10.1587,-48.6258,-16.2851,64.9108,10.1587,0.0051,-1.6126,-16.7076,-0.9964,0.0000,-0.019183,0.001572,0.020375,0.0032,0.0058,-0.0032,-180.0000,0.0000,0.0000
268,2.6800,-0.0684,0.0279,-0.0699,0.1018,0.0000,0.0000,0.0000,20.0000,2.4410,2.5566,52.9288,41.2565,0.0231,0.000823,10.1587,-48.6258,-16.2851,64.9108,10.1587,0.0051,-1.6126,-16.7076,-0.9964,0.0000,-0.016664,-0.002235,0.017696,0.0026,0.0055,-0.0021,-180.0000,0.0000,0.0000
269,2.6900,-0.0474,0.0355,-0.0483,0.0765,0.0000,0.0000,0.0000,20.0000,1.9876,2.5378,58.4361,42.0501,0.0235,0.000697,10.1587,-48.6258,-16.2851,64.9108,10.1587,0.0051,-1.6126,-16.7076,-0.9964,0.0000,-0.013139,-0.005095,0.014017,0.0018,0.0048,-0.0006,-180.0000,0.0000,0.0000
270,2.7000,-0.0393,0.0334,-0.0282,0.0588,0.0000,0.0000,0.0000,20.0000,1.5740,2.4962,51.1909,42.7521,0.0237,0.000757,10.1587,-48.6258,-16.2851,64.9108,10.1587,0.0051,-1.6126,-16.7076,-0.9964,0.0000,-0.010355,-0.006456,0.009942,0.0008,0.0041,0.0006,-180.0000,0.0000,0.0000
271,2.7100,-0.0480,0.0237,-0.0161,0.0559,0.0000,0.0000,0.0000,20.0000,1.3185,2.4384,35.5772,42.7869,0.0239,0.000895,10.1587,-48.6258,-16.2851,64.9108,10.1587,0.0051,-1.6126,-16.7076,-0.9964,0.0000,-0.009665,-0.006220,0.006460,0.0008,0.0049,-0.0006,-180.0000,0.0000,0.0000
272,2.7200,-0.0581,0.0136,-0.0141,0.0613,0.0000,0.0000,0.0000,20.0000,1.2851,2.3759,25.3944,42.1102,0.0242,0.000734,10.2004,-48.7299,-16.2701,65.0001,10.2004,0.0096,-1.6499,-16.0038,-0.9938,-0.0000,-0.010922,-0.004831,0.004745,0.0003,0.0051,0.0007,-180.0000,-0.0000,0.0000
273,2.7300,-0.0680,0.0074,-0.0217,0.0717,0.0000,0.0000,0.0000,20.0000,1.3809,2.3185,21.8016,41.0919,0.0245,0.000733,10.2004,-48.7299,-16.2701,65.0001,10.2004,0.0096,-1.6499,-16.0038,-0.9938,-0.0000,-0.012579,-0.003427,0.004552,0.0018,0.0051,0.0014,-180.0000,-0.0000,0.0000
274,2.7400,-0.0818,0.0079,-0.0355,0.0895,0.0000,0.0000,0.0000,20.0000,1.6172,2.2734,26.9483,40.1724,0.0249,0.000748,10.2004,-48.7299,-16.2701,65.0001,10.2004,0.0096,-1.6499,-16.0038,-0.9938,-0.0000,-0.014848,-0.002701,0.005811,0.0009,0.0044,0.0018,-180.0000,-0.0000,0.0000
275,2.7500,-0.0941,0.0126,-0.0506,0.1075,0.0000,0.0000,0.0000,20.0000,1.9264,2.2458,32.9221,39.6092,0.0254,0.000728,10.2004,-48.7299,-16.2701,65.0001,10.2004,0.0096,-1.6499,-16.0038,-0.9938,-0.0000,-0.017305,-0.002758,0.008002,0.0011,0.0038,0.0018,-180.0000,-0.0000,0.0000
276,2.7600,-0.1014,0.0181,-0.0614,0.1199,0.0000,0.0000,0.0000,20.0000,2.2172,2.2363,31.2123,39.1944,0.0260,0.000781,10.2004,-48.7299,-16.2701,65.0001,10.2004,0.0096,-1.6499,-16.0038,-0.9938,-0.0000,-0.019361,-0.003334,0.010278,-0.0005,0.0020,0.0026,-180.0000,-0.0000,0.0000
277,2.7700,-0.1073,0.0173,-0.0682,0.1284,0.0000,0.0000,0.0000,20.0000,2.4593,2.2419,25.7117,38.6040,0.0266,0.000751,10.2004,-48.7299,-16.2701,65.0001,10.2004,0.0096,-1.6499,-16.0038,-0.9938,-0.0000,-0.021053,-0.003570,0.012200,-0.0004,0.0019,0.0010,-180.0000,-0.0000,0.0000
278,2.7800,-0.1088,0.0074,-0.0711,0.1301,0.0000,0.0000,0.0000,20.0000,2.6040,2.2578,18.9062,37.7076,0.0273,0.000677,10.2004,-48.7299,-16.2701,65.0001,10.2004,0.0096,-1.6499,-16.0038,-0.9938,-0.0000,-0.022089,-0.002703,0.013522,-0.0012,0.0015,-0.0007,-180.0000,-0.0000,0.0000
279,2.7900,-0.1062,-0.0050,-0.0714,0.1280,0.0000,0.0000,0.0000,20.0000,2.6534,2.2782,18.9053,36.6734,0.0280,0.000783,10.2004,-48.7299,-16.2701,65.0001,10.2004,0.0096,-1.6499,-16.0038,-0.9938,-0.0000,-0.022358,-0.000982,0.014256,0.0008,0.0024,-0.0023,-180.0000,-0.0000,0.0000
280,2.8000,-0.0984,-0.0126,-0.0692,0.1210,0.0000,0.0000,0.0000,20.0000,2.6053,2.2975,18.5403,35.6860,0.0288,0.000762,10.2004,-48.7299,-16.2701,65.0001,10.2004,0.0096,-1.6499,-16.0038,-0.9938,-0.0000,-0.021689,0.000740,0.014415,0.0004,0.0027,-0.0032,-180.0000,-0.0000,0.0000
281,2.8100,-0.0873,-0.0208,-0.0636,0.1100,0.0000,0.0000,0.0000,20.0000,2.4629,2.3105,23.8570,34.8890,0.0295,0.000735,10.2004,-48.7299,-16.2701,65.0001,10.2004,0.0096,-1.6499,-16.0038,-0.9938,-0.0000,-0.020165,0.002507,0.013916,0.0017,0.0038,-0.0035,-180.0000,-0.0000,0.0000
282,2.8200,-0.0793,-0.0248,-0.0620,0.1036,0.0000,0.0000,0.0000,20.0000,2.3180,2.3149,22.2350,34.2376,0.0302,0.000825,10.2004,-48.7299,-16.2701,65.0001,10.2004,0.0096,-1.6499,-16.0038,-0.9938,-0.0000,-0.018476,0.003876,0.013452,0.0017,0.0042,-0.0020,-180.0000,-0.0000,0.0000
283,2.8300,-0.0774,-0.0169,-0.0708,0.1062,0.0000,0.0000,0.0000,20.0000,2.2621,2.3136,13.0579,33.3249,0.0309,0.000762,10.2004,-48.7299,-16.2701,65.0001,10.2004,0.0096,-1.6499,-16.0038,-0.9938,-0.0000,-0.017313,0.003836,0.014045,0.0011,0.0056,-0.0018,-180.0000,-0.0000,0.0000
284,2.8400,-0.0774,-0.0146,-0.0858,0.1165,0.0000,0.0000,0.0000,20.0000,2.3258,2.3125,19.4574,32.3861,0.0315,0.000654,10.2004,-48.7299,-16.2701,65.0001,10.2004,0.0096,-1.6499,-16.0038,-0.9938,-0.0000,-0.016638,0.003580,0.015852,-0.0008,0.0059,-0.0017,-180.0000,-0.0000,0.0000
285,2.8500,-0.0766,-0.0268,-0.1059,0.1334,0.0000,0.0000,0.0000,20.0000,2.5237,2.3187,31.9115,32.0174,0.0322,0.000726,10.2004,-48.7299,-16.2701,65.0001,10.2004,0.0096,-1.6499,-16.0038,-0.9938,-0.0000,-0.016158,0.004643,0.018822,-0.0020,0.0058,-0.0003,-180.0000,-0.0000,0.0000
286,2.8600,-0.0781,-0.0410,-0.1236,0.1518,0.0000,0.0000,0.0000,20.0000,2.8161,2.3380,39.2908,32.2146,0.0329,0.000818,10.2004,-48.7299,-16.2701,65.0001,10.2004,0.0096,-1.6499,-16.0038,-0.9938,-0.0000,-0.016004,0.006648,0.022197,-0.0035,0.0049,0.0001,-180.0000,-0.0000,0.0000
287,2.8700,-0.0772,-0.0556,-0.1280,0.1595,0.0000,0.0000,0.0000,20.0000,3.0545,2.3708,34.2135,32.4642,0.0337,0.000726,10.2004,-48.7299,-16.2701,65.0001,10.2004,0.0096,-1.6499,-16.0038,-0.9938,-0.0000,-0.015804,0.009202,0.024465,-0.0047,0.0044,-0.0006,-180.0000,-0.0000,0.0000
288,2.8800,-0.0681,-0.0709,-0.1209,0.1558,0.0000,0.0000,0.0000,20.0000,3.1423,2.4109,31.4497,32.4844,0.0344,0.000748,10.2004,-48.7299,-16.2701,65.0001,10.2004,0.0096,-1.6499,-16.0038,-0.9938,-0.0000,-0.014747,0.012122,0.024960,-0.0040,0.0028,0.0002,-180.0000,-0.0000,0.0000
289,2.8900,-0.0491,-0.0728,-0.1005,0.1334,0.0000,0.0000,0.0000,20.0000,2.9635,2.4462,35.8080,32.5473,0.0352,0.000986,10.2004,-48.7299,-16.2701,65.0001,10.2004,0.0096,-1.6499,-16.0038,-0.9938,-0.0000,-0.012229,0.013903,0.023139,-0.0029,0.0016,0.0029,-180.0000,-0.0000,0.0000
290,2.9000,-0.0240,-0.0569,-0.0631,0.0883,0.0000,0.0000,0.0000,20.0000,2.4119,2.4595,62.2833,33.4549,0.0357,0.000721,10.2004,-48.7299,-16.2701,65.0001,10.2004,0.0096,-1.6499,-16.0038,-0.9938,-0.0000,-0.008303,0.013275,0.018345,-0.0022,0.0021,0.0022,-180.0000,-0.0000,0.0000
291,2.9100,0.0005,-0.0347,-0.0228,0.0415,0.0000,0.0000,0.0000,20.0000,1.6214,2.4351,85.5616,35.6809,0.0361,0.000838,10.2004,-48.7299,-16.2701,65.0001,10.2004,0.0096,-1.6499,-16.0038,-0.9938,-0.0000,-0.003673,0.010678,0.011635,-0.0012,0.0020,0.0024,-180.0000,-0.0000,0.0000
292,2.9200,0.0160,-0.0185,0.0097,0.0263,0.0000,0.0000,0.0000,20.0000,0.9262,2.3712,78.6342,38.2342,0.0362,0.000808,10.2205,-48.8543,-16.2591,65.1134,10.2205,-0.0008,-2.2749,-11.1880,-1.4201,-0.0000,-0.000270,0.007640,0.005230,-0.0001,0.0015,0.0028,-180.0000,0.0000,-0.0000
293,2.9300,0.0185,-0.0118,0.0358,0.0420,0.0000,0.0000,0.0000,20.0000,0.5679,2.2819,69.3603,40.2015,0.0362,0.000729,10.2205,-48.8543,-16.2591,65.1134,10.2205,-0.0008,-2.2749,-11.1880,-1.4201,-0.0000,0.001864,0.005283,-0.000934,-0.0006,0.0018,0.0030,-180.0000,0.0000,-0.0000
294,2.9400,0.0140,-0.0184,0.0463,0.0517,0.0000,0.0000,0.0000,20.0000,0.7554,2.1928,45.5928,41.1518,0.0361,0.000803,10.2205,-48.8543,-16.2591,65.1134,10.2205,-0.0008,-2.2749,-11.1880,-1.4201,-0.0000,0.002586,0.004621,-0.005387,-0.0015,0.0022,0.0029,-180.0000,0.0000,-0.0000
295,2.9500,0.0059,-0.0354,0.0339,0.0494,0.0000,0.0000,0.0000,20.0000,0.9150,2.1181,18.4610,40.6498,0.0361,0.000751,10.2205,-48.8543,-16.2591,65.1134,10.2205,-0.0008,-2.2749,-11.1880,-1.4201,-0.0000,0.002176,0.005950,-0.006601,-0.0009,0.0030,0.0050,-180.0000,0.0000,-0.0000
296,2.9600,0.0029,-0.0441,0.0108,0.0455,0.0000,0.0000,0.0000,20.0000,0.9164,2.0519,23.5927,39.5704,0.0361,0.000718,10.2205,-48.8543,-16.2591,65.1134,10.2205,-0.0008,-2.2749,-11.1880,-1.4201,-0.0000,0.001640,0.007541,-0.004943,-0.0014,0.0051,0.0050,-180.0000,0.0000,-0.0000
297,2.9700,0.0092,-0.0385,-0.0085,0.0405,0.0000,0.0000,0.0000,20.0000,0.8357,1.9873,28.8737,38.8367,0.0361,0.000936,10.2205,-48.8543,-16.2591,65.1134,10.2205,-0.0008,-2.2749,-11.1880,-1.4201,-0.0000,0.001971,0.007848,-0.002091,-0.0034,0.0066,0.0056,-180.0000,0.0000,-0.0000
298,2.9800,0.0216,-0.0228,-0.0210,0.0378,0.0000,0.0000,0.0000,20.0000,0.7312,1.9210,34.7286,38.4497,0.0361,0.000825,10.2205,-48.8543,-16.2591,65.1134,10.2205,-0.0008,-2.2749,-11.1880,-1.4201,-0.0000,0.003391,0.006435,0.000746,-0.0029,0.0060,0.0057,-180.0000,0.0000,-0.0000
299,2.9900,0.0320,-0.0033,-0.0253,0.0410,0.0000,0.0000,0.0000,20.0000,0.6950,1.8546,38.5435,38.3500,0.0360,0.000725,10.2205,-48.8543,-16.2591,65.1134,10.2205,-0.0008,-2.2749,-11.1880,-1.4201,-0.0000,0.005212,0.003688,0.002744,-0.0036,0.0056,0.0049,-180.0000,0.0000,-0.0000
300,3.0000,0.0378,0.0120,-0.0213,0.0451,0.0000,0.0000,0.0000,20.0000,0.7637,1.7927,35.1234,38.2665,0.0358,0.000758,10.2205,-48.8543,-16.2591,65.1134,10.2205,-0.0008,-2.2749,-11.1880,-1.4201,-0.0000,0.006792,0.000628,0.003435,-0.0032,0.0044,0.0031,-180.0000,0.0000,-0.0000
301,3.0100,0.0373,0.0200,-0.0148,0.0449,0.0000,0.0000,0.0000,20.0000,0.8438,1.7383,26.3355,37.8519,0.0355,0.000777,10.2205,-48.8543,-16.2591,65.1134,10.2205,-0.0008,-2.2749,-11.1880,-1.4201,-0.0000,0.007595,-0.001866,0.003168,-0.0019,0.0031,0.0024,-180.0000,0.0000,-0.0000
302,3.0200,0.0279,0.0216,-0.0125,0.0375,0.0000,0.0000,0.0000,20.0000,0.8338,1.6888,16.5646,36.9497,0.0352,0.000798,10.2205,-48.8543,-16.2591,65.1134,10.2205,-0.0008,-2.2749,-11.1880,-1.4201,-0.0000,0.007089,-0.003395,0.002782,-0.0012,0.0028,0.0023,-180.0000,0.0000,-0.0000
303,3.0300,0.0121,0.0170,-0.0141,0.0252,0.0000,0.0000,0.0000,20.0000,0.6992,1.6381,19.1438,35.8993,0.0350,0.000793,10.2205,-48.8543,-16.2591,65.1134,10.2205,-0.0008,-2.2749,-11.1880,-1.4201,-0.0000,0.005214,-0.003779,0.002724,-0.0006,0.0041,0.0007,-180.0000,0.0000,-0.0000
304,3.0400,-0.0106,0.0071,-0.0159,0.0204,0.0000,0.0000,0.0000,20.0000,0.4550,1.5797,34.1928,35.3915,0.0349,0.000980,10.2205,-48.8543,-16.2591,65.1134,10.2205,-0.0008,-2.2749,-11.1880,-1.4201,-0.0000,0.001891,-0.002988,0.002863,-0.0008,0.0044,-0.0000,-180.0000,0.0000,-0.0000
305,3.0500,-0.0339,-0.0071,-0.0216,0.0408,0.0000,0.0000,0.0000,20.0000,0.4330,1.5172,46.0937,35.6529,0.0350,0.000727,10.2205,-48.8543,-16.2591,65.1134,10.2205,-0.0008,-2.2749,-11.1880,-1.4201,-0.0000,-0.002277,-0.001128,0.003505,-0.0020,0.0049,-0.0001,-180.0000,0.0000,-0.0000
306,3.0600,-0.0511,-0.0223,-0.0307,0.0636,0.0000,0.0000,0.0000,20.0000,0.8019,1.4677,49.1948,36.3125,0.0353,0.000764,10.2205,-48.8543,-16.2591,65.1134,10.2205,-0.0008,-2.2749,-11.1880,-1.4201,-0.0000,-0.006293,0.001421,0.004762,-0.0016,0.0047,0.0008,-180.0000,0.0000,-0.0000
307,3.0700,-0.0641,-0.0380,-0.0388,0.0841,0.0000,0.0000,0.0000,20.0000,1.2438,1.4433,48.4440,37.0005,0.0357,0.000699,10.2205,-48.8543,-16.2591,65.1134,10.2205,-0.0008,-2.2749,-11.1880,-1.4201,-0.0000,-0.009807,0.004402,0.006257,0.0005,0.0039,0.0006,-180.0000,0.0000,-0.0000
308,3.0800,-0.0794,-0.0523,-0.0446,0.1051,0.0000,0.0000,0.0000,20.0000,1.7035,1.4449,48.2569,37.6248,0.0363,0.000705,10.2205,-48.8543,-16.2591,65.1134,10.2205,-0.0008,-2.2749,-11.1880,-1.4201,-0.0000,-0.013257,0.007473,0.007653,0.0003,0.0048,-0.0005,-180.0000,0.0000,-0.0000
309,3.0900,-0.0887,-0.0549,-0.0479,0.1148,0.0000,0.0000,0.0000,20.0000,2.0568,1.4689,35.8119,37.8674,0.0371,0.000705,10.2205,-48.8543,-16.2591,65.1134,10.2205,-0.0008,-2.2749,-11.1880,-1.4201,-0.0000,-0.016067,0.009414,0.008733,0.0011,0.0051,-0.0002,-180.0000,0.0000,-0.0000
310,3.1000,-0.0906,-0.0433,-0.0461,0.1105,0.0000,0.0000,0.0000,20.0000,2.2051,1.5053,17.6199,37.2540,0.0379,0.000690,10.2205,-48.8543,-16.2591,65.1134,10.2205,-0.0008,-2.2749,-11.1880,-1.4201,-0.0000,-0.017778,0.009308,0.009139,0.0018,0.0053,0.0000,-180.0000,0.0000,-0.0000
311,3.1100,-0.0911,-0.0269,-0.0377,0.1022,0.0000,0.0000,0.0000,20.0000,2.2183,1.5442,18.9838,36.2115,0.0388,0.000623,10.2436,-48.8732,-16.2733,65.1464,10.2436,-0.0106,-1.5500,-11.1890,-0.9946,0.0000,-0.018831,0.007769,0.008782,0.0012,0.0037,-0.0010,-180.0000,0.0000,0.0000
312,3.1200,-0.0866,-0.0080,-0.0275,0.0912,0.0000,0.0000,0.0000,20.0000,2.0987,1.5779,30.2173,35.5728,0.0396,0.000713,10.2436,-48.8732,-16.2733,65.1464,10.2436,-0.0106,-1.5500,-11.1890,-0.9946,0.0000,-0.018929,0.005011,0.007551,0.0010,0.0041,-0.0021,-180.0000,0.0000,0.0000
313,3.1300,-0.0714,0.0118,-0.0223,0.0757,0.0000,0.0000,0.0000,20.0000,1.8599,1.6000,40.1221,35.5506,0.0403,0.000834,10.2436,-48.8732,-16.2733,65.1464,10.2436,-0.0106,-1.5500,-11.1890,-0.9946,0.0000,-0.017424,0.001498,0.006331,0.0009,0.0028,-0.0003,-180.0000,0.0000,0.0000
314,3.1400,-0.0546,0.0213,-0.0239,0.0633,0.0000,0.0000,0.0000,20.0000,1.6034,1.6073,38.8894,35.7682,0.0409,0.000724,10.2436,-48.8732,-16.2733,65.1464,10.2436,-0.0106,-1.5500,-11.1890,-0.9946,0.0000,-0.014881,-0.001397,0.005803,0.0005,0.0029,-0.0000,-180.0000,0.0000,0.0000
315,3.1500,-0.0419,0.0242,-0.0296,0.0567,0.0000,0.0000,0.0000,20.0000,1.3991,1.6014,33.1408,35.7817,0.0413,0.000706,10.2436,-48.8732,-16.2733,65.1464,10.2436,-0.0106,-1.5500,-11.1890,-0.9946,0.0000,-0.012170,-0.003285,0.006068,0.0011,0.0038,-0.0011,-180.0000,0.0000,0.0000
316,3.1600,-0.0242,0.0340,-0.0400,0.0578,0.0000,0.0000,0.0000,20.0000,1.2631,1.5866,40.3528,35.8348,0.0417,0.000787,10.2436,-48.8732,-16.2733,65.1464,10.2436,-0.0106,-1.5500,-11.1890,-0.9946,0.0000,-0.008882,-0.005303,0.007249,0.0011,0.0053,-0.0001,-180.0000,0.0000,0.0000
317,3.1700,-0.0090,0.0493,-0.0521,0.0723,0.0000,0.0000,0.0000,20.0000,1.3277,1.5705,46.4557,36.2512,0.0418,0.000750,10.2436,-48.8732,-16.2733,65.1464,10.2436,-0.0106,-1.5500,-11.1890,-0.9946,0.0000,-0.005530,-0.007939,0.009092,0.0004,0.0052,0.0016,-180.0000,0.0000,0.0000
318,3.1800,-0.0037,0.0661,-0.0574,0.0876,0.0000,0.0000,0.0000,20.0000,1.5650,1.5637,42.2403,36.6966,0.0419,0.000705,10.2436,-48.8732,-16.2733,65.1464,10.2436,-0.0106,-1.5500,-11.1890,-0.9946,0.0000,-0.003128,-0.011057,0.010625,0.0007,0.0040,0.0012,-180.0000,0.0000,0.0000
319,3.1900,0.0001,0.0801,-0.0606,0.1005,0.0000,0.0000,0.0000,20.0000,1.8469,1.5715,37.2223,36.8635,0.0419,0.000740,10.2436,-48.8732,-16.2733,65.1464,10.2436,-0.0106,-1.5500,-11.1890,-0.9946,0.0000,-0.001421,-0.014159,0.011773,0.0013,0.0028,0.0020,-180.0000,0.0000,0.0000
320,3.2000,0.0047,0.0857,-0.0703,0.1109,0.0000,0.0000,0.0000,20.0000,2.1151,1.5941,30.8439,36.7078,0.0418,0.000827,10.2436,-48.8732,-16.2733,65.1464,10.2436,-0.0106,-1.5500,-11.1890,-0.9946,0.0000,-0.000012,-0.016407,0.013348,0.0007,0.0021,0.0020,-180.0000,0.0000,0.0000
321,3.2100,0.0089,0.0795,-0.0814,0.1141,0.0000,0.0000,0.0000,20.0000,2.2900,1.6275,23.6959,36.1887,0.0417,0.000748,10.2436,-48.8732,-16.2733,65.1464,10.2436,-0.0106,-1.5500,-11.1890,-0.9946,0.0000,0.001188,-0.016992,0.015305,-0.0001,0.0014,0.0017,-180.0000,0.0000,0.0000
322,3.2200,0.0207,0.0684,-0.0885,0.1138,0.0000,0.0000,0.0000,20.0000,2.3708,1.6662,26.7470,35.5854,0.0415,0.000714,10.2436,-48.8732,-16.2733,65.1464,10.2436,-0.0106,-1.5500,-11.1890,-0.9946,0.0000,0.003033,-0.016178,0.017063,-0.0008,0.0011,0.0016,-180.0000,0.0000,0.0000
323,3.2300,0.0311,0.0591,-0.0928,0.1144,0.0000,0.0000,0.0000,20.0000,2.4159,1.7062,28.4609,35.1463,0.0414,0.000694,10.2436,-48.8732,-16.2733,65.1464,10.2436,-0.0106,-1.5500,-11.1890,-0.9946,0.0000,0.005082,-0.014760,0.018437,-0.0005,0.0024,0.0012,-180.0000,0.0000,0.0000
324,3.2400,0.0290,0.0528,-0.0843,0.1036,0.0000,0.0000,0.0000,20.0000,2.3421,1.7432,17.0985,34.4661,0.0412,0.000737,10.2436,-48.8732,-16.2733,65.1464,10.2436,-0.0106,-1.5500,-11.1890,-0.9946,0.0000,0.005992,-0.013318,0.018310,-0.0008,0.0032,0.0011,-180.0000,0.0000,0.0000
325,3.2500,0.0201,0.0495,-0.0588,0.0795,0.0000,0.0000,0.0000,20.0000,2.0597,1.7684,29.2825,33.8458,0.0410,0.000700,10.2436,-48.8732,-16.2733,65.1464,10.2436,-0.0106,-1.5500,-11.1890,-0.9946,0.0000,0.005599,-0.012170,0.015645,-0.0001,0.0024,0.0024,-180.0000,0.0000,0.0000
326,3.2600,0.0079,0.0428,-0.0305,0.0532,0.0000,0.0000,0.0000,20.0000,1.6208,1.7723,47.5647,34.0976,0.0408,0.000705,10.2436,-48.8732,-16.2733,65.1464,10.2436,-0.0106,-1.5500,-11.1890,-0.9946,0.0000,0.004146,-0.010837,0.011317,0.0005,0.0024,0.0029,-180.0000,0.0000,0.0000
327,3.2700,-0.0126,0.0290,-0.0037,0.0318,0.0000,0.0000,0.0000,20.0000,1.0769,1.7490,62.2357,35.2419,0.0408,0.000802,10.2436,-48.8732,-16.2733,65.1464,10.2436,-0.0106,-1.5500,-11.1890,-0.9946,0.0000,0.001288,-0.008696,0.006220,-0.0000,0.0028,0.0016,-180.0000,0.0000,0.0000
328,3.2800,-0.0306,0.0102,0.0183,0.0371,0.0000,0.0000,0.0000,20.0000,0.6113,1.6993,68.0032,36.8854,0.0408,0.001028,10.2436,-48.8732,-16.2733,65.1464,10.2436,-0.0106,-1.5500,-11.1890,-0.9946,0.0000,-0.002101,-0.005615,0.001193,-0.0008,0.0022,0.0014,-180.0000,0.0000,0.0000
329,3.2900,-0.0394,-0.0106,0.0286,0.0498,0.0000,0.0000,0.0000,20.0000,0.5799,1.6385,60.3464,38.3866,0.0409,0.000722,10.2436,-48.8732,-16.2733,65.1464,10.2436,-0.0106,-1.5500,-11.1890,-0.9946,0.0000,-0.004841,-0.001824,-0.002620,-0.0024,0.0033,0.0009,-180.0000,0.0000,0.0000
330,3.3000,-0.0489,-0.0354,0.0276,0.0664,0.0000,0.0000,0.0000,20.0000,0.9071,1.5893,55.7525,39.4682,0.0412,0.000737,10.2436,-48.8732,-16.2733,65.1464,10.2436,-0.0106,-1.5500,-11.1890,-0.9946,0.0000,-0.007299,0.002761,-0.004625,-0.0049,0.0043,0.0004,-180.0000,0.0000,0.0000
331,3.3100,-0.0605,-0.0553,0.0184,0.0840,0.0000,0.0000,0.0000,20.0000,1.3094,1.5628,51.5383,40.2481,0.0416,0.000857,10.2283,-48.9297,-16.2777,65.2074,10.2283,-0.0046,-1.5396,-11.1853,-0.9936,0.0000,-0.010072,0.007100,-0.004427,-0.0048,0.0050,-0.0002,-180.0000,0.0000,0.0000
332,3.3200,-0.0699,-0.0653,0.0048,0.0958,0.0000,0.0000,0.0000,20.0000,1.6595,1.5585,44.3121,40.6704,0.0421,0.000721,10.2283,-48.9297,-16.2777,65.2074,10.2283,-0.0046,-1.5396,-11.1853,-0.9936,0.0000,-0.012523,0.010483,-0.002947,-0.0039,0.0052,0.0007,-180.0000,0.0000,0.0000
333,3.3300,-0.0724,-0.0689,-0.0049,0.1001,0.0000,0.0000,0.0000,20.0000,1.9010,1.5707,32.5781,40.5480,0.0428,0.000735,10.2283,-48.9297,-16.2777,65.2074,10.2283,-0.0046,-1.5396,-11.1853,-0.9936,0.0000,-0.014105,0.012693,-0.001151,-0.0035,0.0050,0.0003,-180.0000,0.0000,0.0000
334,3.3400,-0.0648,-0.0631,-0.0083,0.0908,0.0000,0.0000,0.0000,20.0000,1.9451,1.5901,14.6832,39.6174,0.0435,0.000726,10.2283,-48.9297,-16.2777,65.2074,10.2283,-0.0046,-1.5396,-11.1853,-0.9936,0.0000,-0.014186,0.013307,0.000180,-0.0018,0.0034,0.0013,-180.0000,0.0000,0.0000
335,3.3500,-0.0471,-0.0535,-0.0095,0.0719,0.0000,0.0000,0.0000,20.0000,1.7779,1.6050,20.4997,38.4058,0.0442,0.000771,10.2283,-48.9297,-16.2777,65.2074,10.2283,-0.0046,-1.5396,-11.1853,-0.9936,0.0000,-0.012440,0.012660,0.001036,-0.0008,0.0025,0.0018,-180.0000,0.0000,0.0000
336,3.3600,-0.0254,-0.0477,-0.0048,0.0543,0.0000,0.0000,0.0000,20.0000,1.4967,1.6068,33.0409,37.7657,0.0447,0.000683,10.2283,-48.9297,-16.2777,65.2074,10.2283,-0.0046,-1.5396,-11.1853,-0.9936,0.0000,-0.009279,0.011698,0.001036,-0.0009,0.0025,0.0015,-180.0000,0.0000,0.0000
337,3.3700,-0.0016,-0.0430,0.0015,0.0430,0.0000,0.0000,0.0000,20.0000,1.1844,1.5922,43.2259,37.7859,0.0450,0.000659,10.2283,-48.9297,-16.2777,65.2074,10.2283,-0.0046,-1.5396,-11.1853,-0.9936,0.0000,-0.005127,0.010669,0.000409,-0.0003,0.0022,0.0021,-180.0000,0.0000,0.0000
338,3.3800,0.0164,-0.0455,0.0012,0.0484,0.0000,0.0000,0.0000,20.0000,1.0387,1.5657,41.2735,38.0315,0.0452,0.000734,10.2283,-48.9297,-16.2777,65.2074,10.2283,-0.0046,-1.5396,-11.1853,-0.9936,0.0000,-0.001026,0.010336,0.000092,-0.0013,0.0025,0.0033,-180.0000,0.0000,0.0000
339,3.3900,0.0145,-0.0621,-0.0058,0.0640,0.0000,0.0000,0.0000,20.0000,1.1845,1.5407,25.8573,37.7858,0.0453,0.000705,10.2283,-48.9297,-16.2777,65.2074,10.2283,-0.0046,-1.5396,-11.1853,-0.9936,0.0000,0.001053,0.011783,0.000613,-0.0015,0.0039,0.0017,-180.0000,0.0000,0.0000
340,3.4000,-0.0017,-0.0801,-0.0134,0.0812,0.0000,0.0000,0.0000,20.0000,1.4468,1.5284,28.2461,37.1954,0.0455,0.000719,10.2283,-48.9297,-16.2777,65.2074,10.2283,-0.0046,-1.5396,-11.1853,-0.9936,0.0000,0.000579,0.014361,0.001665,0.0001,0.0053,0.0004,-180.0000,0.0000,0.0000
341,3.4100,-0.0166,-0.0907,-0.0195,0.0942,0.0000,0.0000,0.0000,20.0000,1.7098,1.5311,32.3959,36.8172,0.0458,0.000810,10.2283,-48.9297,-16.2777,65.2074,10.2283,-0.0046,-1.5396,-11.1853,-0.9936,0.0000,-0.001169,0.016818,0.002849,0.0013,0.0053,0.0009,-180.0000,0.0000,0.0000
342,3.4200,-0.0353,-0.0990,-0.0224,0.1075,0.0000,0.0000,0.0000,20.0000,1.9765,1.5483,36.9054,36.6980,0.0462,0.000738,10.2283,-48.9297,-16.2777,65.2074,10.2283,-0.0046,-1.5396,-11.1853,-0.9936,0.0000,-0.004009,0.018979,0.003792,0.0014,0.0062,-0.0011,-180.0000,0.0000,0.0000
343,3.4300,-0.0599,-0.1032,-0.0201,0.1210,0.0000,0.0000,0.0000,20.0000,2.2436,1.5792,43.2806,36.8848,0.0469,0.000665,10.2283,-48.9297,-16.2777,65.2074,10.2283,-0.0046,-1.5396,-11.1853,-0.9936,0.0000,-0.008032,0.020550,0.004073,0.0024,0.0077,-0.0019,-180.0000,0.0000,0.0000
344,3.4400,-0.0783,-0.0942,-0.0147,0.1234,0.0000,0.0000,0.0000,20.0000,2.4061,1.6202,40.6740,37.1649,0.0477,0.000761,10.2283,-48.9297,-16.2777,65.2074,10.2283,-0.0046,-1.5396,-11.1853,-0.9936,0.0000,-0.012079,0.020482,0.003676,0.0028,0.0078,-0.0023,-180.0000,0.0000,0.0000
345,3.4500,-0.0968,-0.0755,-0.0090,0.1231,0.0000,0.0000,0.0000,20.0000,2.4736,1.6653,45.7264,37.4969,0.0486,0.000846,10.2283,-48.9297,-16.2777,65.2074,10.2283,-0.0046,-1.5396,-11.1853,-0.9936,0.0000,-0.016136,0.018526,0.002886,0.0001,0.0073,-0.0016,-180.0000,0.0000,0.0000
346,3.4600,-0.1293,-0.0494,-0.0135,0.1391,0.0000,0.0000,0.0000,20.0000,2.6342,1.7142,66.1015,38.5100,0.0497,0.000721,10.2283,-48.9297,-16.2777,65.2074,10.2283,-0.0046,-1.5396,-11.1853,-0.9936,0.0000,-0.021598,0.014802,0.002888,-0.0025,0.0074,-0.0010,-180.0000,0.0000,0.0000
347,3.4700,-0.1639,-0.0088,-0.0326,0.1674,0.0000,0.0000,0.0000,20.0000,2.9730,1.7741,91.0644,40.7143,0.0511,0.000785,10.2283,-48.9297,-16.2777,65.2074,10.2283,-0.0046,-1.5396,-11.1853,-0.9936,0.0000,-0.028036,0.008651,0.004796,-0.0050,0.0057,0.0020,-180.0000,0.0000,0.0000
348,3.4800,-0.2037,0.0543,-0.0593,0.2190,0.0000,0.0000,0.0000,20.0000,3.6541,1.8588,128.2169,44.5058,0.0526,0.000825,10.2283,-48.9297,-16.2777,65.2074,10.2283,-0.0046,-1.5396,-11.1853,-0.9936,0.0000,-0.035520,-0.001074,0.008510,-0.0092,0.0037,0.0043,-180.0000,0.0000,0.0000
349,3.4900,-0.2531,0.1327,-0.0844,0.2980,0.0000,0.0000,0.0000,20.0000,4.8550,1.9906,166.2280,50.1561,0.0544,0.000735,10.2283,-48.9297,-16.2777,65.2074,10.2283,-0.0046,-1.5396,-11.1853,-0.9936,0.0000,-0.044525,-0.014286,0.013058,-0.0105,0.0036,0.0075,-180.0000,0.0000,0.0000
350,3.5000,-0.2904,0.2105,-0.1026,0.3731,0.0000,0.0000,0.0000,20.0000,6.3143,2.1883,178.7772,56.8861,0.0565,0.000735,10.2283,-48.9297,-16.2777,65.2074,10.2283,-0.0046,-1.5396,-11.1853,-0.9936,0.0000,-0.053145,-0.029344,0.017367,-0.0102,0.0024,0.0086,-180.0000,0.0000,0.0000
351,3.5100,-0.3103,0.2709,-0.1055,0.4252,0.0000,0.0000,0.0000,20.0000,7.6740,2.4526,158.2808,63.0274,0.0588,0.000717,10.2743,-48.9674,-16.2650,65.2324,10.2743,0.0008,-1.5482,-11.1932,-0.9944,0.0000,-0.060090,-0.043308,0.020068,-0.0103,0.0007,0.0080,-180.0000,-0.0000,0.0000
352,3.5200,-0.3194,0.3032,-0.0923,0.4500,0.0000,0.0000,0.0000,20.0000,8.6783,2.7675,118.1463,67.1632,0.0613,0.000753,10.2743,-48.9674,-16.2650,65.2324,10.2743,0.0008,-1.5482,-11.1932,-0.9944,0.0000,-0.064715,-0.054179,0.020194,-0.0077,0.0003,0.0062,-180.0000,-0.0000,0.0000
353,3.5300,-0.3013,0.3075,-0.0707,0.4362,0.0000,0.0000,0.0000,20.0000,9.0860,3.1038,67.0096,68.5612,0.0639,0.000783,10.2743,-48.9674,-16.2650,65.2324,10.2743,0.0008,-1.5482,-11.1932,-0.9944,0.0000,-0.065334,-0.060503,0.018066,-0.0043,0.0005,0.0029,-180.0000,-0.0000,0.0000
354,3.5400,-0.2390,0.2918,-0.0282,0.3782,0.0000,0.0000,0.0000,20.0000,8.6948,3.4221,83.2306,68.9220,0.0662,0.000703,10.2743,-48.9674,-16.2650,65.2324,10.2743,0.0008,-1.5482,-11.1932,-0.9944,0.0000,-0.059320,-0.062309,0.012603,-0.0067,0.0050,-0.0024,-180.0000,-0.0000,0.0000
355,3.5500,-0.1568,0.2715,0.0371,0.3157,0.0000,0.0000,0.0000,20.0000,7.7589,3.6864,151.3931,71.5838,0.0680,0.000688,10.2743,-48.9674,-16.2650,65.2324,10.2743,0.0008,-1.5482,-11.1932,-0.9944,0.0000,-0.047652,-0.061157,0.003026,-0.0047,0.0071,-0.0044,-180.0000,-0.0000,0.0000
356,3.5600,-0.0762,0.2578,0.1052,0.2887,0.0000,0.0000,0.0000,20.0000,6.8253,3.8848,190.8893,77.0603,0.0691,0.000771,10.2743,-48.9674,-16.2650,65.2324,10.2743,0.0008,-1.5482,-11.1932,-0.9944,0.0000,-0.033051,-0.059022,-0.009084,-0.0036,0.0097,-0.0052,-180.0000,-0.0000,0.0000
357,3.5700,0.0079,0.2500,0.1678,0.3012,0.0000,0.0000,0.0000,20.0000,6.3246,4.0328,211.0510,83.8763,0.0692,0.000715,10.2743,-48.9674,-16.2650,65.2324,10.2743,0.0008,-1.5482,-11.1932,-0.9944,0.0000,-0.016501,-0.056949,-0.022016,-0.0039,0.0121,-0.0069,-180.0000,-0.0000,0.0000
358,3.5800,0.0935,0.2366,0.2231,0.3384,0.0000,0.0000,0.0000,20.0000,6.4467,4.1622,219.3358,91.0998,0.0684,0.000663,10.2743,-48.9674,-16.2650,65.2324,10.2743,0.0008,-1.5482,-11.1932,-0.9944,0.0000,0.001238,-0.054348,-0.034651,-0.0027,0.0151,-0.0069,-180.0000,-0.0000,0.0000
359,3.5900,0.1656,0.2135,0.2522,0.3696,0.0000,0.0000,0.0000,20.0000,6.9718,4.3023,200.2834,97.6298,0.0666,0.000909,10.2743,-48.9674,-16.2650,65.2324,10.2743,0.0008,-1.5482,-11.1932,-0.9944,0.0000,0.018256,-0.050486,-0.044480,0.0026,0.0117,-0.0051,-180.0000,-0.0000,0.0000
360,3.6000,0.2294,0.1868,0.2526,0.3891,0.0000,0.0000,0.0000,20.0000,7.5638,4.4654,173.5105,102.5402,0.0642,0.000795,10.2743,-48.9674,-16.2650,65.2324,10.2743,0.0008,-1.5482,-11.1932,-0.9944,0.0000,0.034006,-0.045588,-0.049864,0.0024,0.0145,-0.0065,-180.0000,-0.0000,0.0000
361,3.6100,0.2881,0.1590,0.2477,0.4118,0.0000,0.0000,0.0000,20.0000,8.1749,4.6527,157.2220,105.9961,0.0612,0.000683,10.2743,-48.9674,-16.2650,65.2324,10.2743,0.0008,-1.5482,-11.1932,-0.9944,0.0000,0.048509,-0.040003,-0.052246,0.0030,0.0167,-0.0080,-180.0000,-0.0000,0.0000
362,3.6200,0.3278,0.1402,0.2427,0.4313,0.0000,0.0000,0.0000,20.0000,8.7606,4.8625,129.3430,108.0472,0.0577,0.000741,10.2743,-48.9674,-16.2650,65.2324,10.2743,0.0008,-1.5482,-11.1932,-0.9944,0.0000,0.060400,-0.034963,-0.052956,0.0005,0.0182,-0.0083,-180.0000,-0.0000,0.0000
